;FLAVOR:Marlin
;TIME:2224
;Filament used: 1.99471m
;Layer height: 0.25
;MINX:41.656
;MINY:35.973
;MINZ:0.3
;MAXX:78.331
;MAXY:83.818
;MAXZ:26.05
;Generated with Cura_SteamEngine 4.8.0
M140 S65
M105
M190 S65
M104 S200
M105
M109 S200
M82 ;absolute extrusion mode
G28 ;Home
G1 Z15.0 F6000 ;Move the platform down 15mm
;Prime the extruder
G92 E0
G1 F200 E3
G92 E0
M83 ;relative extrusion mode
G1 F2700 E-2
;LAYER_COUNT:104
;LAYER:0
M107
M204 S1000
M205 X10 Y10
G0 F1500 X47.549 Y47.416 Z0.3
M204 S500
;TYPE:SKIRT
G1 F2700 E2
G1 F1200 X47.313 Y47.842 E0.03098
G1 X46.921 Y48.677 E0.05868
G1 X46.565 Y49.587 E0.06216
G1 X46.278 Y50.5 E0.06088
G1 X46.044 Y51.469 E0.06341
G1 X45.891 Y52.379 E0.0587
G1 X45.759 Y54.311 E0.12318
G1 X45.886 Y56.207 E0.12087
G1 X46.04 Y57.121 E0.05896
G1 X46.269 Y58.083 E0.0629
G1 X46.564 Y59.027 E0.06291
G1 X46.921 Y59.942 E0.06248
G1 X47.309 Y60.768 E0.05805
G1 X47.548 Y61.203 E0.03157
G1 X47.866 Y61.171 E0.02033
G1 X48.525 Y61.191 E0.04194
G1 X48.648 Y61.205 E0.00787
G1 X49.352 Y61.342 E0.04562
G1 X49.476 Y61.377 E0.0082
G1 X50.165 Y61.637 E0.04684
G1 X50.272 Y61.688 E0.00754
G1 X50.771 Y61.971 E0.03649
G1 X51.15 Y62.271 E0.03075
G1 X51.266 Y62.489 E0.01571
G1 X51.307 Y62.732 E0.01568
G1 X51.269 Y62.975 E0.01565
G1 X51.12 Y63.218 E0.01813
G1 X51.246 Y63.127 E0.00989
G1 X51.481 Y63.053 E0.01567
G1 X51.728 Y63.059 E0.01572
G1 X51.96 Y63.143 E0.0157
G1 X52.153 Y63.296 E0.01567
G1 X52.251 Y63.43 E0.01056
G1 X52.556 Y63.961 E0.03895
G1 X52.607 Y64.068 E0.00754
G1 X52.866 Y64.742 E0.04593
G1 X52.902 Y64.864 E0.00809
G1 X53.04 Y65.546 E0.04426
G1 X53.054 Y65.668 E0.00781
G1 X53.082 Y66.38 E0.04533
G1 X53.049 Y66.727 E0.02217
G1 X53.362 Y66.904 E0.02287
G1 X54.142 Y67.285 E0.05522
G1 X54.947 Y67.62 E0.05546
G1 X55.72 Y67.886 E0.052
G1 X56.559 Y68.123 E0.05546
G1 X57.376 Y68.3 E0.05317
G1 X58.227 Y68.433 E0.05479
G1 X59.106 Y68.516 E0.05616
G1 X59.992 Y68.543 E0.05638
G1 X60.92 Y68.513 E0.05906
G1 X61.773 Y68.431 E0.05451
G1 X62.615 Y68.299 E0.05421
G1 X63.446 Y68.116 E0.05413
G1 X64.272 Y67.886 E0.05454
G1 X65.054 Y67.611 E0.05273
G1 X65.855 Y67.28 E0.05513
G1 X66.612 Y66.911 E0.05357
G1 X66.936 Y66.728 E0.02367
G1 X66.909 Y66.464 E0.01688
G1 X66.923 Y65.749 E0.04549
G1 X66.937 Y65.617 E0.00844
G1 X67.083 Y64.872 E0.04829
G1 X67.12 Y64.746 E0.00835
G1 X67.378 Y64.072 E0.04591
G1 X67.431 Y63.959 E0.00794
G1 X67.768 Y63.382 E0.0425
G1 X67.925 Y63.192 E0.01568
G1 X68.135 Y63.062 E0.01571
G1 X68.375 Y63.005 E0.01569
G1 X68.62 Y63.027 E0.01565
G1 X68.881 Y63.155 E0.01849
G1 X68.804 Y63.048 E0.00839
G1 X68.73 Y62.813 E0.01567
G1 X68.736 Y62.566 E0.01572
G1 X68.819 Y62.334 E0.01567
G1 X69.097 Y62.048 E0.02537
G1 X69.642 Y61.724 E0.04033
G1 X69.754 Y61.67 E0.00791
G1 X70.469 Y61.39 E0.04884
G1 X70.595 Y61.352 E0.00837
G1 X71.266 Y61.215 E0.04356
G1 X71.384 Y61.201 E0.00756
G1 X72.047 Y61.171 E0.04222
G1 X72.44 Y61.202 E0.02508
G1 X72.674 Y60.776 E0.03092
G1 X73.066 Y59.942 E0.05862
G1 X73.422 Y59.03 E0.06228
G1 X73.711 Y58.109 E0.0614
G1 X73.944 Y57.141 E0.06333
G1 X74.097 Y56.238 E0.05826
G1 X74.227 Y54.308 E0.12305
G1 X74.1 Y52.408 E0.12113
G1 X73.947 Y51.496 E0.05882
G1 X73.717 Y50.53 E0.06316
G1 X73.421 Y49.582 E0.06317
G1 X73.069 Y48.682 E0.06147
G1 X72.674 Y47.842 E0.05905
G1 X72.438 Y47.414 E0.03109
G1 X72.12 Y47.447 E0.02034
G1 X71.462 Y47.427 E0.04187
G1 X71.339 Y47.413 E0.00787
G1 X70.635 Y47.276 E0.04562
G1 X70.511 Y47.241 E0.0082
G1 X69.822 Y46.981 E0.04684
G1 X69.715 Y46.93 E0.00754
G1 X69.216 Y46.647 E0.03649
G1 X68.837 Y46.347 E0.03075
G1 X68.721 Y46.129 E0.01571
G1 X68.68 Y45.886 E0.01568
G1 X68.718 Y45.643 E0.01565
G1 X68.867 Y45.4 E0.01813
G1 X68.741 Y45.491 E0.00989
G1 X68.506 Y45.564 E0.01565
G1 X68.26 Y45.559 E0.01565
G1 X68.028 Y45.476 E0.01567
G1 X67.834 Y45.323 E0.01572
G1 X67.736 Y45.188 E0.01061
G1 X67.431 Y44.657 E0.03895
G1 X67.381 Y44.552 E0.0074
G1 X67.131 Y43.906 E0.04406
G1 X67.095 Y43.785 E0.00803
G1 X66.948 Y43.074 E0.04618
G1 X66.933 Y42.949 E0.00801
G1 X66.905 Y42.237 E0.04533
G1 X66.938 Y41.89 E0.02217
G1 X66.617 Y41.709 E0.02344
G1 X65.852 Y41.335 E0.05417
G1 X65.035 Y40.995 E0.05629
G1 X64.267 Y40.731 E0.05166
G1 X63.428 Y40.494 E0.05546
G1 X62.611 Y40.317 E0.05317
G1 X61.758 Y40.184 E0.05491
G1 X60.883 Y40.102 E0.0559
G1 X59.994 Y40.075 E0.05658
G1 X59.077 Y40.104 E0.05836
G1 X58.228 Y40.184 E0.05424
G1 X57.372 Y40.318 E0.05511
G1 X56.541 Y40.501 E0.05413
G1 X55.715 Y40.731 E0.05454
G1 X54.933 Y41.006 E0.05273
G1 X54.143 Y41.332 E0.05436
G1 X53.362 Y41.713 E0.05528
G1 X53.051 Y41.888 E0.0227
G1 X53.078 Y42.154 E0.01701
G1 X53.064 Y42.868 E0.04543
G1 X53.05 Y43 E0.00844
G1 X52.904 Y43.745 E0.04829
G1 X52.868 Y43.871 E0.00834
G1 X52.61 Y44.546 E0.04597
G1 X52.555 Y44.659 E0.00799
G1 X52.218 Y45.235 E0.04245
G1 X52.061 Y45.425 E0.01568
G1 X51.852 Y45.555 E0.01566
G1 X51.612 Y45.612 E0.01569
G1 X51.366 Y45.59 E0.01571
G1 X51.104 Y45.46 E0.0186
G1 X51.183 Y45.57 E0.00861
G1 X51.257 Y45.805 E0.01567
G1 X51.251 Y46.052 E0.01572
G1 X51.168 Y46.284 E0.01567
G1 X51.015 Y46.477 E0.01567
G1 X50.889 Y46.57 E0.00996
G1 X50.344 Y46.893 E0.0403
G1 X50.234 Y46.947 E0.00779
G1 X49.519 Y47.228 E0.04887
G1 X49.392 Y47.266 E0.00843
G1 X48.721 Y47.403 E0.04356
G1 X48.601 Y47.417 E0.00768
G1 X47.965 Y47.445 E0.0405
G0 F960 X47.906 Y47.447
G0 X47.549 Y47.416
M204 S1000
G0 F1500 X47.778 Y46.932
M204 S500
G1 F1200 X47.271 Y46.865 E0.03253
G1 X46.881 Y47.566 E0.05103
G1 X46.858 Y47.611 E0.00321
G1 X46.451 Y48.478 E0.06092
G1 X46.082 Y49.423 E0.06453
G1 X45.787 Y50.361 E0.06255
G1 X45.543 Y51.371 E0.06609
G1 X45.383 Y52.32 E0.06122
G1 X45.248 Y54.308 E0.12675
G1 X45.379 Y56.267 E0.12489
G1 X45.539 Y57.216 E0.06122
G1 X45.778 Y58.223 E0.06583
G1 X46.082 Y59.194 E0.06472
G1 X46.451 Y60.139 E0.06453
G1 X46.855 Y61 E0.0605
G1 X46.925 Y61.131 E0.00945
G1 X47.272 Y61.754 E0.04536
G1 X47.81 Y61.683 E0.03452
G1 X47.851 Y61.681 E0.00261
G1 X48.51 Y61.701 E0.04194
G1 X48.551 Y61.706 E0.00263
G1 X49.255 Y61.843 E0.04562
G1 X49.296 Y61.854 E0.0027
G1 X49.985 Y62.114 E0.04684
G1 X50.021 Y62.131 E0.00253
G1 X50.537 Y62.425 E0.03778
G1 X50.775 Y62.633 E0.02011
G1 X50.794 Y62.773 E0.00899
G1 X50.723 Y62.916 E0.01016
G1 X49.33 Y64.315 E0.12558
G1 X49.206 Y64.384 E0.00903
G1 X49.055 Y64.372 E0.00964
G1 X48.596 Y64.191 E0.03139
G1 X48.048 Y64.118 E0.03517
G1 X47.742 Y64.137 E0.0195
G1 X47.267 Y64.27 E0.03138
G1 X46.979 Y64.406 E0.02026
G1 X46.573 Y64.723 E0.03277
G1 X46.243 Y65.143 E0.03398
G1 X46.11 Y65.405 E0.01869
G1 X45.982 Y65.892 E0.03203
G1 X45.954 Y66.216 E0.02069
G1 X46.018 Y66.733 E0.03314
G1 X46.195 Y67.204 E0.03201
G1 X46.174 Y67.447 E0.01551
G1 X46.113 Y67.545 E0.00734
G1 X44.764 Y68.901 E0.12167
G1 X44.64 Y68.97 E0.00903
G1 X44.499 Y68.962 E0.00898
G1 X44.368 Y68.858 E0.01064
G1 X44.093 Y68.426 E0.03257
G1 X44.076 Y68.394 E0.0023
G1 X43.786 Y67.755 E0.04464
G1 X43.771 Y67.714 E0.00278
G1 X43.577 Y66.963 E0.04934
G1 X43.57 Y66.917 E0.00296
G1 X43.514 Y66.147 E0.04911
G1 X43.515 Y66.101 E0.00293
G1 X43.602 Y65.314 E0.05037
G1 X43.608 Y65.279 E0.00226
G1 X43.817 Y64.455 E0.05407
G1 X43.898 Y63.958 E0.03203
G1 X43.931 Y62.988 E0.06174
G1 X43.8 Y62.029 E0.06157
G1 X43.674 Y61.556 E0.03114
G1 X43.493 Y61.056 E0.03382
G1 X42.922 Y59.447 E0.1086
G1 X42.691 Y58.606 E0.05548
G1 X42.501 Y57.752 E0.05565
G1 X42.354 Y56.89 E0.05562
G1 X42.249 Y56.026 E0.05536
G1 X42.186 Y55.163 E0.05504
G1 X42.166 Y54.303 E0.05472
G1 X42.187 Y53.442 E0.05478
G1 X42.253 Y52.554 E0.05664
G1 X42.36 Y51.691 E0.05532
G1 X42.508 Y50.829 E0.05563
G1 X42.701 Y49.975 E0.05569
G1 X42.936 Y49.129 E0.05585
G1 X43.502 Y47.535 E0.1076
G1 X43.672 Y47.068 E0.03161
G1 X43.805 Y46.578 E0.0323
G1 X43.931 Y45.628 E0.06096
G1 X43.898 Y44.659 E0.06167
G1 X43.816 Y44.156 E0.03242
G1 X43.695 Y43.68 E0.03124
G1 X43.551 Y42.992 E0.04471
G1 X43.546 Y42.949 E0.00275
G1 X43.518 Y42.188 E0.04844
G1 X43.521 Y42.143 E0.00287
G1 X43.627 Y41.405 E0.04743
G1 X43.637 Y41.36 E0.00293
G1 X43.894 Y40.593 E0.05145
G1 X43.912 Y40.553 E0.00279
G1 X44.209 Y40.003 E0.03976
G1 X44.42 Y39.739 E0.0215
G1 X44.559 Y39.715 E0.00897
G1 X44.711 Y39.787 E0.0107
G1 X46.115 Y41.185 E0.12603
G1 X46.184 Y41.309 E0.00903
G1 X46.175 Y41.452 E0.00911
G1 X46.014 Y41.901 E0.03034
G1 X45.956 Y42.449 E0.03505
G1 X46.041 Y43.005 E0.03578
G1 X46.241 Y43.471 E0.03226
G1 X46.577 Y43.9 E0.03466
G1 X46.98 Y44.21 E0.03234
G1 X47.478 Y44.423 E0.03445
G1 X47.984 Y44.5 E0.03256
G1 X48.521 Y44.446 E0.03433
G1 X49.12 Y44.257 E0.03995
G1 X49.272 Y44.33 E0.01073
G1 X50.679 Y45.731 E0.1263
G1 X50.748 Y45.855 E0.00903
G1 X50.74 Y45.996 E0.00898
G1 X50.629 Y46.131 E0.01112
G1 X50.084 Y46.454 E0.0403
G1 X50.047 Y46.472 E0.00262
G1 X49.332 Y46.753 E0.04887
G1 X49.29 Y46.766 E0.0028
G1 X48.619 Y46.903 E0.04356
G1 X48.579 Y46.908 E0.00256
G1 X48.195 Y46.925 E0.02445
G0 F960 X47.884 Y46.938
G0 X47.778 Y46.932
M204 S1000
G1 F2700 E-2
G0 F1500 X49.971 Y43.629
M204 S500
G1 F2700 E2
G1 F1200 X49.902 Y43.505 E0.00903
G1 X49.912 Y43.36 E0.00925
G1 X50.079 Y42.906 E0.03077
G1 X50.136 Y42.381 E0.03359
G1 X50.055 Y41.833 E0.03524
G1 X49.843 Y41.341 E0.03408
G1 X49.509 Y40.915 E0.03443
G1 X49.108 Y40.607 E0.03216
G1 X48.611 Y40.394 E0.0344
G1 X48.1 Y40.317 E0.03287
G1 X47.56 Y40.374 E0.03454
G1 X47.084 Y40.547 E0.03222
G1 X46.943 Y40.556 E0.00899
G1 X46.817 Y40.488 E0.00911
G1 X45.52 Y39.196 E0.11645
G1 X45.35 Y38.929 E0.02013
G1 X45.372 Y38.789 E0.00901
G1 X45.475 Y38.676 E0.00973
G1 X46.083 Y38.324 E0.04469
G1 X46.123 Y38.306 E0.00279
G1 X46.842 Y38.042 E0.04872
G1 X46.886 Y38.03 E0.0029
G1 X47.657 Y37.895 E0.04979
G1 X47.703 Y37.891 E0.00294
G1 X48.462 Y37.896 E0.04828
G1 X48.579 Y37.91 E0.0075
G1 X49.276 Y38.048 E0.0452
G1 X49.782 Y38.174 E0.03317
G1 X50.302 Y38.255 E0.03348
G1 X51.273 Y38.28 E0.06179
G1 X52.227 Y38.143 E0.06131
G1 X52.732 Y38.002 E0.03335
G1 X53.152 Y37.846 E0.0285
G1 X53.965 Y37.532 E0.05544
G1 X54.787 Y37.258 E0.05512
G1 X55.63 Y37.023 E0.05567
G1 X56.472 Y36.832 E0.05492
G1 X57.386 Y36.674 E0.059
G1 X58.248 Y36.567 E0.05525
G1 X59.938 Y36.484 E0.10763
G1 X60.057 Y36.483 E0.00757
G1 X61.758 Y36.569 E0.10834
G1 X62.64 Y36.679 E0.05654
G1 X63.528 Y36.833 E0.05733
G1 X64.394 Y37.033 E0.05654
G1 X65.238 Y37.27 E0.05576
G1 X66.032 Y37.535 E0.05325
G1 X66.858 Y37.855 E0.05635
G1 X67.717 Y38.13 E0.05737
G1 X68.182 Y38.221 E0.03014
G1 X68.716 Y38.279 E0.03417
G1 X69.685 Y38.255 E0.06166
G1 X70.17 Y38.18 E0.03122
G1 X70.723 Y38.046 E0.03619
G1 X71.438 Y37.905 E0.04636
G1 X71.481 Y37.9 E0.00275
G1 X72.174 Y37.884 E0.04409
G1 X72.218 Y37.887 E0.00281
G1 X72.988 Y38.002 E0.04952
G1 X73.033 Y38.013 E0.00295
G1 X73.792 Y38.274 E0.05105
G1 X73.832 Y38.292 E0.00279
G1 X74.429 Y38.621 E0.04336
G1 X74.529 Y38.721 E0.009
G1 X74.561 Y38.858 E0.00895
G1 X74.492 Y39.019 E0.01114
G1 X73.982 Y39.562 E0.04739
G1 X73.096 Y40.451 E0.07984
G1 X72.972 Y40.52 E0.00903
G1 X72.833 Y40.512 E0.00886
G1 X72.411 Y40.368 E0.02836
G1 X72.001 Y40.317 E0.02628
G1 X71.574 Y40.349 E0.02724
G1 X71.125 Y40.481 E0.02977
G1 X70.745 Y40.692 E0.02765
G1 X70.401 Y40.991 E0.02899
G1 X70.115 Y41.391 E0.03128
G1 X69.963 Y41.737 E0.02404
G1 X69.852 Y42.327 E0.03819
G1 X69.895 Y42.844 E0.033
G1 X70.05 Y43.311 E0.0313
G1 X70.056 Y43.452 E0.00898
G1 X69.989 Y43.571 E0.00869
G1 X68.58 Y44.987 E0.12707
G1 X68.456 Y45.056 E0.00903
G1 X68.315 Y45.048 E0.00898
G1 X68.178 Y44.934 E0.01134
G1 X67.873 Y44.403 E0.03895
G1 X67.856 Y44.368 E0.00248
G1 X67.606 Y43.722 E0.04406
G1 X67.594 Y43.682 E0.00266
G1 X67.447 Y42.971 E0.04618
G1 X67.442 Y42.929 E0.00269
G1 X67.414 Y42.217 E0.04533
G1 X67.416 Y42.174 E0.00274
G1 X67.489 Y41.616 E0.0358
G1 X66.858 Y41.259 E0.04612
G1 X66.055 Y40.867 E0.05684
G1 X65.214 Y40.517 E0.05794
G1 X64.421 Y40.245 E0.05333
G1 X63.548 Y39.997 E0.05773
G1 X62.711 Y39.816 E0.05447
G1 X61.821 Y39.677 E0.0573
G1 X60.913 Y39.593 E0.058
G1 X59.993 Y39.564 E0.05855
G1 X59.047 Y39.595 E0.06021
G1 X58.165 Y39.677 E0.05635
G1 X57.28 Y39.816 E0.05698
G1 X56.421 Y40.005 E0.05595
G1 X55.561 Y40.245 E0.05679
G1 X54.752 Y40.529 E0.05454
G1 X53.921 Y40.872 E0.05719
G1 X53.128 Y41.259 E0.05613
G1 X52.497 Y41.615 E0.04609
G1 X52.568 Y42.144 E0.03395
G1 X52.554 Y42.858 E0.04543
G1 X52.549 Y42.902 E0.00282
G1 X52.403 Y43.647 E0.04829
G1 X52.391 Y43.689 E0.00278
G1 X52.133 Y44.364 E0.04597
G1 X52.115 Y44.402 E0.00267
G1 X51.778 Y44.978 E0.04245
G1 X51.676 Y45.075 E0.00895
G1 X51.537 Y45.103 E0.00902
G1 X51.378 Y45.03 E0.01113
G1 X50.266 Y43.923 E0.09981
G0 F960 X49.971 Y43.629
M204 S1000
G1 F2700 E-2
G0 F1500 X43.305 Y46.474
M204 S500
G1 F2700 E2
G1 F1200 X43.421 Y45.6 E0.05608
G1 X43.388 Y44.697 E0.05748
G1 X43.203 Y43.815 E0.05732
G1 X43.052 Y43.097 E0.04667
G1 X43.037 Y42.968 E0.00826
G1 X43.009 Y42.207 E0.04844
G1 X43.016 Y42.07 E0.00873
G1 X43.122 Y41.332 E0.04743
G1 X43.154 Y41.198 E0.00876
G1 X43.411 Y40.431 E0.05145
G1 X43.463 Y40.311 E0.00832
G1 X43.776 Y39.733 E0.04181
G1 X44.044 Y39.378 E0.02829
G1 X44.257 Y39.254 E0.01568
G1 X44.499 Y39.204 E0.01572
G1 X44.744 Y39.233 E0.01569
G1 X45.005 Y39.372 E0.01881
G1 X44.888 Y39.17 E0.01485
G1 X44.839 Y38.928 E0.01571
G1 X44.868 Y38.683 E0.01569
G1 X44.975 Y38.461 E0.01568
G1 X45.22 Y38.235 E0.0212
G1 X45.828 Y37.883 E0.04469
G1 X45.947 Y37.827 E0.00837
G1 X46.666 Y37.563 E0.04872
G1 X46.798 Y37.527 E0.0087
G1 X47.569 Y37.392 E0.04979
G1 X47.706 Y37.381 E0.00874
G1 X48.465 Y37.386 E0.04828
G1 X48.678 Y37.409 E0.01363
G1 X49.362 Y37.544 E0.04435
G1 X49.884 Y37.674 E0.03422
G1 X50.795 Y37.778 E0.05833
G1 X51.693 Y37.724 E0.05722
G1 X52.571 Y37.518 E0.05737
G1 X52.965 Y37.371 E0.02675
G1 X53.804 Y37.048 E0.05719
G1 X54.65 Y36.767 E0.0567
G1 X55.517 Y36.526 E0.05724
G1 X56.385 Y36.329 E0.05662
G1 X57.323 Y36.168 E0.06054
G1 X58.167 Y36.063 E0.0541
G1 X58.223 Y36.058 E0.00358
G1 X59.933 Y35.974 E0.1089
G1 X60.037 Y35.973 E0.00662
G1 X61.765 Y36.058 E0.11005
G1 X61.821 Y36.063 E0.00358
G1 X62.727 Y36.176 E0.05808
G1 X63.642 Y36.336 E0.05909
G1 X64.496 Y36.532 E0.05574
G1 X65.399 Y36.786 E0.05967
G1 X66.182 Y37.047 E0.0525
G1 X67.017 Y37.37 E0.05695
G1 X67.839 Y37.633 E0.0549
G1 X68.747 Y37.77 E0.05841
G1 X69.631 Y37.747 E0.05625
G1 X70.076 Y37.679 E0.02864
G1 X70.624 Y37.545 E0.03589
G1 X71.339 Y37.404 E0.04636
G1 X71.469 Y37.39 E0.00832
G1 X72.162 Y37.374 E0.04409
G1 X72.293 Y37.382 E0.00835
G1 X73.063 Y37.497 E0.04952
G1 X73.199 Y37.531 E0.00892
G1 X73.958 Y37.792 E0.05105
G1 X74.078 Y37.845 E0.00834
G1 X74.675 Y38.174 E0.04336
G1 X74.869 Y38.326 E0.01568
G1 X75.005 Y38.532 E0.0157
G1 X75.067 Y38.771 E0.01571
G1 X75.051 Y39.017 E0.01568
G1 X74.885 Y39.34 E0.0231
G1 X75.061 Y39.213 E0.01381
G1 X75.297 Y39.14 E0.01571
G1 X75.543 Y39.145 E0.01565
G1 X75.775 Y39.228 E0.01567
G1 X76.049 Y39.486 E0.02394
G1 X76.324 Y39.917 E0.03252
G1 X76.375 Y40.012 E0.00686
G1 X76.664 Y40.648 E0.04444
G1 X76.709 Y40.772 E0.00839
G1 X76.904 Y41.526 E0.04954
G1 X76.926 Y41.663 E0.00883
G1 X76.982 Y42.433 E0.04911
G1 X76.979 Y42.572 E0.00884
G1 X76.892 Y43.359 E0.05037
G1 X76.874 Y43.463 E0.00671
G1 X76.668 Y44.276 E0.05335
G1 X76.562 Y45.161 E0.0567
G1 X76.608 Y46.052 E0.05675
G1 X76.803 Y46.918 E0.05647
G1 X76.966 Y47.366 E0.03032
G1 X77.54 Y48.982 E0.10909
G1 X77.557 Y49.035 E0.00354
G1 X77.794 Y49.902 E0.05717
G1 X77.988 Y50.779 E0.05713
G1 X78.139 Y51.665 E0.05717
G1 X78.247 Y52.553 E0.0569
G1 X78.311 Y53.443 E0.05676
G1 X78.331 Y54.327 E0.05625
G1 X78.309 Y55.214 E0.05644
G1 X78.24 Y56.127 E0.05824
G1 X78.13 Y57.013 E0.05679
G1 X77.983 Y57.863 E0.05487
G1 X77.777 Y58.78 E0.05978
G1 X77.548 Y59.607 E0.05459
G1 X77.532 Y59.659 E0.00346
G1 X76.964 Y61.256 E0.10782
G1 X76.682 Y62.144 E0.05927
G1 X76.566 Y63.018 E0.05608
G1 X76.598 Y63.912 E0.0569
G1 X76.784 Y64.802 E0.05784
G1 X76.929 Y65.486 E0.04448
G1 X76.944 Y65.611 E0.00801
G1 X76.978 Y66.406 E0.05062
G1 X76.971 Y66.55 E0.00917
G1 X76.858 Y67.322 E0.04963
G1 X76.825 Y67.459 E0.00896
G1 X76.575 Y68.19 E0.04914
G1 X76.524 Y68.306 E0.00806
G1 X76.234 Y68.843 E0.03882
G1 X75.942 Y69.239 E0.0313
G1 X75.729 Y69.363 E0.01568
G1 X75.487 Y69.413 E0.01572
G1 X75.242 Y69.384 E0.01569
G1 X74.998 Y69.282 E0.01682
G1 X75.107 Y69.503 E0.01567
G1 X75.14 Y69.748 E0.01573
