;FLAVOR:Marlin
;TIME:353
;Filament used: 0.24369m
;Layer height: 0.25
;MINX:53.707
;MINY:51.098
;MINZ:0.3
;MAXX:66.293
;MAXY:76.218
;MAXZ:8.8
;Generated with Cura_SteamEngine 4.8.0
M140 S65
M105
M190 S65
M104 S200
M105
M109 S200
M82 ;absolute extrusion mode
G28 ;Home
G1 Z15.0 F6000 ;Move the platform down 15mm
;Prime the extruder
G92 E0
G1 F200 E3
G92 E0
M83 ;relative extrusion mode
G1 F2700 E-2
;LAYER_COUNT:35
;LAYER:0
M107
M204 S1000
M205 X10 Y10
G0 F1500 X55.023 Y52.911 Z0.3
M204 S500
;TYPE:SKIRT
G1 F2700 E2
G1 F1200 X55.349 Y52.571 E0.02996
G1 X55.813 Y52.177 E0.03872
G1 X56.198 Y51.912 E0.02973
G1 X56.764 Y51.603 E0.04102
G1 X57.202 Y51.42 E0.0302
G1 X57.733 Y51.26 E0.03528
G1 X58.149 Y51.175 E0.02701
G1 X58.723 Y51.113 E0.03672
G1 X59.233 Y51.098 E0.03246
G1 X61.031 Y51.099 E0.11437
G1 X61.25 Y51.11 E0.01395
G1 X61.759 Y51.159 E0.03253
G1 X62.17 Y51.236 E0.0266
G1 X62.733 Y51.397 E0.03725
G1 X63.16 Y51.567 E0.02923
G1 X63.701 Y51.848 E0.03878
G1 X64.101 Y52.113 E0.03052
G1 X64.597 Y52.521 E0.04085
G1 X64.925 Y52.852 E0.02964
G1 X65.288 Y53.302 E0.03678
G1 X65.535 Y53.678 E0.02862
G1 X65.812 Y54.207 E0.03798
G1 X65.978 Y54.617 E0.02814
G1 X66.141 Y55.164 E0.03631
G1 X66.225 Y55.588 E0.02749
G1 X66.28 Y56.131 E0.03472
G1 X66.292 Y56.362 E0.01471
G1 X66.293 Y73.923 E1.11706
G1 X66.253 Y74.349 E0.02722
G1 X66.135 Y74.76 E0.0272
G1 X65.942 Y75.143 E0.02728
G1 X65.682 Y75.482 E0.02718
G1 X65.363 Y75.768 E0.02725
G1 X64.997 Y75.989 E0.0272
G1 X64.596 Y76.139 E0.02723
G1 X63.998 Y76.218 E0.03837
G1 X58.998 Y76.218 E0.31805
G1 X58.572 Y76.178 E0.02722
G1 X58.161 Y76.06 E0.0272
G1 X57.778 Y75.867 E0.02728
G1 X57.439 Y75.607 E0.02718
G1 X57.153 Y75.288 E0.02725
G1 X56.932 Y74.922 E0.0272
G1 X56.782 Y74.521 E0.02723
G1 X56.703 Y73.923 E0.03837
G1 X56.703 Y65.289 E0.54921
G1 X56.25 Y65.053 E0.03249
G1 X55.851 Y64.789 E0.03043
G1 X55.372 Y64.394 E0.03949
G1 X55.044 Y64.062 E0.02969
G1 X54.694 Y63.627 E0.03551
G1 X54.451 Y63.257 E0.02816
G1 X54.182 Y62.746 E0.03673
G1 X54.012 Y62.328 E0.0287
G1 X53.855 Y61.797 E0.03522
G1 X53.773 Y61.377 E0.02722
G1 X53.72 Y60.854 E0.03344
G1 X53.708 Y60.624 E0.01465
G1 X53.707 Y56.367 E0.27079
G1 X53.717 Y56.148 E0.01395
G1 X53.766 Y55.634 E0.03284
G1 X53.843 Y55.226 E0.02641
G1 X53.998 Y54.679 E0.03616
G1 X54.156 Y54.274 E0.02765
G1 X54.409 Y53.771 E0.03582
G1 X54.648 Y53.393 E0.02845
G1 X54.767 Y53.24 E0.01233
G0 F960 X55.023 Y52.911
M204 S1000
G0 F1500 X55.425 Y53.224
M204 S500
G1 F1200 X55.679 Y52.959 E0.02335
G1 X56.143 Y52.565 E0.03872
G1 X56.443 Y52.359 E0.02315
G1 X57.009 Y52.05 E0.04102
G1 X57.349 Y51.908 E0.02344
G1 X57.88 Y51.748 E0.03528
G1 X58.203 Y51.682 E0.02097
G1 X58.777 Y51.62 E0.03672
G1 X59.233 Y51.608 E0.02902
G1 X61.031 Y51.609 E0.11437
G1 X61.201 Y51.617 E0.01083
G1 X61.71 Y51.666 E0.03253
G1 X62.03 Y51.727 E0.02072
G1 X62.593 Y51.888 E0.03725
G1 X62.925 Y52.02 E0.02273
G1 X63.466 Y52.301 E0.03878
G1 X63.777 Y52.506 E0.02369
G1 X64.273 Y52.914 E0.04085
G1 X64.528 Y53.172 E0.02307
G1 X64.891 Y53.622 E0.03678
G1 X65.083 Y53.915 E0.02228
G1 X65.36 Y54.444 E0.03798
G1 X65.49 Y54.762 E0.02185
G1 X65.653 Y55.309 E0.03631
G1 X65.718 Y55.639 E0.02139
G1 X65.773 Y56.182 E0.03472
G1 X65.782 Y56.362 E0.01146
G1 X65.783 Y73.923 E1.11706
G1 X65.743 Y74.298 E0.02399
G1 X65.625 Y74.657 E0.02404
G1 X65.435 Y74.982 E0.02395
G1 X65.18 Y75.261 E0.02404
G1 X64.872 Y75.479 E0.024
G1 X64.526 Y75.628 E0.02396
G1 X63.998 Y75.708 E0.03397
G1 X58.998 Y75.708 E0.31805
G1 X58.623 Y75.668 E0.02399
G1 X58.264 Y75.55 E0.02404
G1 X57.939 Y75.36 E0.02395
G1 X57.66 Y75.105 E0.02404
G1 X57.442 Y74.797 E0.024
G1 X57.293 Y74.45 E0.02402
G1 X57.213 Y73.923 E0.03391
G1 X57.213 Y64.954 E0.57052
G1 X57.008 Y64.873 E0.01402
G1 X56.486 Y64.601 E0.03744
G1 X56.175 Y64.395 E0.02373
G1 X55.696 Y64 E0.03949
G1 X55.441 Y63.742 E0.02307
G1 X55.091 Y63.307 E0.03551
G1 X54.902 Y63.019 E0.02191
G1 X54.633 Y62.508 E0.03673
G1 X54.501 Y62.183 E0.02231
G1 X54.344 Y61.652 E0.03522
G1 X54.28 Y61.326 E0.02113
G1 X54.227 Y60.803 E0.03344
G1 X54.218 Y60.623 E0.01146
G1 X54.217 Y56.366 E0.27079
G1 X54.225 Y56.197 E0.01076
G1 X54.274 Y55.683 E0.03284
G1 X54.334 Y55.365 E0.02058
G1 X54.489 Y54.818 E0.03616
G1 X54.611 Y54.503 E0.02149
G1 X54.864 Y54 E0.03582
G1 X55.05 Y53.706 E0.02213
G1 X55.169 Y53.553 E0.01233
G0 F960 X55.425 Y53.224
M204 S1000
G0 F1500 X55.828 Y53.537
M204 S500
G1 F1200 X56.009 Y53.348 E0.01665
G1 X56.473 Y52.954 E0.03872
G1 X56.687 Y52.807 E0.01651
G1 X57.253 Y52.498 E0.04102
G1 X57.496 Y52.396 E0.01676
G1 X58.027 Y52.236 E0.03528
G1 X58.258 Y52.189 E0.01499
G1 X58.832 Y52.127 E0.03672
G1 X59.233 Y52.118 E0.02551
G1 X61.031 Y52.119 E0.11437
G1 X61.152 Y52.125 E0.00771
G1 X61.661 Y52.174 E0.03253
G1 X61.89 Y52.217 E0.01482
G1 X62.453 Y52.378 E0.03725
G1 X62.69 Y52.473 E0.01624
G1 X63.231 Y52.754 E0.03878
G1 X63.453 Y52.9 E0.0169
G1 X63.949 Y53.308 E0.04085
G1 X64.131 Y53.492 E0.01646
G1 X64.494 Y53.942 E0.03678
G1 X64.632 Y54.152 E0.01598
G1 X64.909 Y54.681 E0.03798
G1 X65.001 Y54.908 E0.01558
G1 X65.164 Y55.455 E0.03631
G1 X65.211 Y55.691 E0.01531
G1 X65.266 Y56.234 E0.03472
G1 X65.272 Y56.362 E0.00815
G1 X65.273 Y73.923 E1.11706
G1 X65.233 Y74.239 E0.02026
G1 X65.116 Y74.536 E0.02031
G1 X64.929 Y74.794 E0.02027
G1 X64.684 Y74.998 E0.02028
G1 X64.396 Y75.134 E0.02026
G1 X63.998 Y75.198 E0.02564
G1 X58.998 Y75.198 E0.31805
G1 X58.682 Y75.158 E0.02026
G1 X58.385 Y75.041 E0.02031
G1 X58.127 Y74.854 E0.02027
G1 X57.923 Y74.609 E0.02028
G1 X57.787 Y74.321 E0.02026
G1 X57.723 Y73.923 E0.02564
G1 X57.723 Y64.585 E0.59399
G1 X57.244 Y64.421 E0.03221
G1 X56.722 Y64.149 E0.03744
G1 X56.5 Y64.002 E0.01694
G1 X56.021 Y63.607 E0.03949
G1 X55.839 Y63.422 E0.01651
G1 X55.489 Y62.987 E0.03551
G1 X55.354 Y62.782 E0.01561
G1 X55.085 Y62.271 E0.03673
G1 X54.99 Y62.039 E0.01595
G1 X54.833 Y61.508 E0.03522
G1 X54.787 Y61.275 E0.01511
G1 X54.734 Y60.752 E0.03344
G1 X54.728 Y60.623 E0.00821
G1 X54.727 Y56.366 E0.27079
G1 X54.733 Y56.245 E0.00771
G1 X54.782 Y55.731 E0.03284
G1 X54.824 Y55.504 E0.01468
G1 X54.979 Y54.957 E0.03616
G1 X55.067 Y54.732 E0.01537
G1 X55.32 Y54.229 E0.03582
G1 X55.453 Y54.019 E0.01581
G1 X55.572 Y53.866 E0.01233
G0 F960 X55.828 Y53.537
M204 S1000
G0 F1500 X56.23 Y53.85
M204 S500
G1 F1200 X56.339 Y53.737 E0.00999
G1 X56.803 Y53.343 E0.03872
G1 X56.931 Y53.255 E0.00988
G1 X57.497 Y52.946 E0.04102
G1 X57.643 Y52.885 E0.01007
G1 X58.174 Y52.725 E0.03528
G1 X58.313 Y52.696 E0.00903
G1 X58.887 Y52.634 E0.03672
G1 X59.232 Y52.628 E0.02195
G1 X61.03 Y52.629 E0.11437
G1 X61.103 Y52.633 E0.00465
G1 X61.612 Y52.682 E0.03253
G1 X61.749 Y52.707 E0.00886
G1 X62.312 Y52.868 E0.03725
G1 X62.455 Y52.925 E0.00979
G1 X62.996 Y53.206 E0.03878
G1 X63.129 Y53.294 E0.01014
G1 X63.625 Y53.702 E0.04085
G1 X63.734 Y53.813 E0.0099
G1 X64.097 Y54.263 E0.03678
G1 X64.18 Y54.388 E0.00954
G1 X64.457 Y54.917 E0.03798
G1 X64.512 Y55.054 E0.00939
G1 X64.675 Y55.601 E0.03631
G1 X64.703 Y55.742 E0.00914
G1 X64.758 Y56.285 E0.03472
G1 X64.762 Y56.362 E0.0049
G1 X64.763 Y73.923 E1.11706
G1 X64.723 Y74.166 E0.01567
G1 X64.608 Y74.384 E0.01568
G1 X64.43 Y74.555 E0.0157
G1 X64.206 Y74.659 E0.01571
G1 X63.998 Y74.688 E0.01336
G1 X58.998 Y74.688 E0.31805
G1 X58.755 Y74.648 E0.01567
G1 X58.537 Y74.533 E0.01568
G1 X58.366 Y74.355 E0.0157
G1 X58.262 Y74.131 E0.01571
G1 X58.233 Y73.923 E0.01336
G1 X58.233 Y64.193 E0.61893
G1 X58.169 Y64.182 E0.00413
G1 X57.623 Y64.026 E0.03612
G1 X57.479 Y63.968 E0.00987
G1 X56.957 Y63.696 E0.03744
G1 X56.824 Y63.608 E0.01014
G1 X56.345 Y63.213 E0.03949
G1 X56.236 Y63.103 E0.00985
G1 X55.886 Y62.668 E0.03551
G1 X55.805 Y62.544 E0.00942
G1 X55.536 Y62.033 E0.03673
G1 X55.479 Y61.894 E0.00956
G1 X55.322 Y61.363 E0.03522
G1 X55.295 Y61.223 E0.00907
G1 X55.242 Y60.7 E0.03344
G1 X55.238 Y60.623 E0.0049
G1 X55.237 Y56.366 E0.27079
G1 X55.24 Y56.293 E0.00465
G1 X55.289 Y55.779 E0.03284
G1 X55.315 Y55.643 E0.00881
G1 X55.47 Y55.096 E0.03616
G1 X55.523 Y54.961 E0.00923
G1 X55.776 Y54.458 E0.03582
G1 X55.855 Y54.332 E0.00946
G1 X55.974 Y54.179 E0.01233
G0 F960 X56.23 Y53.85
M204 S1000
G0 F1500 X56.633 Y54.163
M204 S500
G1 F1200 X56.669 Y54.126 E0.00328
G1 X57.133 Y53.732 E0.03872
G1 X57.176 Y53.702 E0.00334
G1 X57.742 Y53.393 E0.04102
G1 X57.79 Y53.373 E0.00331
G1 X58.321 Y53.213 E0.03528
G1 X58.368 Y53.203 E0.00306
G1 X58.942 Y53.141 E0.03672
G1 X59.232 Y53.138 E0.01845
G1 X61.054 Y53.14 E0.1159
G1 X61.563 Y53.189 E0.03253
G1 X61.609 Y53.198 E0.00298
G1 X62.172 Y53.359 E0.03725
G1 X62.22 Y53.378 E0.00328
G1 X62.761 Y53.659 E0.03878
G1 X62.805 Y53.688 E0.00335
G1 X63.301 Y54.096 E0.04085
G1 X63.337 Y54.133 E0.00328
G1 X63.7 Y54.583 E0.03678
G1 X63.728 Y54.625 E0.00321
G1 X64.005 Y55.154 E0.03798
G1 X64.023 Y55.199 E0.00308
G1 X64.186 Y55.746 E0.03631
G1 X64.196 Y55.793 E0.00306
G1 X64.251 Y56.336 E0.03472
G1 X64.253 Y73.923 E1.11871
G1 X64.214 Y74.059 E0.009
G1 X64.108 Y74.153 E0.00901
G1 X63.998 Y74.178 E0.00718
G1 X58.998 Y74.178 E0.31805
G1 X58.862 Y74.139 E0.009
G1 X58.768 Y74.033 E0.00901
G1 X58.743 Y73.923 E0.00718
G1 X58.743 Y63.728 E0.6485
G1 X58.309 Y63.691 E0.02771
G1 X57.763 Y63.535 E0.03612
G1 X57.715 Y63.516 E0.00328
G1 X57.193 Y63.244 E0.03744
G1 X57.149 Y63.215 E0.00335
G1 X56.67 Y62.82 E0.03949
G1 X56.633 Y62.783 E0.00333
G1 X56.283 Y62.348 E0.03551
G1 X56.256 Y62.307 E0.00312
G1 X55.987 Y61.796 E0.03673
G1 X55.968 Y61.749 E0.00322
G1 X55.811 Y61.218 E0.03522
G1 X55.802 Y61.172 E0.00298
G1 X55.749 Y60.649 E0.03344
G1 X55.747 Y56.366 E0.27244
G1 X55.797 Y55.828 E0.03437
G1 X55.806 Y55.782 E0.00298
G1 X55.961 Y55.235 E0.03616
G1 X55.978 Y55.19 E0.00306
G1 X56.231 Y54.687 E0.03582
G1 X56.258 Y54.645 E0.00318
G1 X56.377 Y54.492 E0.01233
G0 F960 X56.633 Y54.163
M204 S1000
G1 F2700 E-2
;MESH:t3-fan-3.stl
G0 F1500 X59.812 Y56.463
M204 S500
;TYPE:WALL-OUTER
G1 F2700 E2
G1 F600 X59.334 Y56.615 E0.03191
G1 X58.808 Y56.962 E0.04008
G1 X58.517 Y57.31 E0.02886
G1 X58.342 Y57.629 E0.02314
G1 X58.222 Y58.06 E0.02846
G1 X58.19 Y58.425 E0.02331
G1 X58.234 Y58.808 E0.02452
G1 X58.369 Y59.209 E0.02691
G1 X58.713 Y59.731 E0.03977
G1 X59.062 Y60.022 E0.0289
G1 X59.381 Y60.197 E0.02314
G1 X59.811 Y60.316 E0.02838
G1 X60.177 Y60.35 E0.02338
G1 X60.56 Y60.306 E0.02452
G1 X60.961 Y60.17 E0.02693
G1 X61.484 Y59.825 E0.03985
G1 X61.776 Y59.475 E0.02899
G1 X61.956 Y59.133 E0.02458
G1 X62.066 Y58.762 E0.02461
G1 X62.101 Y58.424 E0.02162
G1 X62.059 Y57.984 E0.02812
G1 X61.922 Y57.578 E0.02726
G1 X61.577 Y57.056 E0.0398
G1 X61.227 Y56.763 E0.02903
G1 X60.88 Y56.58 E0.02495
G1 X60.459 Y56.465 E0.02776
G1 X60.229 Y56.464 E0.01463
G0 F480 X59.812 Y56.463
M204 S1000
G0 F1500 X59.574 Y56.538
G1 F2700 E-2
G0 F1500 X59.253 Y63.255
M204 S500
G1 F2700 E2
G1 F600 X58.425 Y63.194 E0.05281
G1 X57.928 Y63.051 E0.0329
G1 X57.455 Y62.805 E0.03391
G1 X57.013 Y62.443 E0.03634
G1 X56.698 Y62.05 E0.03204
G1 X56.449 Y61.577 E0.034
G1 X56.308 Y61.1 E0.03164
G1 X56.258 Y60.606 E0.03158
G1 X56.257 Y56.379 E0.26888
G1 X56.303 Y55.898 E0.03074
G1 X56.444 Y55.4 E0.03292
G1 X56.678 Y54.937 E0.033
G1 X57.02 Y54.497 E0.03545
G1 X57.443 Y54.137 E0.03533
G1 X57.961 Y53.854 E0.03755
G1 X58.445 Y53.709 E0.03214
G1 X58.987 Y53.65 E0.03468
G1 X59.234 Y53.648 E0.01571
G1 X61.016 Y53.649 E0.11335
G1 X61.493 Y53.695 E0.03048
G1 X62.009 Y53.843 E0.03415
G1 X62.499 Y54.098 E0.03514
G1 X62.958 Y54.474 E0.03774
G1 X63.288 Y54.883 E0.03343
G1 X63.541 Y55.369 E0.03485
G1 X63.69 Y55.867 E0.03307
G1 X63.742 Y56.379 E0.03274
G1 X63.743 Y73.668 E1.09975
G1 X59.253 Y73.668 E0.28561
G1 X59.253 Y63.672 E0.63585
G0 F480 X59.253 Y63.255
M204 S1000
G0 F1500 X59.004 Y63.237
G0 X59.763 Y62.781
M204 S500
;TYPE:WALL-INNER
G1 F600 X58.513 Y62.689 E0.07973
G1 X58.116 Y62.574 E0.02629
G1 X57.74 Y62.379 E0.02694
G1 X57.377 Y62.082 E0.02983
G1 X57.126 Y61.769 E0.02552
G1 X56.924 Y61.385 E0.0276
G1 X56.81 Y60.999 E0.0256
G1 X56.768 Y60.585 E0.02647
G1 X56.767 Y56.407 E0.26576
G1 X56.807 Y55.992 E0.02652
G1 X56.922 Y55.584 E0.02696
G1 X57.11 Y55.213 E0.02646
G1 X57.391 Y54.851 E0.02915
G1 X57.731 Y54.561 E0.02843
G1 X58.16 Y54.327 E0.03108
G1 X58.549 Y54.211 E0.02582
G1 X59.238 Y54.158 E0.04396
G1 X60.988 Y54.159 E0.11132
G1 X61.4 Y54.199 E0.02633
G1 X61.821 Y54.32 E0.02786
G1 X62.214 Y54.524 E0.02817
G1 X62.595 Y54.836 E0.03132
G1 X62.861 Y55.165 E0.02691
G1 X63.065 Y55.557 E0.02811
G1 X63.188 Y55.97 E0.02741
G1 X63.232 Y56.401 E0.02756
G1 X63.233 Y73.158 E1.06591
G1 X59.763 Y73.158 E0.22073
G1 X59.763 Y63.198 E0.63356
G0 F480 X59.763 Y62.781
M204 S1000
G1 F2700 E-2
G0 F1500 X59.734 Y55.953
M204 S500
G1 F2700 E2
G1 F600 X59.112 Y56.15 E0.0415
G1 X58.465 Y56.577 E0.04931
G1 X58.094 Y57.021 E0.0368
G1 X57.867 Y57.435 E0.03003
G1 X57.718 Y57.969 E0.03527
G1 X57.677 Y58.432 E0.02957
G1 X57.733 Y58.92 E0.03125
G1 X57.907 Y59.434 E0.03452
G1 X58.329 Y60.074 E0.04876
G1 X58.773 Y60.445 E0.0368
G1 X59.188 Y60.673 E0.03012
G1 X59.719 Y60.82 E0.03505
G1 X60.183 Y60.863 E0.02964
G1 X60.672 Y60.806 E0.03132
G1 X61.187 Y60.632 E0.03458
G1 X61.828 Y60.209 E0.04885
G1 X62.202 Y59.76 E0.03717
G1 X62.431 Y59.326 E0.03121
G1 X62.568 Y58.862 E0.03077
G1 X62.614 Y58.426 E0.02789
G1 X62.561 Y57.877 E0.03508
G1 X62.384 Y57.352 E0.03524
G1 X61.961 Y56.713 E0.04875
G1 X61.513 Y56.337 E0.0372
G1 X61.068 Y56.103 E0.03198
G1 X60.528 Y55.955 E0.03562
G1 X60.151 Y55.954 E0.02398
G0 F480 X59.734 Y55.953
M204 S1000
G0 F1500 X59.656 Y55.443
M204 S500
G1 F600 X58.89 Y55.685 E0.0511
G1 X58.122 Y56.193 E0.05857
G1 X57.671 Y56.732 E0.0447
G1 X57.392 Y57.241 E0.03692
G1 X57.277 Y57.651 E0.02709
G1 X57.277 Y56.435 E0.07735
G1 X57.311 Y56.085 E0.02237
G1 X57.399 Y55.771 E0.02074
G1 X57.544 Y55.486 E0.02034
G1 X57.763 Y55.204 E0.02271
G1 X58.021 Y54.984 E0.02157
G1 X58.356 Y54.801 E0.02428
G1 X58.646 Y54.715 E0.01924
G1 X59.251 Y54.668 E0.0386
G1 X60.959 Y54.669 E0.10865
G1 X61.307 Y54.703 E0.02224
G1 X61.629 Y54.795 E0.0213
G1 X61.932 Y54.953 E0.02174
G1 X62.23 Y55.197 E0.0245
G1 X62.435 Y55.45 E0.02071
G1 X62.588 Y55.745 E0.02114
G1 X62.686 Y56.073 E0.02178
G1 X62.722 Y56.424 E0.02244
G1 X62.722 Y56.939 E0.03276
G1 X62.345 Y56.37 E0.04342
G1 X61.799 Y55.911 E0.04537
G1 X61.256 Y55.626 E0.03901
G1 X60.597 Y55.445 E0.04347
G1 X60.073 Y55.443 E0.03333
G0 F480 X59.656 Y55.443
M204 S1000
G1 F2700 E-2
G0 F1500 X60.273 Y62.307
M204 S500
G1 F2700 E2
G1 F600 X58.603 Y62.184 E0.10652
G1 X58.307 Y62.098 E0.01961
G1 X58.022 Y61.95 E0.02043
G1 X57.741 Y61.72 E0.0231
G1 X57.553 Y61.486 E0.01909
G1 X57.399 Y61.194 E0.021
G1 X57.312 Y60.899 E0.01956
G1 X57.278 Y60.564 E0.02142
G1 X57.278 Y59.164 E0.08905
G1 X57.445 Y59.66 E0.03329
G1 X57.944 Y60.417 E0.05767
G1 X58.484 Y60.868 E0.04475
G1 X58.995 Y61.149 E0.0371
G1 X59.627 Y61.324 E0.04171
G1 X60.189 Y61.376 E0.0359
G1 X60.784 Y61.306 E0.03811
G1 X61.413 Y61.094 E0.04222
G1 X62.172 Y60.593 E0.05785
G1 X62.628 Y60.045 E0.04535
G1 X62.722 Y59.867 E0.0128
G1 X62.723 Y72.648 E0.813
G1 X60.273 Y72.648 E0.15584
G1 X60.273 Y62.724 E0.63127
G0 F480 X60.273 Y62.307
M204 S1000
G1 F2700 E-2
G0 F1500 X58.194 Y61.292
M204 S500
;TYPE:SKIN
G1 F2700 E2
G1 F600 X58.801 Y61.625 E0.04404
G1 X59.109 Y61.71 E0.02032
G1 X58.697 Y61.68 E0.02628
G1 X58.494 Y61.621 E0.01345
G1 X58.306 Y61.524 E0.01346
G1 X58.105 Y61.359 E0.01654
G1 X57.981 Y61.204 E0.01263
G1 X57.896 Y61.042 E0.01164
G1 X58.071 Y61.189 E0.01454
G0 F480 X58.194 Y61.292
M204 S1000
G1 F2700 E-2
G0 F1500 X60.711 Y61.828
M204 S500
G1 F2700 E2
G1 F600 X60.896 Y61.806 E0.01185
G1 X61.639 Y61.556 E0.04987
G1 X62.212 Y61.178 E0.04367
G1 X62.213 Y72.138 E0.69717
G1 X60.783 Y72.138 E0.09096
G1 X60.783 Y62.715 E0.5994
G1 X61.293 Y62.715 E0.03244
G1 X61.293 Y71.628 E0.56696
G1 X61.703 Y71.628 E0.02608
G1 X61.702 Y62.073 E0.60779
G1 X61.293 Y62.21 E0.02744
G1 X60.783 Y62.21 E0.03244
G1 X60.783 Y62.178 E0.00204
G0 F480 X60.783 Y61.833
G0 X60.711 Y61.828
M204 S1000
G1 F2700 E-2
G0 F1500 X58.107 Y55.592
M204 S500
G1 F2700 E2
G1 F600 X58.131 Y55.56 E0.00254
G1 X58.31 Y55.408 E0.01494
G1 X58.556 Y55.273 E0.01785
G1 X58.616 Y55.255 E0.00398
G1 X58.179 Y55.544 E0.03333
G0 F480 X58.107 Y55.592
M204 S1000
G1 F2700 E-2
;MESH:NONMESH
G0 F600 X58.107 Y55.592 Z0.55
