; generated by PrusaSlicer 2.5.0+win64 on 2022-09-23 at 14:57:48 UTC

; 

; external perimeters extrusion width = 0.45mm
; perimeters extrusion width = 0.45mm
; infill extrusion width = 0.45mm
; solid infill extrusion width = 0.45mm
; top infill extrusion width = 0.45mm
; first layer extrusion width = 0.42mm

M73 P0 R48
M73 Q0 S48
M201 X1000 Y1000 Z200 E5000 ; sets maximum accelerations, mm/sec^2
M203 X200 Y200 Z12 E120 ; sets maximum feedrates, mm / sec
M204 P1250 R1250 T1250 ; sets acceleration (P, T) and retract acceleration (R), mm/sec^2
M205 X10.00 Y10.00 Z0.20 E2.50 ; sets the jerk limits, mm/sec
M205 S0 T0 ; sets the minimum extruding and travel feed rate, mm/sec
M107
;TYPE:Custom
M115 U3.9.3 ; tell printer latest fw version
G90 ; use absolute coordinates
M83 ; extruder relative mode
M104 S195 ; set extruder temp
M140 S60 ; set bed temp
M190 S60 ; wait for bed temp
M109 S195 ; wait for extruder temp
G28 W ; home all without mesh bed level
G80 ; mesh bed leveling
G92 E0.0
G1 Z2.0 F3000 ;Move Z Axis up
G92 E0.0
G1 Z2.0 F3000 ;Move Z Axis up
G21 ; set units to millimeters
G90 ; use absolute coordinates
M83 ; use relative distances for extrusion
; Filament gcode
M107
;LAYER_CHANGE
;Z:0.2
;HEIGHT:0.2
;BEFORE_LAYER_CHANGE
G92 E0.0
;0.2


G1 E-6 F3000
G1 Z.3 F2400
;AFTER_LAYER_CHANGE
;0.2
G1 X139.244 Y137.911
G1 Z.2
G1 E6 F3000
M204 S1000
;TYPE:Skirt/Brim
;WIDTH:0.42
G1 F1200
G1 X141.564 Y136.54 E.08451
G1 X145 Y135.869 E.10976
G1 X165 Y135.869 E.62709
G1 X167.666 Y136.267 E.08451
M73 P0 R47
G1 X170.099 Y137.425 E.08451
G1 X172.089 Y139.244 E.08451
G1 X173.46 Y141.564 E.08451
G1 X174.131 Y145 E.10976
G1 X174.131 Y165 E.62709
G1 X173.733 Y167.666 E.08451
M73 Q0 S47
G1 X172.575 Y170.099 E.08451
G1 X170.756 Y172.089 E.08451
G1 X168.436 Y173.46 E.08451
G1 X165 Y174.131 E.10976
G1 X145 Y174.131 E.62709
G1 X142.334 Y173.733 E.08451
G1 X139.901 Y172.575 E.08451
G1 X137.911 Y170.756 E.08451
G1 X136.54 Y168.436 E.08451
G1 X135.869 Y165 E.10976
G1 X135.869 Y145 E.62709
G1 X136.267 Y142.334 E.08451
G1 X137.425 Y139.901 E.08451
G1 X139.193 Y137.967 E.08216
G1 X139.482 Y138.239 F2400
G1 F1200
G1 X139.612 Y138.101 E.00595
G1 X141.913 Y136.808 E.08274
G1 X145 Y136.246 E.0984
G1 X165 Y136.246 E.62709
G1 X167.609 Y136.644 E.08274
G1 X169.98 Y137.801 E.08274
G1 X171.899 Y139.612 E.08274
G1 X173.192 Y141.913 E.08274
G1 X173.754 Y145 E.0984
G1 X173.754 Y165 E.62709
G1 X173.356 Y167.609 E.08274
G1 X172.199 Y169.98 E.08274
G1 X170.388 Y171.899 E.08274
G1 X168.087 Y173.192 E.08274
G1 X165 Y173.754 E.0984
G1 X145 Y173.754 E.62709
G1 X142.391 Y173.356 E.08274
G1 X140.02 Y172.199 E.08274
G1 X138.101 Y170.388 E.08274
G1 X136.808 Y168.087 E.08274
G1 X136.246 Y165 E.0984
G1 X136.246 Y145 E.62709
G1 X136.644 Y142.391 E.08274
G1 X137.801 Y140.02 E.08274
G1 X139.43 Y138.293 E.07444
G1 X139.712 Y138.568 F2400
G1 F1200
G1 X139.979 Y138.295 E.01198
G1 X142.258 Y137.084 E.08093
G1 X145 Y136.623 E.08718
G1 X165 Y136.623 E.62709
G1 X167.55 Y137.021 E.08093
G1 X169.858 Y138.176 E.08093
G1 X171.705 Y139.979 E.08093
G1 X172.916 Y142.258 E.08093
G1 X173.377 Y145 E.08718
G1 X173.377 Y165 E.62709
G1 X172.979 Y167.55 E.08093
G1 X171.824 Y169.858 E.08093
G1 X170.021 Y171.705 E.08093
G1 X167.742 Y172.916 E.08093
G1 X165 Y173.377 E.08718
G1 X145 Y173.377 E.62709
G1 X142.45 Y172.979 E.08093
G1 X140.142 Y171.824 E.08093
G1 X138.295 Y170.021 E.08093
G1 X137.084 Y167.742 E.08093
G1 X136.623 Y165 E.08718
G1 X136.623 Y145 E.62709
G1 X137.021 Y142.45 E.08093
G1 X138.176 Y140.142 E.08093
G1 X139.659 Y138.622 E.0666
; printing object 测试xyz方块.stl id:0 copy 0
G1 E-.9 F3000
;WIPE_START
G1 F1920
G1 X139.979 Y138.295 E-.67828
G1 X142.258 Y137.084 E-3.8312
G1 X142.481 Y137.047 E-.33552
;WIPE_END
G1 E-.255 F3000
G1 Z.5 F2400
G1 X145.964 Y145.964
G1 Z.2
G1 E6 F3000
;TYPE:Perimeter
;WIDTH:0.419999
G1 F1200
G1 X164.036 Y145.964 E.56662
G1 X164.036 Y164.036 E.56662
G1 X145.964 Y164.036 E.56662
G1 X145.964 Y146.039 E.56427
M73 P1 R47
M73 Q1 S47
G1 X145.587 Y145.587 F2400
G1 F1200
G1 X164.413 Y145.587 E.59027
G1 X164.413 Y164.413 E.59027
G1 X145.587 Y164.413 E.59027
G1 X145.587 Y145.662 E.58792
G1 X145.21 Y145.21 F2400
;TYPE:External perimeter
G1 F1200
G1 X164.79 Y145.21 E.61392
G1 X164.79 Y164.79 E.61392
G1 X145.21 Y164.79 E.61392
G1 X145.21 Y145.285 E.61156
G1 X145.693 Y145.339 F2400
G1 E-.9 F3000
;WIPE_START
G1 F1920
G1 X148.474 Y145.272 E-4.845
;WIPE_END
G1 E-.255 F3000
G1 Z.5 F2400
G1 X146.077 Y163.16
G1 Z.2
G1 E6 F3000
;TYPE:Solid infill
;WIDTH:0.420391
G1 F1200
G1 X146.671 Y163.753 E.02634
G1 X147.204 Y163.753 E.01676
G1 X146.247 Y162.796 E.0425
G1 X146.247 Y162.262 E.01676
G1 X147.738 Y163.753 E.0662
G1 X148.272 Y163.753 E.01676
G1 X146.247 Y161.728 E.08989
G1 X146.247 Y161.194 E.01676
G1 X148.806 Y163.753 E.11359
G1 X149.34 Y163.753 E.01676
G1 X146.247 Y160.66 E.13728
G1 X146.247 Y160.126 E.01676
G1 X149.874 Y163.753 E.16098
G1 X150.407 Y163.753 E.01676
G1 X146.247 Y159.593 E.18467
G1 X146.247 Y159.059 E.01676
G1 X150.941 Y163.753 E.20837
G1 X151.475 Y163.753 E.01676
G1 X146.247 Y158.525 E.23206
G1 X146.247 Y157.991 E.01676
G1 X152.009 Y163.753 E.25576
G1 X152.543 Y163.753 E.01676
G1 X146.247 Y157.457 E.27945
G1 X146.247 Y156.923 E.01676
G1 X153.077 Y163.753 E.30315
G1 X153.61 Y163.753 E.01676
G1 X146.247 Y156.39 E.32684
G1 X146.247 Y155.856 E.01676
G1 X154.144 Y163.753 E.35054
G1 X154.678 Y163.753 E.01676
G1 X146.247 Y155.322 E.37423
G1 X146.247 Y154.788 E.01676
G1 X155.212 Y163.753 E.39793
G1 X155.746 Y163.753 E.01676
G1 X146.247 Y154.254 E.42163
G1 X146.247 Y153.721 E.01676
G1 X156.279 Y163.753 E.44532
G1 X156.813 Y163.753 E.01676
G1 X146.247 Y153.187 E.46902
G1 X146.247 Y152.653 E.01676
G1 X157.347 Y163.753 E.49271
G1 X157.881 Y163.753 E.01676
G1 X146.247 Y152.119 E.51641
G1 X146.247 Y151.585 E.01676
G1 X158.415 Y163.753 E.5401
G1 X158.949 Y163.753 E.01676
G1 X146.247 Y151.051 E.5638
G1 X146.247 Y150.518 E.01676
G1 X159.482 Y163.753 E.58749
G1 X160.016 Y163.753 E.01676
G1 X146.247 Y149.984 E.61119
G1 X146.247 Y149.45 E.01676
G1 X160.55 Y163.753 E.63488
G1 X161.084 Y163.753 E.01676
G1 X146.247 Y148.916 E.65858
G1 X146.247 Y148.382 E.01676
G1 X161.618 Y163.753 E.68227
G1 X162.152 Y163.753 E.01676
G1 X146.247 Y147.848 E.70597
G1 X146.247 Y147.315 E.01676
G1 X162.685 Y163.753 E.72966
G1 X163.219 Y163.753 E.01676
M73 P2 R47
M73 Q2 S47
G1 X146.247 Y146.781 E.75336
G1 X146.247 Y146.247 E.01676
G1 X163.753 Y163.753 E.77705
G1 X163.753 Y163.219 E.01675
G1 X146.781 Y146.247 E.75336
G1 X147.315 Y146.247 E.01676
G1 X163.753 Y162.685 E.72967
G1 X163.753 Y162.152 E.01676
G1 X147.848 Y146.247 E.70597
G1 X148.382 Y146.247 E.01676
G1 X163.753 Y161.618 E.68228
G1 X163.753 Y161.084 E.01676
G1 X148.916 Y146.247 E.65858
G1 X149.45 Y146.247 E.01676
G1 X163.753 Y160.55 E.63488
G1 X163.753 Y160.016 E.01676
M73 P2 R46
G1 X149.984 Y146.247 E.61119
G1 X150.518 Y146.247 E.01676
M73 Q2 S46
G1 X163.753 Y159.482 E.58749
G1 X163.753 Y158.949 E.01676
G1 X151.051 Y146.247 E.5638
G1 X151.585 Y146.247 E.01676
G1 X163.753 Y158.415 E.5401
G1 X163.753 Y157.881 E.01676
G1 X152.119 Y146.247 E.51641
G1 X152.653 Y146.247 E.01676
G1 X163.753 Y157.347 E.49271
G1 X163.753 Y156.813 E.01676
G1 X153.187 Y146.247 E.46902
G1 X153.72 Y146.247 E.01676
G1 X163.753 Y156.28 E.44532
G1 X163.753 Y155.746 E.01676
G1 X154.254 Y146.247 E.42163
G1 X154.788 Y146.247 E.01676
G1 X163.753 Y155.212 E.39793
G1 X163.753 Y154.678 E.01676
G1 X155.322 Y146.247 E.37424
G1 X155.856 Y146.247 E.01676
G1 X163.753 Y154.144 E.35054
G1 X163.753 Y153.61 E.01676
G1 X156.39 Y146.247 E.32685
G1 X156.923 Y146.247 E.01676
G1 X163.753 Y153.077 E.30315
G1 X163.753 Y152.543 E.01676
G1 X157.457 Y146.247 E.27946
G1 X157.991 Y146.247 E.01676
G1 X163.753 Y152.009 E.25576
G1 X163.753 Y151.475 E.01676
G1 X158.525 Y146.247 E.23207
G1 X159.059 Y146.247 E.01676
G1 X163.753 Y150.941 E.20837
G1 X163.753 Y150.407 E.01676
G1 X159.593 Y146.247 E.18468
G1 X160.126 Y146.247 E.01676
G1 X163.753 Y149.874 E.16098
G1 X163.753 Y149.34 E.01676
G1 X160.66 Y146.247 E.13728
G1 X161.194 Y146.247 E.01676
G1 X163.753 Y148.806 E.11359
G1 X163.753 Y148.272 E.01676
G1 X161.728 Y146.247 E.08989
G1 X162.262 Y146.247 E.01676
G1 X163.753 Y147.738 E.0662
G1 X163.753 Y147.205 E.01676
G1 X162.795 Y146.247 E.0425
G1 X163.329 Y146.247 E.01676
G1 X163.923 Y146.84 E.02634
; stop printing object 测试xyz方块.stl id:0 copy 0
M106 S252.45
;LAYER_CHANGE
;Z:0.35
;HEIGHT:0.15
;BEFORE_LAYER_CHANGE
G92 E0.0
;0.35


G1 E-.9 F3000
;WIPE_START
G1 F1920
G1 X163.329 Y146.247 E-1.24571
G1 X162.795 Y146.247 E-.7924
G1 X163.753 Y147.205 E-2.01012
G1 X163.753 Y147.738 E-.7924
G1 X163.751 Y147.736 E-.00438
;WIPE_END
G1 E-.255 F3000
G1 Z.5 F2400
;AFTER_LAYER_CHANGE
;0.35
; printing object 测试xyz方块.stl id:0 copy 0
G1 X163.939 Y146.061
G1 Z.35
G1 E6 F3000
M204 S800
;TYPE:Perimeter
;WIDTH:0.449999
G1 F2406
G1 X163.939 Y163.939 E.46584
G1 X146.061 Y163.939 E.46584
G1 X146.061 Y146.061 E.46584
G1 X163.864 Y146.061 E.46389
M204 S1000
G1 X164.357 Y145.643 F2400
M204 S800
G1 F2406
G1 X164.357 Y164.357 E.48762
G1 X145.643 Y164.357 E.48762
G1 X145.643 Y145.643 E.48762
G1 X164.282 Y145.643 E.48566
M204 S1000
G1 X164.775 Y145.225 F2400
M204 S800
;TYPE:External perimeter
G1 F1800
G1 X164.775 Y164.775 E.50939
G1 X145.225 Y164.775 E.50939
M73 P3 R46
M73 Q3 S46
G1 X145.225 Y145.225 E.50939
G1 X164.7 Y145.225 E.50744
M204 S1000
G1 X164.646 Y145.708 F2400
G1 X147.043 Y146.186
;TYPE:Solid infill
;WIDTH:0.455731
G1 F2412
G1 X146.374 Y146.855 E.02498
G1 X146.374 Y147.454 E.01582
G1 X147.454 Y146.374 E.04033
G1 X148.053 Y146.374 E.01582
G1 X146.374 Y148.053 E.0627
G1 X146.374 Y148.652 E.01582
G1 X148.652 Y146.374 E.08508
G1 X149.251 Y146.374 E.01582
G1 X146.374 Y149.251 E.10745
G1 X146.374 Y149.85 E.01582
G1 X149.85 Y146.374 E.12982
G1 X150.448 Y146.374 E.01582
G1 X146.374 Y150.448 E.1522
G1 X146.374 Y151.047 E.01582
G1 X151.047 Y146.374 E.17457
G1 X151.646 Y146.374 E.01582
G1 X146.374 Y151.646 E.19695
G1 X146.374 Y152.245 E.01582
G1 X152.245 Y146.374 E.21932
G1 X152.844 Y146.374 E.01582
G1 X146.374 Y152.844 E.2417
G1 X146.374 Y153.443 E.01582
G1 X153.443 Y146.374 E.26407
G1 X154.042 Y146.374 E.01582
G1 X146.374 Y154.042 E.28644
G1 X146.374 Y154.641 E.01582
G1 X154.641 Y146.374 E.30882
G1 X155.24 Y146.374 E.01582
G1 X146.374 Y155.24 E.33119
G1 X146.374 Y155.839 E.01582
G1 X155.839 Y146.374 E.35357
G1 X156.438 Y146.374 E.01582
G1 X146.374 Y156.438 E.37594
G1 X146.374 Y157.037 E.01582
G1 X157.037 Y146.374 E.39831
G1 X157.636 Y146.374 E.01582
G1 X146.374 Y157.636 E.42069
G1 X146.374 Y158.235 E.01582
G1 X158.235 Y146.374 E.44306
G1 X158.834 Y146.374 E.01582
G1 X146.374 Y158.834 E.46544
G1 X146.374 Y159.433 E.01582
G1 X159.433 Y146.374 E.48781
G1 X160.032 Y146.374 E.01582
G1 X146.374 Y160.032 E.51019
G1 X146.374 Y160.631 E.01582
G1 X160.631 Y146.374 E.53256
G1 X161.23 Y146.374 E.01582
G1 X146.374 Y161.23 E.55493
G1 X146.374 Y161.829 E.01582
G1 X161.829 Y146.374 E.57731
G1 X162.428 Y146.374 E.01582
G1 X146.374 Y162.428 E.59968
G1 X146.374 Y163.027 E.01582
G1 X163.027 Y146.374 E.62206
G1 X163.626 Y146.374 E.01582
G1 X146.374 Y163.626 E.64443
G1 X146.973 Y163.626 E.01582
G1 X163.626 Y146.973 E.62206
G1 X163.626 Y147.572 E.01582
G1 X147.572 Y163.626 E.59968
G1 X148.171 Y163.626 E.01582
G1 X163.626 Y148.171 E.57731
G1 X163.626 Y148.77 E.01582
G1 X148.77 Y163.626 E.55494
G1 X149.369 Y163.626 E.01582
G1 X163.626 Y149.369 E.53256
G1 X163.626 Y149.968 E.01582
G1 X149.968 Y163.626 E.51019
G1 X150.567 Y163.626 E.01582
G1 X163.626 Y150.567 E.48781
G1 X163.626 Y151.166 E.01582
G1 X151.166 Y163.626 E.46544
G1 X151.765 Y163.626 E.01582
G1 X163.626 Y151.765 E.44307
G1 X163.626 Y152.364 E.01582
G1 X152.364 Y163.626 E.42069
G1 X152.963 Y163.626 E.01582
G1 X163.626 Y152.963 E.39832
G1 X163.626 Y153.562 E.01582
G1 X153.562 Y163.626 E.37594
G1 X154.161 Y163.626 E.01582
G1 X163.626 Y154.161 E.35357
G1 X163.626 Y154.76 E.01582
G1 X154.76 Y163.626 E.33119
G1 X155.359 Y163.626 E.01582
G1 X163.626 Y155.359 E.30882
G1 X163.626 Y155.958 E.01582
G1 X155.958 Y163.626 E.28645
G1 X156.557 Y163.626 E.01582
G1 X163.626 Y156.557 E.26407
G1 X163.626 Y157.156 E.01582
G1 X157.156 Y163.626 E.2417
G1 X157.755 Y163.626 E.01582
G1 X163.626 Y157.755 E.21932
G1 X163.626 Y158.353 E.01582
G1 X158.353 Y163.626 E.19695
G1 X158.952 Y163.626 E.01582
G1 X163.626 Y158.952 E.17458
G1 X163.626 Y159.551 E.01582
G1 X159.551 Y163.626 E.1522
G1 X160.15 Y163.626 E.01582
G1 X163.626 Y160.15 E.12983
G1 X163.626 Y160.749 E.01582
G1 X160.749 Y163.626 E.10745
G1 X161.348 Y163.626 E.01582
G1 X163.626 Y161.348 E.08508
G1 X163.626 Y161.947 E.01582
G1 X161.947 Y163.626 E.06271
G1 X162.546 Y163.626 E.01582
G1 X163.626 Y162.546 E.04033
G1 X163.626 Y163.145 E.01582
G1 X162.957 Y163.814 E.02498
; stop printing object 测试xyz方块.stl id:0 copy 0
;LAYER_CHANGE
;Z:0.5
;HEIGHT:0.15
;BEFORE_LAYER_CHANGE
G92 E0.0
;0.5


G1 E-.9 F3000
;WIPE_START
G1 F1920
G1 X163.626 Y163.145 E-1.40384
G1 X163.626 Y162.546 E-.88911
G1 X162.546 Y163.626 E-2.26655
G1 X162.354 Y163.626 E-.2855
;WIPE_END
G1 E-.255 F3000
G1 Z.65 F2400
;AFTER_LAYER_CHANGE
;0.5
; printing object 测试xyz方块.stl id:0 copy 0
G1 X163.939 Y163.939
G1 Z.5
G1 E6 F3000
M204 S800
;TYPE:Perimeter
;WIDTH:0.449999
G1 F2406
G1 X146.061 Y163.939 E.46584
G1 X146.061 Y146.061 E.46584
G1 X163.939 Y146.061 E.46584
G1 X163.939 Y163.864 E.46389
M204 S1000
G1 X164.357 Y164.357 F2400
M204 S800
G1 F2406
G1 X145.643 Y164.357 E.48762
G1 X145.643 Y145.643 E.48762
G1 X164.357 Y145.643 E.48762
G1 X164.357 Y164.282 E.48566
M204 S1000
G1 X164.775 Y164.775 F2400
M204 S800
;TYPE:External perimeter
G1 F1800
G1 X145.225 Y164.775 E.50939
G1 X145.225 Y145.225 E.50939
G1 X164.775 Y145.225 E.50939
M73 P4 R46
M73 Q4 S46
G1 X164.775 Y164.7 E.50744
M204 S1000
G1 X164.292 Y164.646 F2400
G1 X163.814 Y147.043
;TYPE:Solid infill
;WIDTH:0.455731
G1 F2412
G1 X163.145 Y146.374 E.02498
G1 X162.546 Y146.374 E.01582
G1 X163.626 Y147.454 E.04033
G1 X163.626 Y148.053 E.01582
G1 X161.947 Y146.374 E.06271
G1 X161.348 Y146.374 E.01582
G1 X163.626 Y148.652 E.08508
G1 X163.626 Y149.251 E.01582
G1 X160.749 Y146.374 E.10745
G1 X160.15 Y146.374 E.01582
G1 X163.626 Y149.85 E.12983
G1 X163.626 Y150.449 E.01582
G1 X159.551 Y146.374 E.1522
G1 X158.952 Y146.374 E.01582
G1 X163.626 Y151.048 E.17458
G1 X163.626 Y151.647 E.01582
G1 X158.353 Y146.374 E.19695
G1 X157.755 Y146.374 E.01582
G1 X163.626 Y152.245 E.21932
G1 X163.626 Y152.844 E.01582
G1 X157.156 Y146.374 E.2417
G1 X156.557 Y146.374 E.01582
G1 X163.626 Y153.443 E.26407
G1 X163.626 Y154.042 E.01582
G1 X155.958 Y146.374 E.28645
G1 X155.359 Y146.374 E.01582
G1 X163.626 Y154.641 E.30882
G1 X163.626 Y155.24 E.01582
G1 X154.76 Y146.374 E.33119
G1 X154.161 Y146.374 E.01582
G1 X163.626 Y155.839 E.35357
G1 X163.626 Y156.438 E.01582
G1 X153.562 Y146.374 E.37594
G1 X152.963 Y146.374 E.01582
G1 X163.626 Y157.037 E.39832
G1 X163.626 Y157.636 E.01582
G1 X152.364 Y146.374 E.42069
G1 X151.765 Y146.374 E.01582
G1 X163.626 Y158.235 E.44307
G1 X163.626 Y158.834 E.01582
G1 X151.166 Y146.374 E.46544
G1 X150.567 Y146.374 E.01582
G1 X163.626 Y159.433 E.48781
G1 X163.626 Y160.032 E.01582
G1 X149.968 Y146.374 E.51019
G1 X149.369 Y146.374 E.01582
G1 X163.626 Y160.631 E.53256
G1 X163.626 Y161.23 E.01582
G1 X148.77 Y146.374 E.55494
G1 X148.171 Y146.374 E.01582
G1 X163.626 Y161.829 E.57731
G1 X163.626 Y162.428 E.01582
G1 X147.572 Y146.374 E.59968
G1 X146.973 Y146.374 E.01582
G1 X163.626 Y163.027 E.62206
G1 X163.626 Y163.626 E.01582
M73 P4 R45
G1 X146.374 Y146.374 E.64443
G1 X146.374 Y146.973 E.01582
G1 X163.027 Y163.626 E.62206
G1 X162.428 Y163.626 E.01582
M73 Q4 S45
G1 X146.374 Y147.572 E.59968
G1 X146.374 Y148.171 E.01582
G1 X161.829 Y163.626 E.57731
G1 X161.23 Y163.626 E.01582
G1 X146.374 Y148.77 E.55493
G1 X146.374 Y149.369 E.01582
G1 X160.631 Y163.626 E.53256
G1 X160.032 Y163.626 E.01582
G1 X146.374 Y149.968 E.51019
G1 X146.374 Y150.567 E.01582
G1 X159.433 Y163.626 E.48781
G1 X158.834 Y163.626 E.01582
G1 X146.374 Y151.166 E.46544
G1 X146.374 Y151.765 E.01582
G1 X158.235 Y163.626 E.44306
G1 X157.636 Y163.626 E.01582
G1 X146.374 Y152.364 E.42069
G1 X146.374 Y152.963 E.01582
