; generated by PrusaSlicer 2.5.0+win64 on 2022-09-25 at 08:12:36 UTC

; 

; external perimeters extrusion width = 0.45mm
; perimeters extrusion width = 0.45mm
; infill extrusion width = 0.45mm
; solid infill extrusion width = 0.45mm
; top infill extrusion width = 0.45mm
; first layer extrusion width = 0.42mm

M73 P0 R49
M73 Q0 S49
M201 X1000 Y1000 Z200 E5000 ; sets maximum accelerations, mm/sec^2
M203 X200 Y200 Z12 E120 ; sets maximum feedrates, mm / sec
M204 P1250 R1250 T1250 ; sets acceleration (P, T) and retract acceleration (R), mm/sec^2
M205 X10.00 Y10.00 Z0.20 E2.50 ; sets the jerk limits, mm/sec
M205 S0 T0 ; sets the minimum extruding and travel feed rate, mm/sec
M107
;TYPE:Custom
M115 U3.9.3 ; tell printer latest fw version
G90 ; use absolute coordinates
M83 ; extruder relative mode
M104 S195 ; set extruder temp
M140 S55 ; set bed temp
M190 S55 ; wait for bed temp
M109 S195 ; wait for extruder temp
G28 W ; home all without mesh bed level
G80 ; mesh bed leveling
G92 E0.0
G1 Z2.0 F3000 ;Move Z Axis up
G92 E0.0
G1 Z2.0 F3000 ;Move Z Axis up
G21 ; set units to millimeters
G90 ; use absolute coordinates
M83 ; use relative distances for extrusion
; Filament gcode
M107
;LAYER_CHANGE
;Z:0.2
;HEIGHT:0.2
;BEFORE_LAYER_CHANGE
G92 E0.0
;0.2


G1 E-6 F4800
G1 Z.2 F2400
;AFTER_LAYER_CHANGE
;0.2
G1 X138.459 Y132.606
G1 E6 F3000
M204 S1000
;TYPE:Skirt/Brim
;WIDTH:0.42
G1 F1200
G1 X140.779 Y131.234 E.08451
G1 X144.215 Y130.563 E.10976
G1 X164.215 Y130.563 E.62709
G1 X166.881 Y130.961 E.08451
G1 X169.314 Y132.12 E.08451
G1 X171.304 Y133.938 E.08451
G1 X172.675 Y136.259 E.08451
G1 X173.346 Y139.694 E.10976
G1 X173.346 Y159.694 E.62709
G1 X172.948 Y162.36 E.08451
G1 X171.79 Y164.794 E.08451
G1 X169.971 Y166.783 E.08451
G1 X167.651 Y168.154 E.08451
G1 X164.215 Y168.825 E.10976
G1 X144.215 Y168.825 E.62709
G1 X141.549 Y168.428 E.08451
G1 X139.116 Y167.269 E.08451
G1 X137.126 Y165.45 E.08451
G1 X135.755 Y163.13 E.08451
G1 X135.084 Y159.694 E.10976
G1 X135.084 Y139.694 E.62709
G1 X135.482 Y137.028 E.08451
M73 P0 R48
G1 X136.64 Y134.595 E.08451
G1 X138.408 Y132.661 E.08216
G1 X138.697 Y132.933 F2400
G1 F1200
G1 X138.827 Y132.795 E.00595
G1 X141.128 Y131.503 E.08274
G1 X144.215 Y130.94 E.0984
G1 X164.215 Y130.94 E.62709
G1 X166.824 Y131.338 E.08274
M73 Q0 S48
G1 X169.195 Y132.495 E.08274
G1 X171.114 Y134.306 E.08274
G1 X172.407 Y136.607 E.08274
G1 X172.969 Y139.694 E.0984
G1 X172.969 Y159.694 E.62709
G1 X172.571 Y162.303 E.08274
G1 X171.414 Y164.674 E.08274
G1 X169.603 Y166.594 E.08274
G1 X167.302 Y167.886 E.08274
G1 X164.215 Y168.448 E.0984
G1 X144.215 Y168.448 E.62709
G1 X141.606 Y168.051 E.08274
G1 X139.235 Y166.894 E.08274
G1 X137.316 Y165.082 E.08274
G1 X136.023 Y162.782 E.08274
G1 X135.461 Y159.694 E.0984
G1 X135.461 Y139.694 E.62709
G1 X135.859 Y137.086 E.08274
G1 X137.016 Y134.714 E.08274
G1 X138.645 Y132.987 E.07444
G1 X138.927 Y133.262 F2400
G1 F1200
G1 X139.194 Y132.989 E.01198
G1 X141.473 Y131.779 E.08093
G1 X144.215 Y131.317 E.08718
G1 X164.215 Y131.317 E.62709
G1 X166.765 Y131.715 E.08093
G1 X169.073 Y132.87 E.08093
G1 X170.92 Y134.673 E.08093
G1 X172.131 Y136.952 E.08093
G1 X172.592 Y139.694 E.08718
G1 X172.592 Y159.694 E.62709
G1 X172.194 Y162.244 E.08093
G1 X171.039 Y164.553 E.08093
G1 X169.236 Y166.399 E.08093
G1 X166.957 Y167.61 E.08093
G1 X164.215 Y168.071 E.08718
G1 X144.215 Y168.071 E.62709
G1 X141.665 Y167.674 E.08093
G1 X139.357 Y166.519 E.08093
G1 X137.51 Y164.716 E.08093
G1 X136.299 Y162.436 E.08093
G1 X135.838 Y159.694 E.08718
G1 X135.838 Y139.694 E.62709
G1 X136.236 Y137.144 E.08093
G1 X137.391 Y134.836 E.08093
G1 X138.874 Y133.316 E.0666
; printing object 测试xyz方块.stl id:0 copy 0
G1 E-.9 F4800
;WIPE_START
G1 F1920
G1 X139.194 Y132.989 E-1.08524
G1 X140.592 Y132.247 E-3.75976
;WIPE_END
G1 E-.255 F4800
G1 X160.992 Y140.658 F2400
G1 E6 F3000
;TYPE:Perimeter
;WIDTH:0.419999
G1 F1200
G1 X163.251 Y140.658 E.07083
G1 X163.251 Y158.73 E.56662
G1 X145.179 Y158.73 E.56662
G1 X145.179 Y140.658 E.56662
G1 X160.917 Y140.658 E.49344
M73 P1 R48
M73 Q1 S48
G1 E-.9 F4800
;WIPE_START
G1 F1920
G1 X162.957 Y140.658 E-4.845
;WIPE_END
G1 E-.255 F4800
G1 X147.302 Y159.107 F2400
G1 E6 F3000
G1 F1200
G1 X144.802 Y159.107 E.0784
G1 X144.802 Y140.281 E.59027
G1 X163.628 Y140.281 E.59027
G1 X163.628 Y159.107 E.59027
G1 X147.377 Y159.107 E.50952
G1 E-.9 F4800
;WIPE_START
G1 F1920
G1 X145.337 Y159.107 E-4.845
;WIPE_END
G1 E-.255 F4800
G1 X144.425 Y159.484 F2400
G1 E6 F3000
;TYPE:External perimeter
G1 F1200
G1 X144.425 Y139.904 E.61392
G1 X164.005 Y139.904 E.61392
G1 X164.005 Y159.484 E.61392
G1 X144.5 Y159.484 E.61156
G1 X144.554 Y159.001 F2400
G1 E-.9 F4800
;WIPE_START
G1 F1920
G1 X144.492 Y157.444 E-4.845
;WIPE_END
G1 E-.255 F4800
G1 X145.292 Y157.854 F2400
G1 E6 F3000
;TYPE:Solid infill
;WIDTH:0.420391
G1 F1200
G1 X145.886 Y158.447 E.02634
G1 X146.419 Y158.447 E.01676
G1 X145.462 Y157.49 E.0425
G1 X145.462 Y156.956 E.01676
G1 X146.953 Y158.447 E.0662
G1 X147.487 Y158.447 E.01676
G1 X145.462 Y156.422 E.08989
G1 X145.462 Y155.888 E.01676
G1 X148.021 Y158.447 E.11359
G1 X148.555 Y158.447 E.01676
G1 X145.462 Y155.354 E.13728
G1 X145.462 Y154.821 E.01676
G1 X149.089 Y158.447 E.16098
G1 X149.622 Y158.447 E.01676
G1 X145.462 Y154.287 E.18467
G1 X145.462 Y153.753 E.01676
G1 X150.156 Y158.447 E.20837
G1 X150.69 Y158.447 E.01676
G1 X145.462 Y153.219 E.23206
G1 X145.462 Y152.685 E.01676
G1 X151.224 Y158.447 E.25576
G1 X151.758 Y158.447 E.01676
G1 X145.462 Y152.151 E.27945
G1 X145.462 Y151.618 E.01676
G1 X152.292 Y158.447 E.30315
G1 X152.825 Y158.447 E.01676
G1 X145.462 Y151.084 E.32684
G1 X145.462 Y150.55 E.01676
G1 X153.359 Y158.447 E.35054
G1 X153.893 Y158.447 E.01676
G1 X145.462 Y150.016 E.37423
G1 X145.462 Y149.482 E.01676
G1 X154.427 Y158.447 E.39793
G1 X154.961 Y158.447 E.01676
G1 X145.462 Y148.949 E.42163
G1 X145.462 Y148.415 E.01676
G1 X155.494 Y158.447 E.44532
G1 X156.028 Y158.447 E.01676
G1 X145.462 Y147.881 E.46902
G1 X145.462 Y147.347 E.01676
G1 X156.562 Y158.447 E.49271
G1 X157.096 Y158.447 E.01676
G1 X145.462 Y146.813 E.51641
G1 X145.462 Y146.279 E.01676
G1 X157.63 Y158.447 E.5401
G1 X158.164 Y158.447 E.01676
G1 X145.462 Y145.746 E.5638
G1 X145.462 Y145.212 E.01676
G1 X158.697 Y158.447 E.58749
G1 X159.231 Y158.447 E.01676
G1 X145.462 Y144.678 E.61119
G1 X145.462 Y144.144 E.01676
G1 X159.765 Y158.447 E.63488
G1 X160.299 Y158.447 E.01676
G1 X145.462 Y143.61 E.65858
G1 X145.462 Y143.076 E.01676
G1 X160.833 Y158.447 E.68227
G1 X161.367 Y158.447 E.01676
G1 X145.462 Y142.543 E.70597
G1 X145.462 Y142.009 E.01676
G1 X161.9 Y158.447 E.72966
G1 X162.434 Y158.447 E.01676
M73 P2 R48
M73 Q2 S48
G1 X145.462 Y141.475 E.75336
G1 X145.462 Y140.941 E.01676
G1 X162.968 Y158.447 E.77705
G1 X162.968 Y157.913 E.01675
G1 X145.996 Y140.941 E.75336
G1 X146.53 Y140.941 E.01676
G1 X162.968 Y157.38 E.72967
G1 X162.968 Y156.846 E.01676
G1 X147.063 Y140.941 E.70597
G1 X147.597 Y140.941 E.01676
G1 X162.968 Y156.312 E.68228
G1 X162.968 Y155.778 E.01676
G1 X148.131 Y140.941 E.65858
G1 X148.665 Y140.941 E.01676
G1 X162.968 Y155.244 E.63488
G1 X162.968 Y154.71 E.01676
G1 X149.199 Y140.941 E.61119
G1 X149.733 Y140.941 E.01676
G1 X162.968 Y154.177 E.58749
G1 X162.968 Y153.643 E.01676
G1 X150.266 Y140.941 E.5638
G1 X150.8 Y140.941 E.01676
M73 P2 R47
G1 X162.968 Y153.109 E.5401
G1 X162.968 Y152.575 E.01676
G1 X151.334 Y140.941 E.51641
G1 X151.868 Y140.941 E.01676
M73 Q2 S47
G1 X162.968 Y152.041 E.49271
G1 X162.968 Y151.508 E.01676
G1 X152.402 Y140.941 E.46902
G1 X152.935 Y140.941 E.01676
G1 X162.968 Y150.974 E.44532
G1 X162.968 Y150.44 E.01676
G1 X153.469 Y140.941 E.42163
G1 X154.003 Y140.941 E.01676
G1 X162.968 Y149.906 E.39793
G1 X162.968 Y149.372 E.01676
G1 X154.537 Y140.941 E.37424
G1 X155.071 Y140.941 E.01676
G1 X162.968 Y148.838 E.35054
G1 X162.968 Y148.305 E.01676
G1 X155.605 Y140.941 E.32685
G1 X156.138 Y140.941 E.01676
G1 X162.968 Y147.771 E.30315
G1 X162.968 Y147.237 E.01676
G1 X156.672 Y140.941 E.27946
G1 X157.206 Y140.941 E.01676
G1 X162.968 Y146.703 E.25576
G1 X162.968 Y146.169 E.01676
G1 X157.74 Y140.941 E.23207
G1 X158.274 Y140.941 E.01676
G1 X162.968 Y145.635 E.20837
G1 X162.968 Y145.102 E.01676
G1 X158.808 Y140.941 E.18468
G1 X159.341 Y140.941 E.01676
G1 X162.968 Y144.568 E.16098
G1 X162.968 Y144.034 E.01676
G1 X159.875 Y140.941 E.13728
G1 X160.409 Y140.941 E.01676
G1 X162.968 Y143.5 E.11359
G1 X162.968 Y142.966 E.01676
G1 X160.943 Y140.941 E.08989
G1 X161.477 Y140.941 E.01676
G1 X162.968 Y142.433 E.0662
G1 X162.968 Y141.899 E.01676
G1 X162.01 Y140.941 E.0425
G1 X162.544 Y140.941 E.01676
G1 X163.138 Y141.535 E.02634
; stop printing object 测试xyz方块.stl id:0 copy 0
M106 S252.45
;LAYER_CHANGE
;Z:0.35
;HEIGHT:0.15
;BEFORE_LAYER_CHANGE
G92 E0.0
;0.35


G1 E-.9 F4800
;WIPE_START
G1 F1920
G1 X162.544 Y140.941 E-1.99314
G1 X162.01 Y140.941 E-1.26783
G1 X162.482 Y141.413 E-1.58403
;WIPE_END
G1 E-.255 F4800
G1 Z.35 F2400
;AFTER_LAYER_CHANGE
;0.35
; printing object 测试xyz方块.stl id:0 copy 0
G1 X161.478 Y140.755
G1 E6 F3000
M204 S800
;TYPE:Perimeter
;WIDTH:0.449999
G1 F2406
G1 X163.154 Y140.755 E.04367
G1 X163.154 Y158.634 E.46584
G1 X145.276 Y158.634 E.46584
G1 X145.276 Y140.755 E.46584
G1 X161.403 Y140.755 E.42022
M204 S1000
G1 X153.338 Y159.051 F2400
M204 S800
G1 F2406
G1 X144.858 Y159.051 E.22095
G1 X144.858 Y140.337 E.48762
G1 X163.572 Y140.337 E.48762
G1 X163.572 Y159.051 E.48762
G1 X153.413 Y159.051 E.26471
M204 S1000
G1 X161.088 Y159.469 F2400
M204 S800
;TYPE:External perimeter
G1 F1800
G1 X144.44 Y159.469 E.43378
G1 X144.44 Y139.919 E.50939
G1 X163.99 Y139.919 E.50939
M73 P3 R47
M73 Q3 S47
G1 X163.99 Y159.469 E.50939
G1 X161.163 Y159.469 E.07366
M204 S1000
G1 X160.668 Y159.198 F2400
G1 X162.172 Y158.508
;TYPE:Solid infill
;WIDTH:0.455731
G1 F2412
G1 X162.841 Y157.839 E.02498
G1 X162.841 Y157.24 E.01582
G1 X161.761 Y158.32 E.04033
G1 X161.162 Y158.32 E.01582
G1 X162.841 Y156.642 E.06271
G1 X162.841 Y156.043 E.01582
G1 X160.563 Y158.32 E.08508
G1 X159.964 Y158.32 E.01582
G1 X162.841 Y155.444 E.10745
G1 X162.841 Y154.845 E.01582
G1 X159.365 Y158.32 E.12983
G1 X158.766 Y158.32 E.01582
G1 X162.841 Y154.246 E.1522
G1 X162.841 Y153.647 E.01582
G1 X158.167 Y158.32 E.17458
G1 X157.568 Y158.32 E.01582
G1 X162.841 Y153.048 E.19695
G1 X162.841 Y152.449 E.01582
G1 X156.97 Y158.32 E.21932
G1 X156.371 Y158.32 E.01582
G1 X162.841 Y151.85 E.2417
G1 X162.841 Y151.251 E.01582
G1 X155.772 Y158.32 E.26407
G1 X155.173 Y158.32 E.01582
G1 X162.841 Y150.652 E.28645
G1 X162.841 Y150.053 E.01582
G1 X154.574 Y158.32 E.30882
G1 X153.975 Y158.32 E.01582
G1 X162.841 Y149.454 E.33119
G1 X162.841 Y148.855 E.01582
G1 X153.376 Y158.32 E.35357
G1 X152.777 Y158.32 E.01582
G1 X162.841 Y148.256 E.37594
G1 X162.841 Y147.657 E.01582
G1 X152.178 Y158.32 E.39832
G1 X151.579 Y158.32 E.01582
G1 X162.841 Y147.058 E.42069
G1 X162.841 Y146.459 E.01582
G1 X150.98 Y158.32 E.44307
G1 X150.381 Y158.32 E.01582
G1 X162.841 Y145.86 E.46544
G1 X162.841 Y145.261 E.01582
G1 X149.782 Y158.32 E.48781
G1 X149.183 Y158.32 E.01582
G1 X162.841 Y144.662 E.51019
G1 X162.841 Y144.063 E.01582
G1 X148.584 Y158.32 E.53256
G1 X147.985 Y158.32 E.01582
G1 X162.841 Y143.464 E.55494
G1 X162.841 Y142.865 E.01582
G1 X147.386 Y158.32 E.57731
G1 X146.787 Y158.32 E.01582
G1 X162.841 Y142.266 E.59968
G1 X162.841 Y141.667 E.01582
G1 X146.188 Y158.32 E.62206
G1 X145.589 Y158.32 E.01582
G1 X162.841 Y141.068 E.64443
G1 X162.242 Y141.068 E.01582
G1 X145.589 Y157.721 E.62206
G1 X145.589 Y157.122 E.01582
G1 X161.643 Y141.068 E.59968
G1 X161.044 Y141.068 E.01582
G1 X145.589 Y156.523 E.57731
G1 X145.589 Y155.924 E.01582
G1 X160.445 Y141.068 E.55493
G1 X159.846 Y141.068 E.01582
G1 X145.589 Y155.325 E.53256
G1 X145.589 Y154.726 E.01582
G1 X159.247 Y141.068 E.51019
G1 X158.648 Y141.068 E.01582
G1 X145.589 Y154.127 E.48781
G1 X145.589 Y153.528 E.01582
G1 X158.049 Y141.068 E.46544
G1 X157.45 Y141.068 E.01582
G1 X145.589 Y152.929 E.44306
G1 X145.589 Y152.33 E.01582
G1 X156.851 Y141.068 E.42069
G1 X156.252 Y141.068 E.01582
G1 X145.589 Y151.731 E.39831
G1 X145.589 Y151.132 E.01582
G1 X155.653 Y141.068 E.37594
G1 X155.054 Y141.068 E.01582
G1 X145.589 Y150.533 E.35357
G1 X145.589 Y149.934 E.01582
G1 X154.455 Y141.068 E.33119
G1 X153.856 Y141.068 E.01582
G1 X145.589 Y149.336 E.30882
G1 X145.589 Y148.737 E.01582
G1 X153.257 Y141.068 E.28644
G1 X152.658 Y141.068 E.01582
G1 X145.589 Y148.138 E.26407
G1 X145.589 Y147.539 E.01582
G1 X152.059 Y141.068 E.2417
G1 X151.46 Y141.068 E.01582
G1 X145.589 Y146.94 E.21932
G1 X145.589 Y146.341 E.01582
G1 X150.861 Y141.068 E.19695
G1 X150.262 Y141.068 E.01582
G1 X145.589 Y145.742 E.17457
G1 X145.589 Y145.143 E.01582
G1 X149.663 Y141.068 E.1522
G1 X149.065 Y141.068 E.01582
G1 X145.589 Y144.544 E.12982
G1 X145.589 Y143.945 E.01582
G1 X148.466 Y141.068 E.10745
G1 X147.867 Y141.068 E.01582
G1 X145.589 Y143.346 E.08508
G1 X145.589 Y142.747 E.01582
G1 X147.268 Y141.068 E.0627
G1 X146.669 Y141.068 E.01582
G1 X145.589 Y142.148 E.04033
G1 X145.589 Y141.549 E.01582
G1 X146.258 Y140.88 E.02498
; stop printing object 测试xyz方块.stl id:0 copy 0
;LAYER_CHANGE
;Z:0.5
;HEIGHT:0.15
;BEFORE_LAYER_CHANGE
G92 E0.0
;0.5


G1 E-.9 F4800
;WIPE_START
G1 F1920
G1 X145.589 Y141.549 E-2.24588
G1 X145.589 Y142.148 E-1.42257
G1 X145.939 Y141.797 E-1.17655
;WIPE_END
G1 E-.255 F4800
G1 Z.5 F2400
;AFTER_LAYER_CHANGE
;0.5
; printing object 测试xyz方块.stl id:0 copy 0
G1 X145.276 Y142.382
G1 E6 F3000
M204 S800
;TYPE:Perimeter
;WIDTH:0.449999
G1 F2406
G1 X145.276 Y140.755 E.04239
G1 X163.154 Y140.755 E.46584
G1 X163.154 Y158.634 E.46584
G1 X145.276 Y158.634 E.46584
G1 X145.276 Y142.457 E.4215
M204 S1000
G1 X155.677 Y140.337 F2400
M204 S800
G1 F2406
G1 X163.572 Y140.337 E.20571
G1 X163.572 Y159.051 E.48762
G1 X144.858 Y159.051 E.48762
G1 X144.858 Y140.337 E.48762
G1 X155.602 Y140.337 E.27995
M204 S1000
G1 X163.99 Y145.418 F2400
M204 S800
;TYPE:External perimeter
G1 F1800
G1 X163.99 Y159.469 E.36612
G1 X144.44 Y159.469 E.50939
G1 X144.44 Y139.919 E.50939
G1 X163.99 Y139.919 E.50939
G1 X163.99 Y145.343 E.14131
M204 S1000
M73 P4 R47
M73 Q4 S47
G1 X163.702 Y145.826 F2400
G1 X163.029 Y141.737
;TYPE:Solid infill
;WIDTH:0.455731
G1 F2412
G1 X162.36 Y141.068 E.02498
G1 X161.761 Y141.068 E.01582
G1 X162.841 Y142.148 E.04033
G1 X162.841 Y142.747 E.01582
G1 X161.162 Y141.068 E.06271
G1 X160.563 Y141.068 E.01582
G1 X162.841 Y143.346 E.08508
G1 X162.841 Y143.945 E.01582
G1 X159.964 Y141.068 E.10745
G1 X159.365 Y141.068 E.01582
G1 X162.841 Y144.544 E.12983
G1 X162.841 Y145.143 E.01582
G1 X158.766 Y141.068 E.1522
G1 X158.167 Y141.068 E.01582
G1 X162.841 Y145.742 E.17458
G1 X162.841 Y146.341 E.01582
G1 X157.568 Y141.068 E.19695
G1 X156.97 Y141.068 E.01582
G1 X162.841 Y146.94 E.21932
G1 X162.841 Y147.539 E.01582
G1 X156.371 Y141.068 E.2417
G1 X155.772 Y141.068 E.01582
G1 X162.841 Y148.138 E.26407
G1 X162.841 Y148.737 E.01582
G1 X155.173 Y141.068 E.28645
G1 X154.574 Y141.068 E.01582
G1 X162.841 Y149.336 E.30882
G1 X162.841 Y149.935 E.01582
G1 X153.975 Y141.068 E.33119
G1 X153.376 Y141.068 E.01582
G1 X162.841 Y150.534 E.35357
G1 X162.841 Y151.133 E.01582
G1 X152.777 Y141.068 E.37594
G1 X152.178 Y141.068 E.01582
G1 X162.841 Y151.731 E.39832
G1 X162.841 Y152.33 E.01582
G1 X151.579 Y141.068 E.42069
G1 X150.98 Y141.068 E.01582
G1 X162.841 Y152.929 E.44307
G1 X162.841 Y153.528 E.01582
G1 X150.381 Y141.068 E.46544
G1 X149.782 Y141.068 E.01582
G1 X162.841 Y154.127 E.48781
G1 X162.841 Y154.726 E.01582
G1 X149.183 Y141.068 E.51019
G1 X148.584 Y141.068 E.01582
G1 X162.841 Y155.325 E.53256
G1 X162.841 Y155.924 E.01582
G1 X147.985 Y141.068 E.55494
G1 X147.386 Y141.068 E.01582
G1 X162.841 Y156.523 E.57731
G1 X162.841 Y157.122 E.01582
G1 X146.787 Y141.068 E.59968
G1 X146.188 Y141.068 E.01582
G1 X162.841 Y157.721 E.62206
G1 X162.841 Y158.32 E.01582
G1 X145.589 Y141.068 E.64443
G1 X145.589 Y141.667 E.01582
G1 X162.242 Y158.32 E.62206
G1 X161.643 Y158.32 E.01582
G1 X145.589 Y142.266 E.59968
G1 X145.589 Y142.865 E.01582
G1 X161.044 Y158.32 E.57731
G1 X160.445 Y158.32 E.01582
G1 X145.589 Y143.464 E.55493
G1 X145.589 Y144.063 E.01582
M73 P4 R46
G1 X159.846 Y158.32 E.53256
