; generated by PrusaSlicer 2.5.0+win64 on 2022-09-25 at 09:01:33 UTC

; 

; external perimeters extrusion width = 0.45mm
; perimeters extrusion width = 0.45mm
; infill extrusion width = 0.45mm
; solid infill extrusion width = 0.45mm
; top infill extrusion width = 0.45mm
; first layer extrusion width = 0.42mm

M73 P0 R84
M73 Q0 S84
M201 X1000 Y1000 Z200 E5000 ; sets maximum accelerations, mm/sec^2
M203 X200 Y200 Z12 E120 ; sets maximum feedrates, mm / sec
M204 P1250 R1250 T1250 ; sets acceleration (P, T) and retract acceleration (R), mm/sec^2
M205 X10.00 Y10.00 Z0.20 E2.50 ; sets the jerk limits, mm/sec
M205 S0 T0 ; sets the minimum extruding and travel feed rate, mm/sec
M107
;TYPE:Custom
M115 U3.9.3 ; tell printer latest fw version
G90 ; use absolute coordinates
M83 ; extruder relative mode
M104 S195 ; set extruder temp
M140 S55 ; set bed temp
M190 S55 ; wait for bed temp
M109 S195 ; wait for extruder temp
G28 W ; home all without mesh bed level
G80 ; mesh bed leveling
G92 E0.0
G1 Z2.0 F3000 ;Move Z Axis up
G92 E0.0
G1 Z2.0 F3000 ;Move Z Axis up
G21 ; set units to millimeters
G90 ; use absolute coordinates
M83 ; use relative distances for extrusion
; Filament gcode
M107
;LAYER_CHANGE
;Z:0.2
;HEIGHT:0.2
;BEFORE_LAYER_CHANGE
G92 E0.0
;0.2


G1 E-6 F4800
G1 Z.2 F2400
;AFTER_LAYER_CHANGE
;0.2
G1 X124.304 Y122.818
G1 E6 F3000
M204 S1000
;TYPE:Skirt/Brim
;WIDTH:0.42
G1 F1200
G1 X133.711 Y113.411 E.4171
G1 X136.673 Y111.432 E.11171
G1 X138.511 Y110.671 E.06237
G1 X142.005 Y109.976 E.11171
G1 X167.995 Y109.976 E.81487
G1 X171.489 Y110.671 E.11171
G1 X173.327 Y111.432 E.06237
G1 X176.289 Y113.411 E.11171
G1 X185.696 Y122.818 E.4171
G1 X187.675 Y125.78 E.11171
G1 X188.436 Y127.618 E.06237
G1 X189.131 Y131.112 E.11171
G1 X189.131 Y177.101 E1.44196
G1 X188.436 Y180.596 E.11171
G1 X187.675 Y182.433 E.06237
G1 X185.696 Y185.396 E.11171
G1 X176.289 Y194.802 E.4171
G1 X173.327 Y196.782 E.11171
G1 X171.489 Y197.543 E.06237
G1 X167.995 Y198.238 E.11171
G1 X142.005 Y198.238 E.81487
G1 X138.511 Y197.543 E.11171
G1 X136.673 Y196.782 E.06237
G1 X133.711 Y194.802 E.11171
G1 X124.304 Y185.396 E.4171
G1 X122.325 Y182.433 E.11171
G1 X121.564 Y180.596 E.06237
G1 X120.869 Y177.101 E.11171
G1 X120.869 Y131.112 E1.44196
G1 X121.564 Y127.618 E.11171
G1 X122.325 Y125.78 E.06237
G1 X124.263 Y122.88 E.10936
G1 X124.57 Y123.086 F2400
G1 F1200
G1 X133.978 Y113.678 E.41715
G1 X136.818 Y111.78 E.1071
G1 X138.655 Y111.019 E.06237
G1 X142.005 Y110.353 E.1071
G1 X167.995 Y110.353 E.81487
G1 X171.345 Y111.019 E.1071
G1 X173.182 Y111.78 E.06237
G1 X176.022 Y113.678 E.1071
G1 X185.429 Y123.084 E.4171
G1 X187.327 Y125.924 E.1071
G1 X188.088 Y127.762 E.06237
G1 X188.754 Y131.112 E.1071
G1 X188.754 Y177.101 E1.44196
G1 X188.088 Y180.451 E.1071
G1 X187.327 Y182.289 E.06237
G1 X185.429 Y185.129 E.1071
G1 X176.022 Y194.536 E.4171
G1 X173.182 Y196.433 E.1071
G1 X171.345 Y197.195 E.06237
G1 X167.995 Y197.861 E.1071
G1 X142.005 Y197.861 E.81487
G1 X138.655 Y197.195 E.1071
G1 X136.818 Y196.433 E.06237
G1 X133.978 Y194.536 E.1071
G1 X124.571 Y185.129 E.4171
G1 X122.673 Y182.289 E.1071
G1 X121.912 Y180.451 E.06237
G1 X121.246 Y177.101 E.1071
G1 X121.246 Y131.112 E1.44196
G1 X121.912 Y127.762 E.1071
G1 X122.673 Y125.924 E.06237
G1 X124.529 Y123.148 E.1047
G1 X124.836 Y123.353 F2400
G1 F1200
G1 X134.244 Y113.944 E.41719
G1 X136.962 Y112.129 E.10248
G1 X138.8 Y111.367 E.06237
G1 X142.005 Y110.73 E.10248
G1 X167.995 Y110.73 E.81487
G1 X171.2 Y111.367 E.10248
G1 X173.038 Y112.129 E.06237
G1 X175.756 Y113.944 E.10248
G1 X185.162 Y123.351 E.4171
G1 X186.978 Y126.069 E.10248
G1 X187.739 Y127.906 E.06237
G1 X188.377 Y131.112 E.10248
G1 X188.377 Y177.101 E1.44196
G1 X187.739 Y180.307 E.10248
G1 X186.978 Y182.145 E.06237
M73 P0 R83
G1 X185.162 Y184.863 E.10248
G1 X175.756 Y194.269 E.4171
G1 X173.038 Y196.085 E.10248
G1 X171.2 Y196.846 E.06237
G1 X167.995 Y197.484 E.10248
G1 X142.005 Y197.484 E.81487
G1 X138.8 Y196.846 E.10248
G1 X136.962 Y196.085 E.06237
G1 X134.244 Y194.269 E.10248
G1 X124.838 Y184.863 E.4171
G1 X123.022 Y182.145 E.10248
G1 X122.261 Y180.307 E.06237
G1 X121.623 Y177.101 E.10248
G1 X121.623 Y131.112 E1.44196
G1 X122.261 Y127.906 E.10248
M73 Q0 S83
G1 X123.022 Y126.069 E.06237
G1 X124.794 Y123.416 E.10004
G1 E-.9 F4800
;WIPE_START
G1 F1920
G1 X126.235 Y121.972 E-4.845
;WIPE_END
G1 E-.255 F4800
G1 X131.396 Y129.045 F2400
G1 E6 F3000
G1 F1200
G1 X139.965 Y120.476 E.37996
G1 X141.879 Y119.514 E.06718
G1 X142.747 Y119.393 E.02747
G1 X167.371 Y119.397 E.77205
G1 X168.78 Y119.741 E.04548
G1 X170.067 Y120.507 E.04696
G1 X178.55 Y128.991 E.37616
G1 X179.198 Y129.954 E.0364
G1 X179.609 Y131.062 E.03705
G1 X179.714 Y176.419 E1.42215
G1 X179.465 Y177.634 E.03889
M73 P1 R83
M73 Q1 S83
G1 X178.604 Y179.169 E.05516
G1 X170.035 Y187.737 E.37995
G1 X168.062 Y188.718 E.06909
G1 X167.254 Y188.82 E.02552
G1 X142.685 Y188.82 E.77036
G1 X141.472 Y188.571 E.03881
G1 X139.938 Y187.711 E.05515
G1 X131.45 Y179.223 E.37637
G1 X130.802 Y178.26 E.0364
G1 X130.391 Y177.152 E.03705
G1 X130.286 Y131.794 E1.42215
G1 X130.535 Y130.579 E.03889
G1 X131.359 Y129.11 E.05281
G1 X131.681 Y129.293 F2400
G1 F1200
G1 X140.21 Y120.764 E.37818
G1 X142.018 Y119.866 E.0633
G1 X142.758 Y119.77 E.02341
G1 X167.347 Y119.774 E.77097
G1 X168.662 Y120.1 E.04246
G1 X169.816 Y120.79 E.04218
G1 X178.27 Y129.244 E.37485
G1 X178.872 Y130.144 E.03395
G1 X179.244 Y131.16 E.03392
G1 X179.337 Y176.4 E1.41847
G1 X179.101 Y177.529 E.03614
G1 X178.319 Y178.92 E.05005
G1 X169.79 Y187.449 E.37818
G1 X167.982 Y188.348 E.0633
G1 X167.242 Y188.443 E.0234
G1 X142.704 Y188.443 E.76936
G1 X141.578 Y188.208 E.03608
G1 X140.186 Y187.426 E.05005
G1 X131.73 Y178.969 E.37498
G1 X131.128 Y178.069 E.03395
G1 X130.756 Y177.053 E.03392
G1 X130.663 Y131.813 E1.41847
G1 X130.899 Y130.685 E.03614
G1 X131.644 Y129.359 E.0477
G1 X131.966 Y129.542 F2400
G1 F1200
G1 X140.455 Y121.053 E.37642
G1 X142.098 Y120.235 E.05754
G1 X142.771 Y120.147 E.02127
G1 X167.325 Y120.151 E.76988
G1 X168.494 Y120.438 E.03775
G1 X169.567 Y121.074 E.03909
G1 X177.99 Y129.497 E.3735
G1 X178.545 Y130.333 E.03146
G1 X178.878 Y131.257 E.03079
G1 X178.959 Y176.381 E1.41482
G1 X178.739 Y177.422 E.03338
G1 X178.034 Y178.672 E.04498
G1 X169.545 Y187.161 E.37642
G1 X167.902 Y187.978 E.05754
G1 X167.23 Y188.066 E.02127
G1 X142.724 Y188.066 E.76834
G1 X141.685 Y187.845 E.03333
G1 X140.435 Y187.141 E.04498
G1 X132.01 Y178.716 E.37357
G1 X131.455 Y177.88 E.03146
G1 X131.122 Y176.956 E.03079
G1 X131.041 Y131.833 E1.41482
G1 X131.261 Y130.791 E.03338
G1 X131.929 Y129.607 E.04263
G1 X132.25 Y129.79 F2400
G1 F1200
G1 X140.7 Y121.341 E.37467
G1 X142.179 Y120.605 E.05179
G1 X142.783 Y120.524 E.01912
G1 X167.301 Y120.528 E.76874
G1 X168.375 Y120.797 E.03471
G1 X169.317 Y121.357 E.03434
G1 X177.71 Y129.751 E.37219
G1 X178.198 Y130.483 E.02758
G1 X178.512 Y131.354 E.02905
G1 X178.582 Y176.361 E1.41114
G1 X178.376 Y177.314 E.03058
G1 X177.75 Y178.423 E.03994
G1 X169.3 Y186.873 E.37467
G1 X167.821 Y187.608 E.05179
G1 X167.217 Y187.689 E.01912
G1 X142.745 Y187.689 E.7673
G1 X141.793 Y187.483 E.03055
G1 X140.684 Y186.856 E.03994
G1 X132.29 Y178.463 E.3722
G1 X131.802 Y177.731 E.02758
G1 X131.488 Y176.859 E.02905
G1 X131.418 Y131.853 E1.41114
G1 X131.624 Y130.899 E.03058
G1 X132.213 Y129.856 E.03759
G1 X132.535 Y130.039 F2400
G1 F1200
G1 X140.945 Y121.629 E.37291
G1 X142.26 Y120.974 E.04607
G1 X142.796 Y120.902 E.01696
G1 X167.278 Y120.905 E.76761
G1 X168.208 Y121.136 E.03004
G1 X169.067 Y121.641 E.03124
G1 X177.43 Y130.004 E.37081
G1 X177.87 Y130.671 E.02506
G1 X178.146 Y131.449 E.02591
G1 X178.205 Y176.34 E1.40752
G1 X178.014 Y177.205 E.02777
G1 X177.465 Y178.174 E.03494
G1 X169.055 Y186.584 E.37291
G1 X167.74 Y187.239 E.04607
G1 X167.204 Y187.312 E.01695
G1 X142.766 Y187.312 E.76624
G1 X141.902 Y187.121 E.02774
G1 X140.932 Y186.572 E.03494
G1 X132.57 Y178.21 E.37079
G1 X132.13 Y177.543 E.02506
G1 X131.854 Y176.764 E.02591
G1 X131.795 Y131.873 E1.40752
G1 X131.986 Y131.009 E.02777
G1 X132.498 Y130.104 E.03259
G1 X132.819 Y130.288 F2400
G1 F1200
G1 X141.19 Y121.917 E.37116
G1 X142.343 Y121.344 E.04038
G1 X142.81 Y121.279 E.01478
G1 X167.256 Y121.282 E.76649
G1 X168.043 Y121.476 E.02542
M73 P1 R82
G1 X168.818 Y121.926 E.0281
G1 X177.149 Y130.256 E.3694
G1 X177.541 Y130.857 E.02249
G1 X177.78 Y131.543 E.02277
G1 X177.828 Y176.319 E1.40393
G1 X177.653 Y177.094 E.02492
M73 P2 R82
M73 Q2 S83
G1 X177.181 Y177.926 E.02998
G1 X168.81 Y186.296 E.37116
G1 X167.657 Y186.87 E.04038
M73 Q2 S82
G1 X167.191 Y186.935 E.01477
G1 X142.787 Y186.935 E.76515
G1 X142.013 Y186.76 E.0249
G1 X141.181 Y186.287 E.02998
G1 X132.851 Y177.957 E.36937
G1 X132.459 Y177.357 E.02249
G1 X132.22 Y176.671 E.02277
G1 X132.172 Y131.895 E1.40393
G1 X132.347 Y131.119 E.02492
G1 X132.782 Y130.353 E.02763
G1 X133.104 Y130.537 F2400
G1 F1200
G1 X141.435 Y122.206 E.36941
G1 X142.426 Y121.712 E.03472
G1 X142.823 Y121.656 E.01257
G1 X167.233 Y121.659 E.76536
G1 X167.88 Y121.817 E.02087
G1 X168.57 Y122.211 E.0249
G1 X176.868 Y130.508 E.36794
G1 X177.212 Y131.041 E.01986
G1 X177.413 Y131.634 E.01964
G1 X177.451 Y176.297 E1.40039
G1 X177.292 Y176.982 E.02203
G1 X176.896 Y177.677 E.02508
G1 X168.565 Y186.008 E.36941
G1 X167.574 Y186.501 E.03472
G1 X167.177 Y186.558 E.01257
G1 X142.809 Y186.558 E.76402
G1 X142.125 Y186.399 E.02203
G1 X141.43 Y186.003 E.02508
G1 X133.132 Y177.705 E.36794
G1 X132.789 Y177.173 E.01986
G1 X132.587 Y176.58 E.01964
G1 X132.549 Y131.916 E1.40039
G1 X132.708 Y131.232 E.02203
G1 X133.067 Y130.602 E.02273
G1 X133.389 Y130.784 F2400
G1 F1200
G1 X141.68 Y122.494 E.36761
G1 X142.511 Y122.081 E.02911
G1 X142.838 Y122.033 E.01034
G1 X167.211 Y122.036 E.76422
G1 X167.719 Y122.159 E.0164
G1 X168.322 Y122.496 E.02166
G1 X176.587 Y130.761 E.36649
G1 X176.862 Y131.184 E.01581
G1 X177.046 Y131.726 E.01793
G1 X177.074 Y176.276 E1.39686
G1 X176.949 Y176.822 E.01756
G1 X176.611 Y177.429 E.02179
G1 X168.32 Y185.72 E.36761
G1 X167.489 Y186.133 E.02911
G1 X167.163 Y186.181 E.01034
G1 X142.83 Y186.181 E.76293
G1 X142.284 Y186.056 E.01755
G1 X141.678 Y185.717 E.02179
G1 X133.413 Y177.452 E.36649
G1 X133.138 Y177.029 E.01581
G1 X132.954 Y176.488 E.01793
G1 X132.926 Y131.937 E1.39686
G1 X133.051 Y131.391 E.01756
G1 X133.353 Y130.85 E.01944
G1 X133.676 Y131.031 F2400
G1 F1200
G1 X141.925 Y122.782 E.36576
G1 X142.597 Y122.449 E.02354
G1 X142.852 Y122.41 E.00809
G1 X167.189 Y122.414 E.76306
G1 X167.562 Y122.503 E.01202
G1 X168.076 Y122.783 E.01834
G1 X176.306 Y131.013 E.36494
G1 X176.531 Y131.365 E.01311
G1 X176.678 Y131.814 E.0148
G1 X176.697 Y176.256 E1.39346
G1 X176.605 Y176.666 E.01318
G1 X176.324 Y177.182 E.01842
G1 X168.075 Y185.431 E.36576
G1 X167.403 Y185.764 E.02354
G1 X167.148 Y185.804 E.00808
G1 X142.85 Y185.804 E.76182
G1 X142.44 Y185.712 E.01318
G1 X141.924 Y185.431 E.01842
G1 X133.694 Y177.201 E.36494
G1 X133.469 Y176.848 E.01311
G1 X133.322 Y176.4 E.0148
G1 X133.303 Y131.957 E1.39346
G1 X133.395 Y131.547 E.01318
G1 X133.64 Y131.097 E.01607
G1 X133.963 Y131.277 F2400
G1 F1200
G1 X142.169 Y123.071 E.36386
G1 X142.686 Y122.816 E.01806
G1 X142.868 Y122.787 E.00579
G1 X167.167 Y122.791 E.76188
G1 X167.409 Y122.848 E.00777
G1 X167.83 Y123.07 E.01494
G1 X176.025 Y131.265 E.36339
G1 X176.18 Y131.506 E.00898
G1 X176.31 Y131.903 E.0131
G1 X176.32 Y176.237 E1.39005
G1 X176.259 Y176.515 E.00892
G1 X176.037 Y176.937 E.01496
G1 X167.831 Y185.142 E.36386
G1 X167.314 Y185.397 E.01806
G1 X167.132 Y185.427 E.00579
G1 X142.87 Y185.427 E.76071
G1 X142.592 Y185.366 E.00892
G1 X142.17 Y185.143 E.01496
G1 X133.975 Y176.948 E.36339
G1 X133.82 Y176.707 E.00898
G1 X133.69 Y176.31 E.0131
G1 X133.68 Y131.977 E1.39005
G1 X133.741 Y131.699 E.00892
G1 X133.928 Y131.343 E.01261
G1 X134.252 Y131.521 F2400
G1 F1200
G1 X142.413 Y123.36 E.36187
G1 X142.777 Y123.183 E.0127
G1 X142.886 Y123.164 E.00345
G1 X167.146 Y123.168 E.76065
G1 X167.26 Y123.195 E.00369
G1 X167.586 Y123.359 E.01144
G1 X175.745 Y131.519 E.36181
G1 X175.83 Y131.648 E.00484
G1 X175.943 Y131.992 E.01136
G1 X175.943 Y176.218 E1.38666
G1 X175.911 Y176.369 E.00484
G1 X175.748 Y176.692 E.01136
G1 X167.587 Y184.853 E.36187
G1 X167.223 Y185.031 E.0127
G1 X167.114 Y185.049 E.00345
G1 X142.889 Y185.049 E.75957
G1 X142.738 Y185.018 E.00484
M73 P3 R82
M73 Q3 S82
G1 X142.414 Y184.854 E.01136
G1 X134.255 Y176.695 E.36181
G1 X134.17 Y176.566 E.00484
G1 X134.057 Y176.221 E.01136
G1 X134.057 Y131.996 E1.38666
G1 X134.089 Y131.844 E.00484
G1 X134.219 Y131.588 E.00901
G1 X134.544 Y131.763 F2400
G1 F1200
G1 X142.656 Y123.651 E.35971
G1 X142.875 Y123.547 E.00757
G1 X167.094 Y123.541 E.75937
G1 X167.344 Y123.651 E.00856
G1 X175.484 Y131.8 E.36116
G1 X175.566 Y132.027 E.00757
G1 X175.566 Y176.2 E1.38501
G1 X175.456 Y176.451 E.00856
M73 P3 R81
G1 X167.344 Y184.563 E.35971
G1 X167.094 Y184.672 E.00856
G1 X142.875 Y184.666 E.75937
G1 X142.656 Y184.563 E.00757
G1 X134.516 Y176.414 E.36116
G1 X134.434 Y176.186 E.00757
G1 X134.434 Y132.013 E1.38501
G1 X134.512 Y131.831 E.00621
M73 Q3 S81
G1 X134.84 Y132 F2400
G1 F1200
G1 X142.893 Y123.947 E.35709
G1 X142.962 Y123.918 E.00235
G1 X167.038 Y123.918 E.75485
G1 X167.107 Y123.947 E.00235
G1 X175.16 Y132 E.35709
G1 X175.189 Y132.069 E.00235
G1 X175.189 Y176.144 E1.38194
G1 X175.16 Y176.214 E.00235
G1 X167.107 Y184.267 E.35709
G1 X167.038 Y184.295 E.00235
G1 X142.963 Y184.295 E.75485
G1 X142.893 Y184.267 E.00235
G1 X134.84 Y176.214 E.35709
G1 X134.811 Y176.144 E.00235
G1 X134.811 Y132.069 E1.38194
; printing object 85度悬垂测试.STL id:0 copy 0
G1 E-.9 F4800
;WIPE_START
G1 F1920
G1 X136.25 Y130.623 E-4.845
;WIPE_END
G1 E-.255 F4800
G1 X135.964 Y167.373 F2400
G1 E6 F3000
;TYPE:Perimeter
;WIDTH:0.419999
G1 F1200
G1 X135.964 Y132.506 E1.09322
G1 X143.399 Y125.071 E.32969
G1 X166.601 Y125.071 E.72746
G1 X174.036 Y132.506 E.32969
G1 X174.036 Y175.707 E1.35454
G1 X166.601 Y183.143 E.32969
G1 X143.399 Y183.143 E.72746
G1 X135.964 Y175.707 E.32969
G1 X135.964 Y167.448 E.25897
G1 E-.9 F4800
;WIPE_START
G1 F1920
G1 X135.964 Y165.408 E-4.845
;WIPE_END
G1 E-.255 F4800
G1 X174.413 Y144.071 F2400
G1 E6 F3000
G1 F1200
G1 X174.413 Y175.864 E.99684
G1 X166.757 Y183.52 E.33948
G1 X143.243 Y183.52 E.73725
G1 X135.587 Y175.864 E.33948
G1 X135.587 Y132.35 E1.36434
G1 X143.243 Y124.694 E.33948
G1 X166.757 Y124.694 E.73725
G1 X174.413 Y132.35 E.33948
G1 X174.413 Y143.996 E.36514
G1 E-.9 F4800
;WIPE_START
G1 F1920
G1 X174.413 Y146.036 E-4.845
;WIPE_END
G1 E-.255 F4800
G1 X164.88 Y183.897 F2400
G1 E6 F3000
;TYPE:External perimeter
G1 F1200
G1 X143.087 Y183.897 E.6833
G1 X135.21 Y176.02 E.34928
G1 X135.21 Y132.194 E1.37413
G1 X143.087 Y124.317 E.34928
G1 X166.913 Y124.317 E.74705
G1 X174.79 Y132.194 E.34928
G1 X174.79 Y176.02 E1.37413
G1 X166.913 Y183.897 E.34928
M73 P4 R81
M73 Q4 S81
G1 X164.955 Y183.897 E.0614
G1 X164.54 Y183.53 F2400
G1 E-.9 F4800
;WIPE_START
G1 F1920
G1 X162.915 Y183.897 E-4.845
;WIPE_END
G1 E-.255 F4800
G1 X164.675 Y126.419 F2400
G1 E6 F3000
;TYPE:Perimeter
G1 F1200
G1 X172.688 Y134.431 E.35529
G1 X172.887 Y134.723 E.01108
G1 X172.964 Y135.098 E.01199
G1 X172.964 Y152.628 E.54965
G1 X172.95 Y152.791 E.00513
G1 X172.853 Y153.072 E.00931
G1 X172.587 Y153.382 E.01282
G1 X172.352 Y153.511 E.00839
G1 X172.021 Y153.571 E.01055
G1 X156.479 Y153.571 E.48734
G1 X156.057 Y153.471 E.01358
G1 X155.812 Y153.295 E.00947
G1 X155.635 Y153.05 E.00947
G1 X155.536 Y152.628 E.01358
G1 X155.536 Y127.761 E.77969
G1 X155.64 Y127.331 E.01387
G1 X155.82 Y127.086 E.00954
G1 X156.11 Y126.893 E.01092
G1 X156.479 Y126.818 E.01179
G1 X159.13 Y126.818 E.08314
G1 X159.245 Y126.493 E.01081
G1 X159.552 Y126.244 E.0124
G1 X159.979 Y126.143 E.01374
G1 X164.009 Y126.143 E.12637
G1 X164.383 Y126.22 E.01199
G1 X164.613 Y126.377 E.00872
G1 E-.9 F4800
;WIPE_START
G1 F1920
G1 X166.058 Y127.817 E-4.845
;WIPE_END
G1 E-.255 F4800
G1 X170.388 Y153.194 F2400
G1 E6 F3000
G1 F1200
G1 X156.479 Y153.194 E.4361
G1 X156.226 Y153.134 E.00815
G1 X156.079 Y153.028 E.00568
G1 X155.973 Y152.881 E.00568
G1 X155.913 Y152.628 E.00815
G1 X155.913 Y127.761 E.77969
G1 X155.975 Y127.503 E.00832
G1 X156.084 Y127.356 E.00572
