;FLAVOR:Marlin
;TIME:911
;Filament used: 0.811638m
;Layer height: 0.25
;MINX:143.197
;MINY:137.697
;MINZ:0.3
;MAXX:166.803
;MAXY:172.303
;MAXZ:25.05
;Generated with Cura_SteamEngine main
M140 S70
M105
M190 S70
M104 S200
M105
M109 S200
M82 ;absolute extrusion mode
G28 ;Home
G1 Z15.0 F6000 ;Move the platform down 15mm
;Prime the extruder
G92 E0
G1 F200 E3
G92 E0
G92 E0
G92 E0
G1 F2700 E-4
;LAYER_COUNT:100
;LAYER:0
M107
M204 S1000
M205 X30 Y30
G0 F1350 X144.622 Y139.104 Z0.3
G0 X143.197 Y143.109
M204 S500
M205 X10 Y10
;TYPE:SKIRT
G1 F2700 E0
G1 F900 X143.206 Y142.444 E0.044
G1 X143.255 Y141.826 E0.08502
G1 X143.382 Y141.22 E0.12598
G1 X143.587 Y140.635 E0.16699
G1 X143.865 Y140.082 E0.20794
G1 X144.212 Y139.568 E0.24897
G1 X144.622 Y139.104 E0.28994
G1 X145.088 Y138.696 E0.33092
G1 X145.603 Y138.352 E0.37189
G1 X146.158 Y138.077 E0.41287
G1 X146.744 Y137.875 E0.45388
G1 X147.351 Y137.751 E0.49487
G1 X148.008 Y137.697 E0.53848
G1 X161.362 Y137.697 E1.42199
G1 X162.06 Y137.707 E1.46818
G1 X162.677 Y137.756 E1.50913
G1 X163.284 Y137.884 E1.55017
G1 X163.868 Y138.089 E1.59112
G1 X164.422 Y138.368 E1.63216
G1 X164.935 Y138.715 E1.67313
G1 X165.399 Y139.125 E1.7141
G1 X165.806 Y139.592 E1.75508
G1 X166.15 Y140.108 E1.79611
G1 X166.425 Y140.663 E1.83709
G1 X166.626 Y141.249 E1.87808
G1 X166.749 Y141.856 E1.91906
G1 X166.803 Y142.508 E1.96234
G1 X166.803 Y166.823 E3.57104
G1 X166.794 Y167.55 E3.61914
G1 X166.746 Y168.168 E3.66015
G1 X166.619 Y168.775 E3.70118
G1 X166.416 Y169.36 E3.74215
G1 X166.138 Y169.914 E3.78316
G1 X165.792 Y170.427 E3.82409
G1 X165.382 Y170.892 E3.86511
G1 X164.916 Y171.3 E3.90609
G1 X164.402 Y171.645 E3.94704
G1 X163.847 Y171.921 E3.98805
G1 X163.261 Y172.123 E4.02906
G1 X162.654 Y172.248 E4.07006
G1 X161.994 Y172.303 E4.11388
G1 X148.645 Y172.303 E4.99706
G1 X147.947 Y172.294 E5.04324
G1 X147.329 Y172.246 E5.08425
G1 X146.723 Y172.119 E5.12522
G1 X146.138 Y171.915 E5.16621
G1 X145.584 Y171.637 E5.20722
G1 X145.071 Y171.29 E5.24819
G1 X144.606 Y170.88 E5.28921
G1 X144.198 Y170.414 E5.33019
G1 X143.853 Y169.899 E5.3712
G1 X143.578 Y169.344 E5.41218
G1 X143.376 Y168.759 E5.45312
G1 X143.252 Y168.152 E5.49411
G1 X143.197 Y167.488 E5.53819
G1 X143.197 Y143.522 E7.1238
G0 F720 X143.197 Y143.109
M204 S1000
M205 X30 Y30
G0 F1350 X143.712 Y143.116
M204 S500
M205 X10 Y10
G1 F900 X143.721 Y142.451 E7.1678
G1 X143.769 Y141.868 E7.2065
G1 X143.896 Y141.296 E7.24527
G1 X144.1 Y140.747 E7.28402
G1 X144.376 Y140.231 E7.32273
G1 X144.72 Y139.758 E7.36143
G1 X145.125 Y139.335 E7.40017
G1 X145.584 Y138.972 E7.43889
G1 X146.089 Y138.675 E7.47765
G1 X146.629 Y138.449 E7.51638
G1 X147.195 Y138.299 E7.55512
G1 X147.989 Y138.212 E7.60797
G1 X161.354 Y138.212 E8.4922
G1 X162.052 Y138.222 E8.53839
G1 X162.636 Y138.271 E8.57716
G1 X163.207 Y138.398 E8.61586
G1 X163.756 Y138.602 E8.65461
G1 X164.272 Y138.879 E8.69336
G1 X164.745 Y139.223 E8.73205
G1 X165.167 Y139.629 E8.7708
G1 X165.53 Y140.088 E8.80951
G1 X165.827 Y140.593 E8.84827
G1 X166.052 Y141.133 E8.88698
G1 X166.202 Y141.699 E8.92572
G1 X166.288 Y142.49 E8.97836
G1 X166.288 Y166.817 E10.58785
G1 X166.279 Y167.544 E10.63595
G1 X166.231 Y168.128 E10.67472
G1 X166.105 Y168.699 E10.71341
G1 X165.902 Y169.248 E10.75213
G1 X165.627 Y169.765 E10.79087
G1 X165.283 Y170.238 E10.82957
G1 X164.878 Y170.661 E10.86832
G1 X164.42 Y171.025 E10.90702
G1 X163.916 Y171.323 E10.94576
G1 X163.376 Y171.549 E10.98449
G1 X162.81 Y171.7 E11.02324
G1 X162.011 Y171.788 E11.07643
G1 X148.652 Y171.788 E11.96027
G1 X147.954 Y171.779 E12.00645
G1 X147.37 Y171.731 E12.04522
G1 X146.799 Y171.605 E12.08391
G1 X146.25 Y171.402 E12.12263
G1 X145.734 Y171.125 E12.16138
G1 X145.26 Y170.782 E12.20009
G1 X144.837 Y170.377 E12.23883
G1 X144.474 Y169.918 E12.27755
G1 X144.176 Y169.414 E12.31629
G1 X143.95 Y168.874 E12.35502
G1 X143.8 Y168.308 E12.39376
G1 X143.712 Y167.507 E12.44707
G1 X143.712 Y143.529 E14.03347
G0 F720 X143.712 Y143.116
M204 S1000
M205 X30 Y30
G0 F1350 X144.227 Y143.123
M204 S500
M205 X10 Y10
G1 F900 X144.236 Y142.458 E14.07747
G1 X144.284 Y141.911 E14.1138
G1 X144.41 Y141.377 E14.1501
G1 X144.612 Y140.866 E14.18645
G1 X144.887 Y140.391 E14.22277
G1 X145.227 Y139.96 E14.25909
G1 X145.627 Y139.583 E14.29545
G1 X146.076 Y139.268 E14.33174
G1 X146.567 Y139.022 E14.36807
G1 X147.089 Y138.85 E14.40444
G1 X147.968 Y138.728 E14.46315
G1 X161.347 Y138.727 E15.34831
G1 X162.045 Y138.737 E15.3945
G1 X162.592 Y138.785 E15.43083
G1 X163.126 Y138.912 E15.46714
G1 X163.636 Y139.115 E15.50346
G1 X164.112 Y139.389 E15.5398
G1 X164.542 Y139.73 E15.5761
G1 X164.919 Y140.13 E15.61247
G1 X165.233 Y140.58 E15.64877
G1 X165.479 Y141.071 E15.68511
G1 X165.651 Y141.592 E15.72141
G1 X165.772 Y142.469 E15.77998
G1 X165.773 Y166.811 E17.39046
G1 X165.764 Y167.538 E17.43856
G1 X165.717 Y168.085 E17.47489
G1 X165.591 Y168.619 E17.51119
G1 X165.39 Y169.13 E17.54752
G1 X165.116 Y169.606 E17.58385
G1 X164.776 Y170.037 E17.62017
G1 X164.377 Y170.414 E17.65649
G1 X163.927 Y170.729 E17.69283
G1 X163.437 Y170.976 E17.72914
G1 X162.916 Y171.149 E17.76546
G1 X162.375 Y171.244 E17.8018
G1 X161.776 Y171.272 E17.84147
G1 X148.658 Y171.273 E18.70937
G1 X147.96 Y171.264 E18.75555
G1 X147.413 Y171.217 E18.79188
G1 X146.879 Y171.091 E18.82818
G1 X146.368 Y170.889 E18.86453
G1 X145.893 Y170.615 E18.90081
G1 X145.462 Y170.274 E18.93717
G1 X145.085 Y169.875 E18.97349
G1 X144.77 Y169.426 E19.00978
G1 X144.523 Y168.935 E19.04614
G1 X144.351 Y168.414 E19.08244
G1 X144.255 Y167.873 E19.11879
G1 X144.228 Y167.26 E19.15939
G1 X144.227 Y143.536 E20.72898
G0 F720 X144.227 Y143.123
M204 S1000
M205 X30 Y30
G0 F1350 X144.742 Y143.13
M204 S500
M205 X10 Y10
G1 F900 X144.751 Y142.465 E20.77298
G1 X144.798 Y141.957 E20.80674
G1 X144.924 Y141.462 E20.84053
G1 X145.125 Y140.994 E20.87423
G1 X145.397 Y140.562 E20.908
G1 X145.733 Y140.178 E20.94176
G1 X146.124 Y139.851 E20.97548
G1 X146.562 Y139.59 E21.00922
G1 X147.036 Y139.4 E21.043
G1 X147.533 Y139.286 E21.07674
G1 X148.02 Y139.243 E21.10908
G1 X161.34 Y139.242 E21.99034
G1 X162.038 Y139.252 E22.03653
G1 X162.546 Y139.3 E22.07029
G1 X163.04 Y139.425 E22.104
G1 X163.509 Y139.627 E22.13779
G1 X163.94 Y139.899 E22.17151
G1 X164.324 Y140.236 E22.20531
G1 X164.65 Y140.628 E22.23904
G1 X164.911 Y141.066 E22.27277
G1 X165.101 Y141.539 E22.3065
G1 X165.214 Y142.037 E22.34028
G1 X165.257 Y142.519 E22.3723
G1 X165.258 Y166.804 E23.97901
G1 X165.249 Y167.531 E24.02711
G1 X165.203 Y168.039 E24.06086
G1 X165.078 Y168.534 E24.09464
G1 X164.877 Y169.003 E24.1284
G1 X164.606 Y169.435 E24.16214
G1 X164.27 Y169.819 E24.19589
G1 X163.879 Y170.146 E24.22962
G1 X163.441 Y170.409 E24.26342
G1 X162.968 Y170.599 E24.29714
G1 X162.471 Y170.714 E24.33089
G1 X161.979 Y170.757 E24.36357
G1 X148.665 Y170.758 E25.24443
G1 X147.967 Y170.749 E25.29061
G1 X147.459 Y170.702 E25.32437
G1 X146.964 Y170.577 E25.35815
G1 X146.496 Y170.376 E25.39184
G1 X146.064 Y170.105 E25.42558
G1 X145.68 Y169.769 E25.45934
G1 X145.353 Y169.377 E25.49312
G1 X145.091 Y168.939 E25.52688
G1 X144.9 Y168.466 E25.56063
G1 X144.786 Y167.969 E25.59437
G1 X144.743 Y167.476 E25.62711
G1 X144.742 Y143.543 E27.21053
G0 F720 X144.742 Y143.13
M204 S1000
M205 X30 Y30
G1 F2700 E23.21053
;MESH:z??????.stl
G0 F1350 X147.335 Y143.13
G0 X148.52 Y143.13
G0 X149.9 Y144.514
G1 F2700 E27.21053
G0 F1350 X150.014 Y144.514
M204 S500
M205 X10 Y10
;TYPE:WALL-INNER
G1 F735.7 X150.485 Y144.31 E27.25207
G1 F919.6 X150.837 Y144.236 E27.27536
G1 F977.8 X152.198 Y144.236 E27.35824
G1 F979.9 X153.559 Y144.236 E27.44094
G1 F982 X154.92 Y144.236 E27.52347
G1 X156.281 Y144.236 E27.60599
G1 F984.1 X157.642 Y144.236 E27.68834
G1 F986.2 X159.003 Y144.236 E27.77052
G1 F923.3 X159.516 Y144.31 E27.80395
G1 F735.7 X159.986 Y144.514 E27.84541
G1 X160.19 Y144.984 E27.88688
G1 F923.3 X160.264 Y145.5 E27.9205
G1 F986.2 X160.264 Y146.893 E28.00461
G1 F982 X160.264 Y148.286 E28.08908
G1 F977.8 X160.264 Y149.679 E28.1739
G1 F938.3 X160.136 Y150.106 E28.20219
G1 F901.8 X159.773 Y150.53 E28.23905
G1 F900 X159.361 Y150.736 E28.26952
G1 X159 Y150.787 E28.29364
G1 X151 Y150.787 E28.82293
G1 X150.639 Y150.736 E28.84705
G1 X150.227 Y150.53 E28.87753
G1 F901.8 X149.864 Y150.106 E28.91438
G1 F938.3 X149.736 Y149.68 E28.94261
G1 F977.8 X149.736 Y148.287 E29.02744
G1 F982 X149.736 Y146.894 E29.1119
G1 F986.2 X149.736 Y145.501 E29.19601
G1 F923.3 X149.81 Y144.984 E29.22969
G1 F735.7 X150.014 Y144.514 E29.27116
M204 S1000
M205 X30 Y30
G0 F1350 X149.9 Y144.514
G0 X149.286 Y150.25
M204 S500
M205 X10 Y10
G1 F901.8 X149.286 Y158.232 E29.79823
G1 X149.287 Y166.214 E30.3253
G1 F900 X160.713 Y166.213 E31.08125
G1 F901.8 X160.713 Y158.231 E31.60832
G1 X160.714 Y150.249 E32.13539
G1 F942.1 X160.736 Y149.5 E32.18275
G1 F986.2 X160.736 Y145.5 E32.42427
G1 F923.3 X160.704 Y144.878 E32.46443
G1 F735.7 X160.607 Y144.257 E32.5153
G1 F637.6 X160.607 Y143.893 E32.5493
G1 X160.243 Y143.893 E32.5833
G1 F735.7 X159.622 Y143.796 E32.63416
G1 F923.3 X159 Y143.764 E32.67433
G1 F977.8 X158.474 Y143.764 E32.70636
G1 F961.6 X157.948 Y143.764 E32.73893
G1 F945.9 X157.422 Y143.764 E32.77204
G1 F930.7 X156.896 Y143.764 E32.80569
G1 F916 X156.37 Y143.764 E32.83989
G1 F900 X155.844 Y143.764 E32.87469
G1 F886.2 X155.318 Y143.764 E32.91003
G1 F872.9 X154.792 Y143.764 E32.94591
G1 F859.9 X154.266 Y143.764 E32.98233
G1 F847.3 X153.74 Y143.764 E33.0193
G1 F835.1 X153.214 Y143.764 E33.0568
G1 F821.8 X152.688 Y143.764 E33.09491
G1 F810.3 X152.162 Y143.764 E33.13356
G1 F799.1 X151.636 Y143.764 E33.17276
G1 F788.3 X151.11 Y143.764 E33.21249
G1 F777.7 X150.584 Y143.764 E33.25276
G1 F698 X149.757 Y143.893 E33.32416
G1 F637.6 X149.393 Y143.893 E33.35816
G1 X149.393 Y144.257 E33.39215
G1 F735.7 X149.296 Y144.878 E33.44302
G1 F923.3 X149.264 Y145.5 E33.48319
G1 F986.2 X149.264 Y149.5 E33.72471
G1 F942.1 X149.286 Y150.25 E33.77213
M204 S1000
M205 X30 Y30
G0 F1350 X149.9 Y145.192
G0 X150.291 Y145.192
M204 S500
M205 X10 Y10
G1 F900 X150.453 Y144.953 E33.79123
G1 X150.693 Y144.791 E33.81039
G1 X150.903 Y144.728 E33.8249
G1 X159 Y144.728 E34.3606
G1 X159.308 Y144.791 E34.3814
G1 X159.547 Y144.953 E34.4005
G1 X159.709 Y145.192 E34.4196
G1 X159.772 Y145.5 E34.4404
G1 X159.772 Y149.602 E34.7118
G1 F901.8 X159.682 Y149.864 E34.73009
G1 X159.464 Y150.118 E34.75219
G1 F900 X159.217 Y150.242 E34.77048
G1 X159 Y150.272 E34.78497
G1 X151 Y150.272 E35.31425
G1 X150.783 Y150.242 E35.32875
G1 X150.536 Y150.118 E35.34703
G1 F901.8 X150.318 Y149.864 E35.36914
G1 X150.228 Y149.602 E35.38743
G1 F900 X150.228 Y145.5 E35.65882
G1 X150.287 Y145.214 E35.67814
G0 F720 X150.291 Y145.192
M204 S1000
M205 X30 Y30
G0 F1350 X149.9 Y145.192
G0 X149.07 Y143.57
G0 X148.772 Y143.272
M204 S500
M205 X10 Y10
G1 F900 X148.772 Y166.728 E37.23
G1 X161.228 Y166.728 E38.0541
G1 X161.228 Y144.257 E39.5408
G1 X161.228 Y143.272 E39.60596
G1 X149.185 Y143.272 E40.40274
G0 F720 X148.772 Y143.272
M204 S1000
M205 X30 Y30
G0 F1350 X148.257 Y142.757
M204 S500
M205 X10 Y10
;TYPE:WALL-OUTER
G1 F900 X148.257 Y167.243 E42.02275
G1 X161.743 Y167.243 E42.91499
G1 X161.743 Y144.257 E44.43576
G1 X161.743 Y142.757 E44.535
G1 X148.67 Y142.757 E45.39992
G0 F720 X148.257 Y142.757
M204 S1000
M205 X30 Y30
G0 F1350 X148.257 Y143.007
G1 F2700 E41.39992
G0 F1350 X149.07 Y143.57
G0 X149.9 Y145.318
G1 F2700 E45.39992
G0 F1350 X150.818 Y145.318
M204 S500
M205 X10 Y10
G1 F900 X150.955 Y145.246 E45.41016
G1 X159.082 Y145.243 E45.94784
G1 X159.257 Y145.418 E45.96422
G1 X159.254 Y149.545 E46.23726
G1 X159.155 Y149.706 E46.24977
G1 X159.073 Y149.747 E46.25583
G1 X159 Y149.757 E46.26071
G1 X150.947 Y149.757 E46.7935
G1 X150.845 Y149.706 E46.80104
G1 X150.746 Y149.545 E46.81355
G1 X150.743 Y145.717 E47.06681
G0 F720 X150.743 Y145.5
G0 X150.818 Y145.318
M204 S1000
M205 X30 Y30
G0 F1350 X150.955 Y145.246
G0 X151.051 Y145.246
G0 X151.051 Y144.4
G0 X149.972 Y144.472
G0 X149.593 Y150.245
M204 S500
M205 X10 Y10
;TYPE:SKIN
G1 F727.1 X149.594 Y150.25 E47.06709
G1 X149.593 Y150.245 E47.06737
M204 S1000
M205 X30 Y30
G0 F1350 X149.972 Y150.948
M204 S500
M205 X10 Y10
G1 F900 X149.775 Y150.747 E47.08599
G1 X149.776 Y165.724 E48.07688
G1 X160.224 Y165.724 E48.76812
G1 X160.224 Y150.748 E49.75895
G1 X160.028 Y150.948 E49.77747
G1 X159.541 Y151.19 E49.81345
G1 X158.996 Y151.277 E49.84997
G1 X150.968 Y151.274 E50.3811
G1 X150.459 Y151.19 E50.41523
G1 X150.342 Y151.132 E50.42387
G0 F720 X149.972 Y150.948
M204 S1000
M205 X30 Y30
G0 F1350 X159.482 Y151.471
M204 S500
M205 X10 Y10
G1 F900 X159.966 Y151.955 E50.46916
M204 S1000
M205 X30 Y30
G0 F1350 X159.966 Y152.683
M204 S500
M205 X10 Y10
G1 F900 X158.816 Y151.533 E50.57676
M204 S1000
M205 X30 Y30
G0 F1350 X158.088 Y151.533
M204 S500
M205 X10 Y10
G1 F900 X159.966 Y153.411 E50.75248
M204 S1000
M205 X30 Y30
G0 F1350 X159.966 Y154.14
M204 S500
M205 X10 Y10
G1 F900 X157.359 Y151.532 E50.99645
M204 S1000
M205 X30 Y30
G0 F1350 X156.63 Y151.532
M204 S500
M205 X10 Y10
G1 F900 X159.966 Y154.868 E51.30858
M204 S1000
M205 X30 Y30
G0 F1350 X159.966 Y155.596
M204 S500
M205 X10 Y10
G1 F900 X155.901 Y151.531 E51.68892
M204 S1000
M205 X30 Y30
G0 F1350 X155.173 Y151.531
M204 S500
M205 X10 Y10
G1 F900 X159.966 Y156.325 E52.13743
M204 S1000
M205 X30 Y30
G0 F1350 X159.966 Y157.053
M204 S500
M205 X10 Y10
G1 F900 X154.444 Y151.53 E52.65414
M204 S1000
M205 X30 Y30
G0 F1350 X153.715 Y151.53
M204 S500
M205 X10 Y10
G1 F900 X159.966 Y157.781 E53.23902
M204 S1000
M205 X30 Y30
G0 F1350 X159.966 Y158.51
M204 S500
M205 X10 Y10
G1 F900 X152.986 Y151.53 E53.89211
M204 S1000
M205 X30 Y30
G0 F1350 X152.257 Y151.529
M204 S500
M205 X10 Y10
G1 F900 X159.966 Y159.238 E54.6134
M204 S1000
M205 X30 Y30
G0 F1350 X159.966 Y159.966
M204 S500
M205 X10 Y10
G1 F900 X151.528 Y151.528 E55.4029
M204 S1000
M205 X30 Y30
G0 F1350 X150.778 Y151.506
M204 S500
M205 X10 Y10
G1 F900 X159.966 Y160.694 E56.26258
M204 S1000
M205 X30 Y30
G0 F1350 X159.966 Y161.423
M204 S500
M205 X10 Y10
G1 F900 X150.032 Y151.489 E57.19206
M204 S1000
M205 X30 Y30
G0 F1350 X150.032 Y152.217
M204 S500
M205 X10 Y10
G1 F900 X159.966 Y162.151 E58.12154
M204 S1000
M205 X30 Y30
G0 F1350 X159.966 Y162.879
M204 S500
M205 X10 Y10
G1 F900 X150.032 Y152.945 E59.05101
M204 S1000
M205 X30 Y30
G0 F1350 X150.032 Y153.674
M204 S500
M205 X10 Y10
G1 F900 X159.966 Y163.608 E59.98049
M204 S1000
M205 X30 Y30
G0 F1350 X159.966 Y164.336
M204 S500
M205 X10 Y10
G1 F900 X150.032 Y154.402 E60.90997
M204 S1000
M205 X30 Y30
G0 F1350 X150.032 Y155.13
M204 S500
M205 X10 Y10
G1 F900 X159.966 Y165.064 E61.83945
M204 S1000
M205 X30 Y30
G0 F1350 X159.639 Y165.466
M204 S500
M205 X10 Y10
G1 F900 X150.032 Y155.859 E62.73833
M204 S1000
M205 X30 Y30
G0 F1350 X150.032 Y156.587
M204 S500
M205 X10 Y10
G1 F900 X158.911 Y165.466 E63.56909
M204 S1000
M205 X30 Y30
G0 F1350 X158.183 Y165.466
M204 S500
M205 X10 Y10
G1 F900 X150.032 Y157.315 E64.33175
M204 S1000
M205 X30 Y30
G0 F1350 X150.032 Y158.044
M204 S500
M205 X10 Y10
G1 F900 X157.455 Y165.466 E65.02623
M204 S1000
M205 X30 Y30
G0 F1350 X156.726 Y165.466
M204 S500
M205 X10 Y10
G1 F900 X150.032 Y158.772 E65.65256
M204 S1000
M205 X30 Y30
G0 F1350 X150.032 Y159.5
M204 S500
M205 X10 Y10
G1 F900 X155.998 Y165.466 E66.21077
M204 S1000
M205 X30 Y30
G0 F1350 X155.27 Y165.466
M204 S500
M205 X10 Y10
G1 F900 X150.032 Y160.228 E66.70086
M204 S1000
M205 X30 Y30
G0 F1350 X150.032 Y160.957
M204 S500
M205 X10 Y10
G1 F900 X154.541 Y165.466 E67.12275
M204 S1000
M205 X30 Y30
G0 F1350 X153.813 Y165.466
M204 S500
M205 X10 Y10
G1 F900 X150.032 Y161.685 E67.47652
M204 S1000
M205 X30 Y30
G0 F1350 X150.032 Y162.413
M204 S500
M205 X10 Y10
G1 F900 X153.085 Y165.466 E67.76218
M204 S1000
M205 X30 Y30
G0 F1350 X152.356 Y165.466
M204 S500
M205 X10 Y10
G1 F900 X150.032 Y163.142 E67.97962
M204 S1000
M205 X30 Y30
G0 F1350 X150.032 Y163.87
M204 S500
M205 X10 Y10
G1 F900 X151.628 Y165.466 E68.12895
M204 S1000
M205 X30 Y30
G0 F1350 X150.9 Y165.466
M204 S500
M205 X10 Y10
G1 F900 X150.032 Y164.598 E68.21017
M204 S1000
M205 X30 Y30
G0 F1350 X150.032 Y165.327
M204 S500
M205 X10 Y10
G1 F900 X150.171 Y165.466 E68.22317
M204 S1000
M205 X30 Y30
;MESH:NONMESH
G0 F600 X150.171 Y165.466 Z0.55
