;FLAVOR:Marlin
;TIME:4176
;Filament used: 3.98333m
;Layer height: 0.25
;MINX:120.197
;MINY:120.138
;MINZ:0.3
;MAXX:189.803
;MAXY:189.799
;MAXZ:30.55
;Generated with Cura_SteamEngine main
M140 S70
M105
M190 S70
M104 S190
M105
M109 S190
M82 ;absolute extrusion mode
G28 ;Home
G1 Z15.0 F6000 ;Move the platform down 15mm
;Prime the extruder
G92 E0
G1 F200 E3
G92 E0
G92 E0
G92 E0
G1 F2700 E-4
;LAYER_COUNT:122
;LAYER:0
M107
M204 S1000
M205 X30 Y30
G0 F1350 X121.628 Y121.54 Z0.3
G0 X120.198 Y125.543
M204 S500
M205 X10 Y10
;TYPE:SKIRT
G1 F2700 E0
G1 F900 X120.208 Y124.878 E0.044
G1 X120.257 Y124.26 E0.08502
G1 X120.385 Y123.654 E0.126
G1 X120.59 Y123.07 E0.16694
G1 X120.869 Y122.516 E0.20798
G1 X121.217 Y122.004 E0.24894
G1 X121.628 Y121.54 E0.28995
G1 X122.095 Y121.133 E0.33094
G1 X122.611 Y120.789 E0.37197
G1 X123.166 Y120.515 E0.41292
G1 X123.752 Y120.315 E0.45388
G1 X124.359 Y120.191 E0.49487
G1 X125.01 Y120.138 E0.53808
G1 X184.362 Y120.138 E4.46485
G1 X185.06 Y120.148 E4.51103
G1 X185.677 Y120.197 E4.55198
G1 X186.284 Y120.325 E4.59303
G1 X186.868 Y120.53 E4.63398
G1 X187.422 Y120.809 E4.67502
G1 X187.935 Y121.156 E4.71599
G1 X188.399 Y121.566 E4.75696
G1 X188.806 Y122.033 E4.79794
G1 X189.15 Y122.549 E4.83897
G1 X189.425 Y123.104 E4.87995
G1 X189.626 Y123.69 E4.92094
G1 X189.749 Y124.297 E4.96191
G1 X189.803 Y124.949 E5.0052
G1 X189.803 Y164.337 E7.61113
G1 X189.786 Y165.476 E7.6865
G1 X189.727 Y167.592 E7.82655
G1 X189.727 Y170.297 E8.00551
G1 X189.803 Y173.308 E8.20479
G1 X189.802 Y183.478 E8.87764
G1 X189.792 Y184.162 E8.9229
G1 X189.743 Y184.78 E8.96391
G1 X189.597 Y185.469 E9.01051
G1 X189.409 Y186.059 E9.05148
G1 X189.07 Y186.784 E9.10443
G1 X188.641 Y187.455 E9.15712
G1 X188.244 Y187.93 E9.19808
G1 X187.62 Y188.497 E9.25386
G1 X187.125 Y188.87 E9.29487
G1 X186.586 Y189.175 E9.33584
G1 X185.88 Y189.468 E9.38641
G1 X185.099 Y189.687 E9.44008
G1 X184.18 Y189.789 E9.50125
G1 X183.477 Y189.799 E9.54777
G1 X126.536 Y189.799 E13.31502
G1 X125.876 Y189.79 E13.35869
G1 X125.258 Y189.741 E13.39971
G1 X124.65 Y189.62 E13.44072
G1 X124.055 Y189.447 E13.48172
G1 X123.435 Y189.184 E13.52628
G1 X122.779 Y188.81 E13.57624
G1 X122.285 Y188.437 E13.61719
G1 X121.623 Y187.774 E13.67918
G1 X121.101 Y187.079 E13.73668
G1 X120.796 Y186.54 E13.77766
G1 X120.489 Y185.779 E13.83195
G1 X120.292 Y185.008 E13.8846
G1 X120.211 Y184.198 E13.93845
G1 X120.197 Y183.289 E13.9986
G1 X120.197 Y173.635 E14.63732
G1 X120.214 Y172.515 E14.71143
G1 X120.273 Y170.4 E14.85141
G1 X120.273 Y167.696 E15.03031
G1 X120.197 Y164.684 E15.22965
G1 X120.198 Y125.956 E17.79192
G0 F720 X120.198 Y125.543
M204 S1000
M205 X30 Y30
G0 F1350 X120.712 Y125.551
M204 S500
M205 X10 Y10
G1 F900 X120.722 Y124.886 E17.83592
G1 X120.771 Y124.302 E17.87469
G1 X120.899 Y123.731 E17.91341
G1 X121.103 Y123.182 E17.95216
G1 X121.38 Y122.667 E17.99084
G1 X121.725 Y122.194 E18.02958
G1 X122.131 Y121.772 E18.06832
G1 X122.591 Y121.41 E18.10705
G1 X123.095 Y121.113 E18.14575
G1 X123.636 Y120.888 E18.18452
G1 X124.202 Y120.739 E18.22324
G1 X124.99 Y120.653 E18.27569
G1 X184.354 Y120.653 E22.20325
G1 X185.052 Y120.663 E22.24943
G1 X185.636 Y120.712 E22.2882
G1 X186.207 Y120.839 E22.32691
G1 X186.756 Y121.043 E22.36565
G1 X187.272 Y121.32 E22.4044
G1 X187.745 Y121.664 E22.4431
G1 X188.167 Y122.07 E22.48184
G1 X188.53 Y122.529 E22.52056
G1 X188.827 Y123.034 E22.55932
G1 X189.052 Y123.574 E22.59802
G1 X189.202 Y124.14 E22.63676
G1 X189.288 Y124.931 E22.6894
G1 X189.288 Y164.33 E25.29607
G1 X189.273 Y165.402 E25.367
G1 X189.212 Y167.578 E25.51102
G1 X189.212 Y170.308 E25.69164
G1 X189.288 Y173.308 E25.89018
G1 X189.288 Y183.471 E26.56257
G1 X189.278 Y184.155 E26.60783
G1 X189.229 Y184.738 E26.64654
G1 X189.097 Y185.344 E26.68757
G1 X188.917 Y185.902 E26.72636
G1 X188.613 Y186.544 E26.77336
G1 X188.207 Y187.176 E26.82306
G1 X187.826 Y187.621 E26.86182
G1 X187.284 Y188.106 E26.90994
G1 X186.815 Y188.457 E26.94869
G1 X186.303 Y188.74 E26.9874
G1 X185.526 Y189.034 E27.04236
G1 X184.961 Y189.189 E27.08112
G1 X184.173 Y189.274 E27.13356
G1 X183.47 Y189.284 E27.18008
G1 X126.543 Y189.284 E30.9464
G1 X125.883 Y189.275 E30.99007
G1 X125.299 Y189.227 E31.02884
G1 X124.762 Y189.117 E31.06511
G1 X124.201 Y188.952 E31.1038
G1 X123.543 Y188.654 E31.15159
G1 X123.035 Y188.362 E31.19035
G1 X122.572 Y188.004 E31.22907
G1 X122.003 Y187.425 E31.28278
G1 X121.514 Y186.77 E31.33686
G1 X121.231 Y186.257 E31.37562
G1 X120.974 Y185.603 E31.42211
G1 X120.793 Y184.881 E31.47136
G1 X120.726 Y184.19 E31.51729
G1 X120.712 Y183.289 E31.57691
G1 X120.712 Y173.642 E32.21516
G1 X120.727 Y172.588 E32.2849
G1 X120.788 Y170.414 E32.42879
G1 X120.788 Y167.685 E32.60934
G1 X120.712 Y164.684 E32.80796
G1 X120.712 Y125.964 E35.3697
G0 F720 X120.712 Y125.551
M204 S1000
M205 X30 Y30
G0 F1350 X121.227 Y125.558
M204 S500
M205 X10 Y10
G1 F900 X121.237 Y124.893 E35.4137
G1 X121.286 Y124.346 E35.45003
G1 X121.413 Y123.812 E35.48635
G1 X121.616 Y123.302 E35.52266
G1 X121.891 Y122.827 E35.55898
G1 X122.232 Y122.397 E35.59529
G1 X122.632 Y122.021 E35.63161
G1 X123.082 Y121.707 E35.66791
G1 X123.573 Y121.461 E35.70424
G1 X124.095 Y121.29 E35.74059
G1 X124.969 Y121.169 E35.79896
G1 X184.347 Y121.168 E39.72745
G1 X185.045 Y121.178 E39.77363
G1 X185.592 Y121.226 E39.80996
G1 X186.126 Y121.353 E39.84628
G1 X186.636 Y121.556 E39.88259
G1 X187.112 Y121.83 E39.91893
G1 X187.542 Y122.171 E39.95524
G1 X187.919 Y122.571 E39.99161
G1 X188.233 Y123.021 E40.02791
G1 X188.479 Y123.512 E40.06425
G1 X188.651 Y124.033 E40.10054
G1 X188.772 Y124.91 E40.15912
G1 X188.773 Y164.323 E42.76671
G1 X188.757 Y165.447 E42.84108
G1 X188.697 Y167.599 E42.98351
G1 X188.697 Y170.32 E43.16353
G1 X188.773 Y173.308 E43.36129
G1 X188.773 Y183.463 E44.03315
G1 X188.763 Y184.147 E44.07841
G1 X188.715 Y184.694 E44.11474
G1 X188.597 Y185.22 E44.1504
G1 X188.426 Y185.742 E44.18674
G1 X188.072 Y186.436 E44.23829
G1 X187.773 Y186.896 E44.27458
G1 X187.123 Y187.588 E44.3374
G1 X186.507 Y188.042 E44.38803
G1 X186.023 Y188.301 E44.42434
G1 X185.356 Y188.548 E44.4714
G1 X184.826 Y188.691 E44.50772
G1 X184.166 Y188.759 E44.55162
G1 X183.463 Y188.769 E44.59813
G1 X126.55 Y188.769 E48.36353
G1 X125.89 Y188.76 E48.4072
G1 X125.016 Y188.658 E48.46542
G1 X124.348 Y188.457 E48.51157
G1 X123.769 Y188.191 E48.55373
G1 X123.294 Y187.915 E48.59008
G1 X122.864 Y187.573 E48.62643
G1 X122.255 Y186.903 E48.68633
G1 X121.929 Y186.462 E48.72261
G1 X121.67 Y185.978 E48.75893
G1 X121.425 Y185.289 E48.80731
G1 X121.294 Y184.756 E48.84363
G1 X121.24 Y184.182 E48.88177
G1 X121.227 Y183.348 E48.93695
G1 X121.227 Y173.649 E49.57865
G1 X121.243 Y172.544 E49.65176
G1 X121.303 Y170.393 E49.79413
G1 X121.303 Y167.673 E49.97409
G1 X121.227 Y164.684 E50.1719
G1 X121.227 Y125.971 E52.73318
G0 F720 X121.227 Y125.558
M204 S1000
M205 X30 Y30
G0 F1350 X121.742 Y125.566
M204 S500
M205 X10 Y10
G1 F900 X121.752 Y124.901 E52.77718
G1 X121.8 Y124.393 E52.81094
G1 X121.926 Y123.899 E52.84467
G1 X122.128 Y123.43 E52.87846
G1 X122.401 Y122.999 E52.91221
G1 X122.737 Y122.616 E52.94592
G1 X123.129 Y122.29 E52.97965
G1 X123.568 Y122.029 E53.01344
G1 X124.041 Y121.839 E53.04716
G1 X124.539 Y121.726 E53.08095
G1 X125.021 Y121.684 E53.11296
G1 X184.34 Y121.683 E57.03754
G1 X185.038 Y121.693 E57.08373
G1 X185.546 Y121.741 E57.11749
G1 X186.04 Y121.866 E57.1512
G1 X186.509 Y122.068 E57.18499
G1 X186.94 Y122.34 E57.21871
G1 X187.324 Y122.677 E57.25251
G1 X187.65 Y123.069 E57.28624
G1 X187.911 Y123.507 E57.31997
G1 X188.101 Y123.98 E57.3537
G1 X188.214 Y124.478 E57.38748
G1 X188.257 Y124.96 E57.4195
G1 X188.258 Y164.316 E60.02332
G1 X188.242 Y165.433 E60.09723
G1 X188.182 Y167.585 E60.23966
G1 X188.182 Y170.331 E60.42134
G1 X188.257 Y173.213 E60.61208
G1 X188.258 Y183.456 E61.28976
G1 X188.248 Y184.14 E61.33502
G1 X188.14 Y184.97 E61.39039
G1 X187.936 Y185.58 E61.43295
G1 X187.621 Y186.187 E61.47819
G1 X187.341 Y186.613 E61.51192
G1 X186.779 Y187.204 E61.56588
G1 X186.201 Y187.626 E61.61323
G1 X185.413 Y188.002 E61.67099
G1 X184.693 Y188.192 E61.72026
G1 X184.158 Y188.244 E61.75582
G1 X183.455 Y188.254 E61.80234
G1 X126.557 Y188.254 E65.56675
G1 X125.897 Y188.245 E65.61042
G1 X125.098 Y188.151 E65.66364
G1 X124.151 Y187.821 E65.72999
G1 X123.554 Y187.469 E65.77584
G1 X123.16 Y187.145 E65.80959
G1 X122.646 Y186.568 E65.86072
G1 X122.345 Y186.156 E65.89448
G1 X122.112 Y185.702 E65.92824
G1 X121.915 Y185.13 E65.96826
G1 X121.76 Y184.489 E66.01189
G1 X121.742 Y183.34 E66.08792
G1 X121.742 Y173.657 E66.72856
G1 X121.758 Y172.558 E66.80127
G1 X121.818 Y170.407 E66.94364
G1 X121.818 Y167.662 E67.12525
G1 X121.743 Y164.779 E67.31606
G1 X121.742 Y125.979 E69.88309
G0 F720 X121.742 Y125.566
M204 S1000
M205 X30 Y30
G1 F2700 E65.88309
;MESH:????????????.STL
G0 F1350 X124.335 Y125.566
G0 X125.52 Y125.566
G0 X127.433 Y164.624
M204 S500
M205 X10 Y10
;TYPE:WALL-INNER
G1 F2700 E69.88309
G1 F900 X127.487 Y164.947 E69.90476
G1 X127.485 Y173.081 E70.44291
G1 X127.398 Y173.469 E70.46922
G1 X127.29 Y173.681 E70.48496
G1 X127.058 Y173.956 E70.50876
G1 X126.775 Y174.148 E70.53139
G1 X126.287 Y174.263 E70.56456
G1 X126.287 Y183.709 E71.18951
G1 X183.713 Y183.709 E74.98885
G1 X183.713 Y174.263 E75.61381
G1 X183.225 Y174.148 E75.64698
G1 X182.942 Y173.956 E75.6696
G1 X182.649 Y173.574 E75.70145
G1 X182.566 Y173.366 E75.71627
G1 X182.515 Y173.081 E75.73543
G1 X182.513 Y164.947 E76.27358
G1 X182.567 Y164.624 E76.29524
G1 X182.65 Y164.416 E76.31006
G1 X182.927 Y164.05 E76.34043
G1 X183.209 Y163.852 E76.36322
G1 X183.713 Y163.73 E76.39753
G1 X183.713 Y126.228 E78.87869
G1 X126.287 Y126.228 E82.67803
G1 X126.287 Y163.73 E85.15919
G1 X126.791 Y163.852 E85.19349
G1 X127.073 Y164.05 E85.21629
G1 X127.236 Y164.265 E85.23414
G0 F720 X127.35 Y164.416
G0 X127.433 Y164.624
M204 S1000
M205 X30 Y30
G0 F1350 X182.7 Y164.69
G0 X183.09 Y164.69
M204 S500
M205 X10 Y10
G1 F900 X183.276 Y164.428 E85.2554
G1 X183.445 Y164.31 E85.26904
G1 X183.8 Y164.224 E85.2932
G1 X184.228 Y164.224 E85.32152
G1 X184.228 Y125.713 E87.86943
G1 X125.772 Y125.713 E91.73692
G1 X125.772 Y164.224 E94.28483
G1 X126.2 Y164.224 E94.31315
G1 X126.555 Y164.31 E94.33732
G1 X126.724 Y164.428 E94.35095
G1 X126.91 Y164.69 E94.37221
G1 X126.972 Y164.898 E94.38657
G1 X126.971 Y173.047 E94.92571
G1 X126.919 Y173.28 E94.94151
G1 X126.715 Y173.572 E94.96507
G1 X126.545 Y173.687 E94.97865
G1 X126.2 Y173.768 E95.0021
G1 X125.772 Y173.768 E95.03042
G1 X125.772 Y183.996 E95.70711
G1 X125.897 Y184.185 E95.7221
G1 X125.989 Y184.224 E95.72871
G1 X183.987 Y184.224 E99.5659
G1 X184.164 Y184.135 E99.579
G1 X184.228 Y184.011 E99.58823
G1 X184.228 Y174.196 E100.2376
G1 X184.228 Y173.768 E100.26592
G1 X183.8 Y173.768 E100.29423
G1 X183.455 Y173.687 E100.31768
G1 X183.285 Y173.572 E100.33126
G1 X183.081 Y173.28 E100.35483
G1 X183.029 Y173.047 E100.37062
G1 X183.028 Y165.097 E100.8966
G0 F720 X183.028 Y164.966
G0 X183.09 Y164.69
M204 S1000
M205 X30 Y30
G1 F2700 E96.8966
G0 F1350 X182.7 Y164.69
G0 X126.296 Y163.896
G1 F2700 E100.8966
G0 F1350 X126.296 Y164.739
M204 S500
M205 X10 Y10
;TYPE:WALL-OUTER
G1 F900 X126.457 Y164.944 E100.91384
G1 X126.457 Y173.067 E101.45127
G1 X126.372 Y173.188 E101.46105
G1 X126.2 Y173.253 E101.47322
G1 X125.257 Y173.253 E101.53561
G1 X125.257 Y184.077 E102.25173
G1 X125.336 Y184.321 E102.2687
G1 X125.572 Y184.598 E102.29277
G1 X125.928 Y184.739 E102.31811
G1 X184.075 Y184.739 E106.16515
G1 X184.37 Y184.634 E106.18587
G1 X184.563 Y184.472 E106.20254
G1 X184.701 Y184.236 E106.22062
G1 X184.743 Y184.078 E106.23144
G1 X184.743 Y174.196 E106.88524
G1 X184.743 Y173.253 E106.94763
G1 X183.8 Y173.253 E107.01002
G1 X183.628 Y173.188 E107.02218
G1 X183.543 Y173.067 E107.03197
G1 X183.546 Y164.951 E107.56893
G1 X183.596 Y164.838 E107.5771
G1 X183.716 Y164.739 E107.58739
G1 X184.743 Y164.739 E107.65534
G1 X184.743 Y125.198 E110.2714
G1 X125.257 Y125.198 E114.20703
G1 X125.257 Y164.739 E116.82309
G1 X125.883 Y164.739 E116.86451
G0 F720 X126.296 Y164.739
M204 S1000
M205 X30 Y30
G0 F1350 X126.45 Y164.936
G0 X127.3 Y164.936
G0 X127.885 Y164.422
M204 S500
M205 X10 Y10
;TYPE:SKIN
G1 F900 X127.975 Y164.917 E116.89779
G1 X127.973 Y173.118 E117.44038
G1 X127.903 Y173.503 E117.46627
G1 X127.789 Y173.794 E117.48694
G1 X127.576 Y174.122 E117.51282
G1 X127.402 Y174.305 E117.52952
G1 X127.023 Y174.568 E117.56005
G1 X126.777 Y174.645 E117.5771
G1 X126.777 Y183.219 E118.14436
G1 X183.224 Y183.22 E121.87893
G1 X183.224 Y174.81 E122.43534
G1 X183.224 Y174.644 E122.44632
G1 X182.977 Y174.568 E122.46342
G1 X182.598 Y174.305 E122.49394
G1 X182.424 Y174.122 E122.51065
G1 X182.211 Y173.794 E122.53652
G1 X182.095 Y173.5 E122.55744
G1 X182.027 Y173.121 E122.58291
G1 X182.025 Y164.916 E123.12576
G1 X182.154 Y164.329 E123.16552
G1 X182.409 Y163.89 E123.19911
G1 X182.621 Y163.669 E123.21937
G1 X182.953 Y163.436 E123.24621
G1 X183.224 Y163.352 E123.26498
G1 X183.224 Y126.717 E125.68877
G1 X126.776 Y126.717 E129.42341
G1 X126.777 Y163.352 E131.8472
G1 X127.047 Y163.436 E131.86591
G1 X127.43 Y163.716 E131.8973
G1 X127.703 Y164.052 E131.92594
G0 F720 X127.718 Y164.071
G0 X127.885 Y164.422
M204 S1000
M205 X30 Y30
G0 F1350 X127.609 Y182.961
M204 S500
M205 X10 Y10
G1 F900 X127.033 Y182.386 E131.97979
M204 S1000
M205 X30 Y30
G0 F1350 X127.033 Y181.657
M204 S500
M205 X10 Y10
G1 F900 X128.337 Y182.961 E132.1018
M204 S1000
M205 X30 Y30
G0 F1350 X129.066 Y182.961
M204 S500
M205 X10 Y10
G1 F900 X127.033 Y180.929 E132.29197
M204 S1000
M205 X30 Y30
G0 F1350 X127.033 Y180.201
M204 S500
M205 X10 Y10
G1 F900 X129.794 Y182.961 E132.55026
M204 S1000
M205 X30 Y30
G0 F1350 X130.522 Y182.961
M204 S500
M205 X10 Y10
G1 F900 X127.033 Y179.472 E132.87671
M204 S1000
M205 X30 Y30
G0 F1350 X127.033 Y178.744
M204 S500
M205 X10 Y10
G1 F900 X131.251 Y182.961 E133.27132
M204 S1000
M205 X30 Y30
G0 F1350 X131.979 Y182.961
M204 S500
M205 X10 Y10
G1 F900 X127.033 Y178.016 E133.73405
M204 S1000
M205 X30 Y30
G0 F1350 X127.033 Y177.287
M204 S500
M205 X10 Y10
G1 F900 X132.707 Y182.961 E134.26494
M204 S1000
M205 X30 Y30
G0 F1350 X133.435 Y182.961
M204 S500
M205 X10 Y10
G1 F900 X127.033 Y176.559 E134.86394
M204 S1000
M205 X30 Y30
G0 F1350 X127.033 Y175.831
M204 S500
M205 X10 Y10
G1 F900 X134.164 Y182.961 E135.53111
M204 S1000
M205 X30 Y30
G0 F1350 X134.892 Y182.961
M204 S500
M205 X10 Y10
G1 F900 X127.033 Y175.102 E136.26644
M204 S1000
M205 X30 Y30
G0 F1350 X127.326 Y174.667
M204 S500
M205 X10 Y10
G1 F900 X135.62 Y182.961 E137.04247
M204 S1000
M205 X30 Y30
G0 F1350 X136.349 Y182.961
M204 S500
M205 X10 Y10
G1 F900 X127.72 Y174.332 E137.84984
M204 S1000
M205 X30 Y30
G0 F1350 X128.019 Y173.903
M204 S500
M205 X10 Y10
G1 F900 X137.077 Y182.961 E138.69736
M204 S1000
M205 X30 Y30
G0 F1350 X137.805 Y182.961
M204 S500
M205 X10 Y10
G1 F900 X128.188 Y173.344 E139.59717
M204 S1000
M205 X30 Y30
G0 F1350 X128.229 Y172.657
M204 S500
M205 X10 Y10
G1 F900 X138.534 Y182.961 E140.56132
M204 S1000
M205 X30 Y30
G0 F1350 X139.262 Y182.961
M204 S500
M205 X10 Y10
G1 F900 X128.229 Y171.928 E141.59362
M204 S1000
M205 X30 Y30
G0 F1350 X128.229 Y171.2
M204 S500
M205 X10 Y10
G1 F900 X139.99 Y182.961 E142.69404
M204 S1000
M205 X30 Y30
G0 F1350 X140.719 Y182.961
M204 S500
M205 X10 Y10
G1 F900 X128.229 Y170.472 E143.86263
M204 S1000
M205 X30 Y30
G0 F1350 X128.23 Y169.744
M204 S500
M205 X10 Y10
G1 F900 X141.447 Y182.961 E145.09928
M204 S1000
M205 X30 Y30
G0 F1350 X142.175 Y182.961
M204 S500
M205 X10 Y10
G1 F900 X128.23 Y169.016 E146.40405
M204 S1000
M205 X30 Y30
G0 F1350 X128.23 Y168.287
M204 S500
M205 X10 Y10
G1 F900 X142.904 Y182.961 E147.77703
M204 S1000
M205 X30 Y30
G0 F1350 X143.632 Y182.961
M204 S500
M205 X10 Y10
G1 F900 X128.23 Y167.56 E149.21807
M204 S1000
M205 X30 Y30
G0 F1350 X128.23 Y166.831
M204 S500
M205 X10 Y10
G1 F900 X144.36 Y182.961 E150.72728
M204 S1000
M205 X30 Y30
G0 F1350 X145.089 Y182.961
M204 S500
M205 X10 Y10
G1 F900 X128.23 Y166.103 E152.30465
M204 S1000
M205 X30 Y30
G0 F1350 X128.23 Y165.375
M204 S500
M205 X10 Y10
G1 F900 X145.817 Y182.961 E153.95014
M204 S1000
M205 X30 Y30
G0 F1350 X146.545 Y182.961
M204 S500
M205 X10 Y10
G1 F900 X128.177 Y164.593 E155.66874
