;FLAVOR:Marlin
;TIME:11498
;Filament used: 11.5481m
;Layer height: 0.25
;MINX:74.978
;MINY:102.197
;MINZ:0.3
;MAXX:235.022
;MAXY:207.803
;MAXZ:41.05
;Generated with Cura_SteamEngine main
M140 S70
M105
M190 S70
M104 S190
M105
M109 S190
M82 ;absolute extrusion mode
G28 ;Home
G1 Z15.0 F6000 ;Move the platform down 15mm
;Prime the extruder
G92 E0
G1 F200 E3
G92 E0
G92 E0
G92 E0
G1 F3000 E-5
;LAYER_COUNT:164
;LAYER:0
M107
M204 S1000
M205 X30 Y30
G0 F1350 X76.869 Y103.197 Z0.3
G0 X74.978 Y107.616
M204 S500
M205 X10 Y10
;TYPE:SKIRT
G1 F3000 E0
G1 F900 X74.987 Y106.945 E0.0444
G1 X75.036 Y106.327 E0.08541
G1 X75.163 Y105.721 E0.12638
G1 X75.367 Y105.136 E0.16737
G1 X75.645 Y104.582 E0.20838
G1 X75.992 Y104.069 E0.24935
G1 X76.402 Y103.604 E0.29037
G1 X76.869 Y103.197 E0.33135
G1 X77.384 Y102.852 E0.37236
G1 X77.939 Y102.577 E0.41334
G1 X78.525 Y102.376 E0.45433
G1 X79.132 Y102.251 E0.49533
G1 X79.789 Y102.197 E0.53895
G1 X104.574 Y102.197 E2.17874
G1 X105.541 Y102.212 E2.24272
G1 X108.49 Y102.462 E2.43853
G1 X111.124 Y102.611 E2.61308
G1 X115.176 Y102.696 E2.88122
G1 X117.994 Y102.658 E3.06768
G1 X120.68 Y102.544 E3.24554
G1 X123.545 Y102.339 E3.43558
G1 X124.878 Y102.224 E3.5241
G1 X125.611 Y102.197 E3.57263
G1 X150.143 Y102.197 E5.19568
G1 X151.002 Y102.209 E5.25252
G1 X153.649 Y102.428 E5.42824
G1 X156.305 Y102.578 E5.60425
G1 X159.004 Y102.652 E5.78288
G1 X161.012 Y102.659 E5.91573
G1 X161.977 Y102.652 E5.97958
G1 X229.581 Y102.652 E10.4523
G1 X230.279 Y102.662 E10.49849
G1 X230.896 Y102.711 E10.53944
G1 X231.503 Y102.839 E10.58048
G1 X232.087 Y103.044 E10.62143
G1 X232.641 Y103.323 E10.66247
G1 X233.154 Y103.67 E10.70344
G1 X233.618 Y104.08 E10.74441
G1 X234.025 Y104.547 E10.78539
G1 X234.369 Y105.063 E10.82642
G1 X234.644 Y105.618 E10.8674
G1 X234.845 Y106.204 E10.90839
G1 X234.968 Y106.811 E10.94937
G1 X235.022 Y107.463 E10.99265
G1 X235.022 Y201.278 E17.19951
G1 X235.013 Y202.005 E17.24761
G1 X234.965 Y202.623 E17.28862
G1 X234.838 Y203.23 E17.32965
G1 X234.635 Y203.815 E17.37062
G1 X234.357 Y204.369 E17.41163
G1 X234.011 Y204.882 E17.45257
G1 X233.601 Y205.347 E17.49358
G1 X233.135 Y205.755 E17.53456
G1 X232.621 Y206.1 E17.57552
G1 X232.066 Y206.376 E17.61653
G1 X231.48 Y206.578 E17.65754
G1 X230.873 Y206.703 E17.69854
G1 X230.213 Y206.758 E17.74236
G1 X165.199 Y206.758 E22.04373
G1 X162.434 Y206.797 E22.22668
G1 X159.739 Y206.912 E22.40514
G1 X157.078 Y207.1 E22.58164
G1 X154.36 Y207.37 E22.76234
G1 X151.387 Y207.754 E22.96067
G1 X150.767 Y207.803 E23.00182
G1 X80.426 Y207.803 E27.65563
G1 X79.728 Y207.794 E27.70181
G1 X79.11 Y207.746 E27.74282
G1 X78.504 Y207.619 E27.78379
G1 X77.919 Y207.415 E27.82478
G1 X77.365 Y207.137 E27.86579
G1 X76.852 Y206.79 E27.90676
G1 X76.387 Y206.38 E27.94778
G1 X75.979 Y205.914 E27.98875
G1 X75.634 Y205.399 E28.02977
G1 X75.359 Y204.844 E28.07075
G1 X75.157 Y204.259 E28.11169
G1 X75.033 Y203.652 E28.15268
G1 X74.978 Y202.988 E28.19676
G1 X74.978 Y108.029 E34.47931
G0 F720 X74.978 Y107.616
M204 S1000
M205 X30 Y30
G0 F1350 X75.493 Y107.622
M204 S500
M205 X10 Y10
G1 F900 X75.502 Y106.951 E34.52371
G1 X75.55 Y106.368 E34.56241
G1 X75.677 Y105.797 E34.60111
G1 X75.88 Y105.248 E34.63984
G1 X76.157 Y104.732 E34.67858
G1 X76.501 Y104.258 E34.71733
G1 X76.906 Y103.836 E34.75603
G1 X77.365 Y103.473 E34.79475
G1 X77.869 Y103.175 E34.83348
G1 X78.409 Y102.949 E34.87221
G1 X78.975 Y102.799 E34.91095
G1 X79.771 Y102.712 E34.96393
G1 X104.574 Y102.712 E36.60491
G1 X105.519 Y102.726 E36.66744
G1 X108.452 Y102.976 E36.86219
G1 X111.112 Y103.126 E37.03846
G1 X115.172 Y103.211 E37.30713
G1 X118.023 Y103.173 E37.49577
G1 X120.705 Y103.059 E37.67338
G1 X123.558 Y102.855 E37.86262
G1 X124.923 Y102.737 E37.95326
G1 X125.611 Y102.712 E37.99881
G1 X150.135 Y102.712 E39.62133
G1 X150.967 Y102.724 E39.67638
G1 X153.576 Y102.94 E39.84959
G1 X156.296 Y103.093 E40.02983
G1 X158.988 Y103.167 E40.208
G1 X161.013 Y103.174 E40.34198
G1 X161.98 Y103.167 E40.40596
G1 X229.573 Y103.167 E44.87795
G1 X230.271 Y103.177 E44.92414
G1 X230.855 Y103.226 E44.96291
G1 X231.426 Y103.353 E45.00161
G1 X231.975 Y103.557 E45.04036
G1 X232.491 Y103.834 E45.07911
G1 X232.964 Y104.178 E45.1178
G1 X233.386 Y104.584 E45.15655
G1 X233.749 Y105.043 E45.19526
G1 X234.046 Y105.548 E45.23402
G1 X234.271 Y106.088 E45.27273
G1 X234.421 Y106.654 E45.31147
G1 X234.507 Y107.445 E45.36411
G1 X234.507 Y201.272 E51.57176
G1 X234.498 Y201.999 E51.61987
G1 X234.45 Y202.583 E51.65863
G1 X234.324 Y203.154 E51.69732
G1 X234.121 Y203.703 E51.73605
G1 X233.846 Y204.22 E51.77479
G1 X233.502 Y204.693 E51.81348
G1 X233.097 Y205.116 E51.85223
G1 X232.639 Y205.48 E51.89094
G1 X232.135 Y205.778 E51.92967
G1 X231.595 Y206.004 E51.9684
G1 X231.029 Y206.155 E52.00716
G1 X230.23 Y206.243 E52.06034
G1 X165.192 Y206.243 E56.3633
G1 X162.404 Y206.282 E56.54777
G1 X159.715 Y206.397 E56.72584
G1 X157.027 Y206.587 E56.90412
G1 X154.344 Y206.853 E57.0825
G1 X151.321 Y207.244 E57.28417
G1 X150.749 Y207.288 E57.32213
G1 X80.433 Y207.288 E61.97428
G1 X79.735 Y207.279 E62.02046
G1 X79.151 Y207.231 E62.05923
G1 X78.58 Y207.105 E62.09792
G1 X78.031 Y206.902 E62.13664
G1 X77.515 Y206.625 E62.17539
G1 X77.041 Y206.282 E62.2141
G1 X76.618 Y205.877 E62.25285
G1 X76.255 Y205.418 E62.29156
G1 X75.957 Y204.914 E62.3303
G1 X75.731 Y204.374 E62.36903
G1 X75.581 Y203.808 E62.40777
G1 X75.493 Y203.007 E62.46108
G1 X75.493 Y108.035 E68.74449
G0 F720 X75.493 Y107.622
M204 S1000
M205 X30 Y30
G0 F1350 X76.008 Y107.629
M204 S500
M205 X10 Y10
G1 F900 X76.017 Y106.958 E68.78889
G1 X76.065 Y106.411 E68.82522
G1 X76.191 Y105.877 E68.86152
G1 X76.393 Y105.367 E68.89781
G1 X76.668 Y104.891 E68.93418
G1 X77.008 Y104.46 E68.9705
G1 X77.407 Y104.084 E69.00677
G1 X77.857 Y103.769 E69.04312
G1 X78.348 Y103.523 E69.07945
G1 X78.869 Y103.35 E69.11577
G1 X79.41 Y103.255 E69.15211
G1 X80.005 Y103.228 E69.19152
G1 X104.632 Y103.227 E70.82085
G1 X105.466 Y103.24 E70.87604
G1 X108.378 Y103.487 E71.06939
G1 X111.1 Y103.64 E71.24976
G1 X115.169 Y103.726 E71.51903
G1 X118.018 Y103.688 E71.70754
G1 X120.764 Y103.571 E71.88938
G1 X123.569 Y103.371 E72.07543
G1 X124.967 Y103.25 E72.16827
G1 X125.505 Y103.228 E72.2039
G1 X150.128 Y103.227 E73.83297
G1 X150.947 Y103.239 E73.88716
G1 X153.544 Y103.454 E74.05957
G1 X156.253 Y103.606 E74.23908
G1 X159.013 Y103.682 E74.42175
G1 X161.016 Y103.689 E74.55427
G1 X161.984 Y103.682 E74.61832
G1 X229.566 Y103.682 E79.08959
G1 X230.264 Y103.692 E79.13577
G1 X230.811 Y103.74 E79.1721
G1 X231.345 Y103.867 E79.20842
G1 X231.855 Y104.07 E79.24473
G1 X232.331 Y104.344 E79.28107
G1 X232.761 Y104.685 E79.31738
G1 X233.138 Y105.085 E79.35374
G1 X233.452 Y105.535 E79.39005
G1 X233.698 Y106.026 E79.42638
G1 X233.87 Y106.547 E79.46268
G1 X233.991 Y107.424 E79.52125
G1 X233.992 Y201.266 E85.7299
G1 X233.983 Y201.993 E85.778
G1 X233.936 Y202.54 E85.81433
G1 X233.81 Y203.074 E85.85063
G1 X233.609 Y203.585 E85.88696
G1 X233.335 Y204.061 E85.92329
G1 X232.995 Y204.492 E85.95961
G1 X232.596 Y204.869 E85.99593
G1 X232.146 Y205.184 E86.03227
G1 X231.656 Y205.431 E86.06858
G1 X231.135 Y205.604 E86.1049
G1 X230.594 Y205.699 E86.14124
G1 X229.995 Y205.727 E86.18091
G1 X165.184 Y205.728 E90.46885
G1 X162.411 Y205.767 E90.65233
G1 X159.693 Y205.883 E90.83232
G1 X156.974 Y206.075 E91.01266
G1 X154.262 Y206.344 E91.19297
G1 X151.255 Y206.733 E91.39357
G1 X150.557 Y206.772 E91.43982
G1 X80.439 Y206.773 E96.07887
G1 X79.741 Y206.764 E96.12506
G1 X79.194 Y206.717 E96.16138
G1 X78.66 Y206.591 E96.19768
G1 X78.149 Y206.389 E96.23404
G1 X77.674 Y206.115 E96.27032
G1 X77.243 Y205.774 E96.30668
G1 X76.866 Y205.375 E96.34299
G1 X76.551 Y204.926 E96.37928
G1 X76.304 Y204.435 E96.41565
G1 X76.132 Y203.914 E96.45194
G1 X76.036 Y203.373 E96.4883
G1 X76.009 Y202.76 E96.52889
G1 X76.008 Y108.042 E102.7955
G0 F720 X76.008 Y107.629
M204 S1000
M205 X30 Y30
G0 F1350 X76.523 Y107.636
M204 S500
M205 X10 Y10
G1 F900 X76.532 Y106.965 E102.83989
G1 X76.579 Y106.457 E102.87365
G1 X76.705 Y105.963 E102.90738
G1 X76.906 Y105.494 E102.94114
G1 X77.177 Y105.062 E102.97488
G1 X77.513 Y104.678 E103.00863
G1 X77.905 Y104.352 E103.04237
G1 X78.343 Y104.09 E103.07613
G1 X78.816 Y103.9 E103.10986
G1 X79.314 Y103.786 E103.14366
G1 X79.801 Y103.743 E103.176
G1 X104.624 Y103.742 E104.81831
G1 X105.445 Y103.755 E104.87263
G1 X108.342 Y104.001 E105.06499
G1 X111.089 Y104.155 E105.24702
G1 X115.165 Y104.241 E105.51675
G1 X118.047 Y104.202 E105.70744
G1 X120.754 Y104.088 E105.8867
G1 X123.647 Y103.881 E106.07859
G1 X125.011 Y103.763 E106.16917
G1 X125.519 Y103.743 E106.20281
G1 X150.121 Y103.742 E107.83049
G1 X150.926 Y103.754 E107.88376
G1 X153.512 Y103.967 E108.05543
G1 X156.244 Y104.121 E108.23646
G1 X158.998 Y104.197 E108.41874
G1 X161.018 Y104.204 E108.55238
G1 X161.988 Y104.197 E108.61656
G1 X229.559 Y104.197 E113.0871
G1 X230.257 Y104.207 E113.13329
G1 X230.765 Y104.255 E113.16705
G1 X231.259 Y104.38 E113.20076
G1 X231.728 Y104.582 E113.23455
G1 X232.159 Y104.854 E113.26826
G1 X232.543 Y105.191 E113.30207
G1 X232.869 Y105.583 E113.3358
G1 X233.13 Y106.021 E113.36953
G1 X233.32 Y106.494 E113.40326
G1 X233.433 Y106.992 E113.43704
G1 X233.476 Y107.474 E113.46906
G1 X233.477 Y201.259 E119.67393
G1 X233.468 Y201.986 E119.72204
G1 X233.422 Y202.494 E119.75578
G1 X233.297 Y202.989 E119.78956
G1 X233.096 Y203.458 E119.82332
G1 X232.825 Y203.89 E119.85706
G1 X232.489 Y204.274 E119.89082
G1 X232.098 Y204.601 E119.92454
G1 X231.66 Y204.864 E119.95834
G1 X231.187 Y205.054 E119.99207
G1 X230.69 Y205.169 E120.02582
G1 X230.198 Y205.212 E120.05849
G1 X165.177 Y205.213 E124.36032
G1 X162.381 Y205.253 E124.54533
G1 X159.669 Y205.368 E124.72492
G1 X156.923 Y205.562 E124.90705
G1 X154.213 Y205.831 E125.08722
G1 X151.189 Y206.222 E125.28896
G1 X150.543 Y206.257 E125.33176
G1 X80.446 Y206.258 E129.96942
G1 X79.748 Y206.249 E130.01561
G1 X79.24 Y206.202 E130.04936
G1 X78.745 Y206.077 E130.08314
G1 X78.277 Y205.876 E130.11684
G1 X77.845 Y205.605 E130.15058
G1 X77.461 Y205.269 E130.18433
G1 X77.134 Y204.877 E130.21811
G1 X76.872 Y204.439 E130.25187
G1 X76.681 Y203.966 E130.28562
G1 X76.567 Y203.469 E130.31936
G1 X76.524 Y202.976 E130.3521
G1 X76.523 Y108.049 E136.63253
G0 F720 X76.523 Y107.636
M204 S1000
M205 X30 Y30
G1 F3000 E131.63253
;MESH:?????????.stl
G0 F1350 X79.116 Y107.636
G0 X80.301 Y107.636
G0 X125.561 Y108.757
M204 S500
M205 X10 Y10
;TYPE:WALL-INNER
G1 F3000 E136.63253
G1 F900 X125.325 Y108.787 E136.64827
G1 X105.111 Y108.787 E137.98564
G1 X104.705 Y108.652 E138.01395
G1 X104.423 Y108.46 E138.03652
G1 X104.346 Y108.287 E138.04905
G1 X81.068 Y108.287 E139.58914
G1 X81.068 Y201.713 E145.77026
G1 X149.494 Y201.713 E150.29737
G1 X149.494 Y127.95 E155.17758
G1 X149.494 Y108.287 E156.47849
G1 X126.216 Y108.287 E158.01858
G1 X126.139 Y108.46 E158.03111
G1 X125.938 Y108.597 E158.0472
G0 F720 X125.857 Y108.652
G0 X125.561 Y108.757
M204 S1000
M205 X30 Y30
G0 F1350 X105.228 Y108.6
G0 X105.228 Y108.271
M204 S500
M205 X10 Y10
G1 F900 X104.936 Y108.191 E158.06723
G1 X104.766 Y108.076 E158.08081
G1 X104.63 Y107.772 E158.10285
G1 X80.553 Y107.772 E159.6958
G1 X80.553 Y202.228 E165.94507
G1 X150.009 Y202.228 E170.54032
G1 X150.009 Y127.95 E175.4546
G1 X150.009 Y107.772 E176.78959
G1 X125.932 Y107.772 E178.38254
G1 X125.796 Y108.076 E178.40457
G1 X125.626 Y108.191 E178.41815
G1 X125.334 Y108.271 E178.43818
G1 X105.641 Y108.271 E179.74109
G0 F720 X105.228 Y108.271
M204 S1000
M205 X30 Y30
G0 F1350 X105.109 Y107.692
M204 S500
M205 X10 Y10
;TYPE:WALL-OUTER
G1 F900 X105.024 Y107.5 E179.75498
G1 X105.024 Y107.257 E179.77105
G1 X80.038 Y107.257 E181.42414
G1 X80.038 Y202.743 E187.74156
G1 X150.524 Y202.743 E192.40496
G1 X150.524 Y127.95 E197.35331
G1 X150.524 Y107.257 E198.72237
G1 X125.538 Y107.257 E200.37546
G1 X125.538 Y107.5 E200.39154
G1 X125.453 Y107.692 E200.40543
G1 X125.299 Y107.757 E200.41649
G1 X105.509 Y107.755 E201.72581
G0 F720 X105.244 Y107.755
G0 X105.109 Y107.692
M204 S1000
M205 X30 Y30
G0 F1350 X105.024 Y107.5
G0 X105.024 Y107.459
G0 X104.211 Y108.07
G0 X105.213 Y109.276
M204 S500
M205 X10 Y10
;TYPE:SKIN
G1 F900 X104.891 Y109.235 E201.74729
G1 X104.515 Y109.102 E201.77367
G1 X104.067 Y108.777 E201.81029
G1 X81.558 Y108.777 E203.2995
G1 X81.557 Y132.949 E204.89874
G1 X81.557 Y201.224 E209.41586
G1 X149.005 Y201.224 E213.87826
G1 X149.005 Y108.776 E219.99468
G1 X126.495 Y108.776 E221.48395
G1 X126.047 Y109.102 E221.52061
G1 X125.67 Y109.235 E221.54706
G1 X125.348 Y109.276 E221.56854
G1 X105.626 Y109.276 E222.87336
G0 F720 X105.213 Y109.276
M204 S1000
M205 X30 Y30
G0 F1350 X148.747 Y109.418
M204 S500
M205 X10 Y10
G1 F900 X148.362 Y109.033 E222.90938
M204 S1000
M205 X30 Y30
G0 F1350 X147.633 Y109.033
M204 S500
M205 X10 Y10
G1 F900 X148.747 Y110.146 E223.01356
M204 S1000
M205 X30 Y30
G0 F1350 X148.747 Y110.875
M204 S500
M205 X10 Y10
G1 F900 X146.905 Y109.033 E223.18591
M204 S1000
M205 X30 Y30
G0 F1350 X146.177 Y109.033
M204 S500
M205 X10 Y10
G1 F900 X148.747 Y111.603 E223.42637
M204 S1000
M205 X30 Y30
G0 F1350 X148.747 Y112.331
M204 S500
M205 X10 Y10
G1 F900 X145.449 Y109.033 E223.73495
M204 S1000
M205 X30 Y30
G0 F1350 X144.72 Y109.033
M204 S500
M205 X10 Y10
G1 F900 X148.747 Y113.06 E224.11174
M204 S1000
M205 X30 Y30
G0 F1350 X148.747 Y113.788
M204 S500
M205 X10 Y10
G1 F900 X143.992 Y109.033 E224.55664
M204 S1000
M205 X30 Y30
G0 F1350 X143.264 Y109.033
M204 S500
M205 X10 Y10
G1 F900 X148.747 Y114.516 E225.06966
M204 S1000
M205 X30 Y30
G0 F1350 X148.747 Y115.244
M204 S500
M205 X10 Y10
G1 F900 X142.535 Y109.033 E225.65084
M204 S1000
M205 X30 Y30
G0 F1350 X141.807 Y109.033
M204 S500
M205 X10 Y10
G1 F900 X148.747 Y115.973 E226.30018
M204 S1000
M205 X30 Y30
G0 F1350 X148.747 Y116.701
M204 S500
M205 X10 Y10
G1 F900 X141.079 Y109.033 E227.01764
M204 S1000
M205 X30 Y30
G0 F1350 X140.35 Y109.033
M204 S500
M205 X10 Y10
G1 F900 X148.747 Y117.429 E227.80326
M204 S1000
M205 X30 Y30
G0 F1350 X148.747 Y118.158
M204 S500
M205 X10 Y10
G1 F900 X139.622 Y109.033 E228.65705
M204 S1000
M205 X30 Y30
G0 F1350 X138.894 Y109.033
M204 S500
M205 X10 Y10
G1 F900 X148.747 Y118.886 E229.57895
M204 S1000
M205 X30 Y30
G0 F1350 X148.747 Y119.614
M204 S500
M205 X10 Y10
G1 F900 X138.165 Y109.033 E230.56901
M204 S1000
M205 X30 Y30
G0 F1350 X137.437 Y109.033
M204 S500
M205 X10 Y10
G1 F900 X148.747 Y120.343 E231.62723
M204 S1000
M205 X30 Y30
G0 F1350 X148.747 Y121.071
M204 S500
M205 X10 Y10
G1 F900 X136.709 Y109.033 E232.75357
M204 S1000
M205 X30 Y30
G0 F1350 X135.98 Y109.033
M204 S500
M205 X10 Y10
G1 F900 X148.747 Y121.799 E233.94807
M204 S1000
M205 X30 Y30
G0 F1350 X148.747 Y122.528
M204 S500
M205 X10 Y10
G1 F900 X135.252 Y109.033 E235.21073
M204 S1000
M205 X30 Y30
G0 F1350 X134.524 Y109.033
M204 S500
M205 X10 Y10
G1 F900 X148.747 Y123.256 E236.54151
M204 S1000
M205 X30 Y30
G0 F1350 X148.747 Y123.984
M204 S500
M205 X10 Y10
G1 F900 X133.795 Y109.033 E237.94045
M204 S1000
M205 X30 Y30
G0 F1350 X133.067 Y109.033
M204 S500
M205 X10 Y10
G1 F900 X148.747 Y124.713 E239.40756
M204 S1000
M205 X30 Y30
G0 F1350 X148.747 Y125.441
M204 S500
M205 X10 Y10
G1 F900 X132.339 Y109.033 E240.94278
M204 S1000
M205 X30 Y30
G0 F1350 X131.61 Y109.033
M204 S500
M205 X10 Y10
G1 F900 X148.747 Y126.169 E242.54616
M204 S1000
M205 X30 Y30
G0 F1350 X148.747 Y126.898
M204 S500
M205 X10 Y10
G1 F900 X130.882 Y109.033 E244.2177
M204 S1000
M205 X30 Y30
G0 F1350 X130.154 Y109.033
M204 S500
M205 X10 Y10
G1 F900 X148.747 Y127.626 E245.95736
M204 S1000
M205 X30 Y30
G0 F1350 X148.747 Y128.354
M204 S500
M205 X10 Y10
G1 F900 X129.425 Y109.033 E247.76518
M204 S1000
M205 X30 Y30
G0 F1350 X128.697 Y109.033
M204 S500
M205 X10 Y10
G1 F900 X148.747 Y129.083 E249.64117
M204 S1000
M205 X30 Y30
G0 F1350 X148.747 Y129.811
M204 S500
M205 X10 Y10
G1 F900 X127.969 Y109.033 E251.58527
M204 S1000
M205 X30 Y30
G0 F1350 X127.241 Y109.033
M204 S500
M205 X10 Y10
G1 F900 X148.747 Y130.539 E253.59748
M204 S1000
M205 X30 Y30
G0 F1350 X148.747 Y131.268
M204 S500
M205 X10 Y10
G1 F900 X126.55 Y109.07 E255.6744
M204 S1000
M205 X30 Y30
G0 F1350 X126.095 Y109.344
M204 S500
M205 X10 Y10
G1 F900 X148.747 Y131.996 E257.79384
M204 S1000
M205 X30 Y30
