;FLAVOR:Marlin
;TIME:1968
;Filament used: 1.69773m
;Layer height: 0.25
;MINX:144.197
;MINY:114.446
;MINZ:0.3
;MAXX:165.803
;MAXY:195.554
;MAXZ:27.05
;Generated with Cura_SteamEngine main
M140 S70
M105
M190 S70
M104 S200
M105
M109 S200
M82 ;absolute extrusion mode
G28 ;Home
G1 Z15.0 F6000 ;Move the platform down 15mm
;Prime the extruder
G92 E0
G1 F200 E3
G92 E0
G92 E0
G92 E0
G1 F2700 E-4
;LAYER_COUNT:108
;LAYER:0
M107
M204 S1000
M205 X30 Y30
G0 F1350 X145.212 Y116.317 Z0.3
G0 X144.197 Y119.858
M204 S500
M205 X10 Y10
;TYPE:SKIRT
G1 F2700 E0
G1 F900 X144.206 Y119.193 E0.044
G1 X144.255 Y118.575 E0.08502
G1 X144.382 Y117.969 E0.12598
G1 X144.587 Y117.384 E0.16699
G1 X144.865 Y116.831 E0.20794
G1 X145.212 Y116.317 E0.24897
G1 X145.622 Y115.853 E0.28994
G1 X146.088 Y115.445 E0.33092
G1 X146.603 Y115.101 E0.37189
G1 X147.158 Y114.826 E0.41287
G1 X147.744 Y114.624 E0.45388
G1 X148.351 Y114.5 E0.49487
G1 X149.008 Y114.446 E0.53848
G1 X160.362 Y114.446 E1.28967
G1 X161.06 Y114.456 E1.33586
G1 X161.677 Y114.505 E1.37681
G1 X162.284 Y114.633 E1.41785
G1 X162.868 Y114.838 E1.4588
G1 X163.422 Y115.117 E1.49984
G1 X163.935 Y115.464 E1.54081
G1 X164.399 Y115.874 E1.58178
G1 X164.806 Y116.341 E1.62276
G1 X165.15 Y116.857 E1.66379
G1 X165.425 Y117.412 E1.70477
G1 X165.626 Y117.998 E1.74576
G1 X165.749 Y118.605 E1.78673
G1 X165.803 Y119.257 E1.83002
G1 X165.803 Y190.074 E6.51532
G1 X165.794 Y190.801 E6.56342
G1 X165.746 Y191.419 E6.60443
G1 X165.619 Y192.026 E6.64546
G1 X165.416 Y192.611 E6.68643
G1 X165.138 Y193.165 E6.72744
G1 X164.792 Y193.678 E6.76837
G1 X164.382 Y194.143 E6.80939
G1 X163.916 Y194.551 E6.85037
G1 X163.402 Y194.896 E6.89133
G1 X162.847 Y195.172 E6.93233
G1 X162.261 Y195.374 E6.97334
G1 X161.654 Y195.499 E7.01435
G1 X160.994 Y195.554 E7.05816
G1 X149.645 Y195.554 E7.80902
G1 X148.947 Y195.545 E7.8552
G1 X148.329 Y195.497 E7.89621
G1 X147.723 Y195.37 E7.93718
G1 X147.138 Y195.166 E7.97817
G1 X146.584 Y194.888 E8.01918
G1 X146.071 Y194.541 E8.06015
G1 X145.606 Y194.131 E8.10117
G1 X145.198 Y193.665 E8.14215
G1 X144.853 Y193.15 E8.18316
G1 X144.578 Y192.595 E8.22414
G1 X144.376 Y192.01 E8.26508
G1 X144.252 Y191.403 E8.30607
G1 X144.197 Y190.739 E8.35015
G1 X144.197 Y120.271 E13.01236
G0 F720 X144.197 Y119.858
M204 S1000
M205 X30 Y30
G0 F1350 X144.712 Y119.865
M204 S500
M205 X10 Y10
G1 F900 X144.721 Y119.2 E13.05636
G1 X144.769 Y118.617 E13.09507
G1 X144.896 Y118.045 E13.13383
G1 X145.1 Y117.496 E13.17258
G1 X145.376 Y116.98 E13.2113
G1 X145.72 Y116.507 E13.24999
G1 X146.125 Y116.084 E13.28874
G1 X146.584 Y115.721 E13.32745
G1 X147.089 Y115.424 E13.36621
G1 X147.629 Y115.198 E13.40494
G1 X148.195 Y115.048 E13.44368
G1 X148.989 Y114.961 E13.49653
G1 X160.354 Y114.961 E14.24844
G1 X161.052 Y114.971 E14.29463
G1 X161.636 Y115.02 E14.3334
G1 X162.207 Y115.147 E14.3721
G1 X162.756 Y115.351 E14.41085
G1 X163.272 Y115.628 E14.4496
G1 X163.745 Y115.972 E14.48829
G1 X164.167 Y116.378 E14.52704
G1 X164.53 Y116.837 E14.56575
G1 X164.827 Y117.342 E14.60451
G1 X165.052 Y117.882 E14.64322
G1 X165.202 Y118.448 E14.68196
G1 X165.288 Y119.239 E14.7346
G1 X165.288 Y190.068 E19.42069
G1 X165.279 Y190.795 E19.46879
G1 X165.231 Y191.379 E19.50756
G1 X165.105 Y191.95 E19.54625
G1 X164.902 Y192.499 E19.58498
G1 X164.627 Y193.016 E19.62372
G1 X164.283 Y193.489 E19.66241
G1 X163.878 Y193.912 E19.70116
G1 X163.42 Y194.276 E19.73986
G1 X162.916 Y194.574 E19.7786
G1 X162.376 Y194.8 E19.81733
G1 X161.81 Y194.951 E19.85609
G1 X161.011 Y195.039 E19.90927
G1 X149.652 Y195.039 E20.66079
G1 X148.954 Y195.03 E20.70697
G1 X148.37 Y194.982 E20.74574
G1 X147.799 Y194.856 E20.78443
G1 X147.25 Y194.653 E20.82315
G1 X146.734 Y194.376 E20.8619
G1 X146.26 Y194.033 E20.90061
G1 X145.837 Y193.628 E20.93935
G1 X145.474 Y193.169 E20.97807
G1 X145.176 Y192.665 E21.01681
G1 X144.95 Y192.125 E21.05554
G1 X144.8 Y191.559 E21.09428
G1 X144.712 Y190.758 E21.14759
G1 X144.712 Y120.278 E25.81059
G0 F720 X144.712 Y119.865
M204 S1000
M205 X30 Y30
G0 F1350 X145.227 Y119.872
M204 S500
M205 X10 Y10
G1 F900 X145.236 Y119.207 E25.85459
G1 X145.284 Y118.66 E25.89092
G1 X145.41 Y118.126 E25.92722
G1 X145.612 Y117.615 E25.96358
G1 X145.887 Y117.14 E25.99989
G1 X146.227 Y116.709 E26.03621
G1 X146.627 Y116.332 E26.07258
G1 X147.076 Y116.017 E26.10886
G1 X147.567 Y115.771 E26.1452
G1 X148.089 Y115.599 E26.18156
G1 X148.968 Y115.477 E26.24027
G1 X160.347 Y115.476 E26.99311
G1 X161.045 Y115.486 E27.0393
G1 X161.592 Y115.534 E27.07563
G1 X162.126 Y115.661 E27.11194
G1 X162.636 Y115.864 E27.14826
G1 X163.112 Y116.138 E27.1846
G1 X163.542 Y116.479 E27.22091
G1 X163.919 Y116.879 E27.25727
G1 X164.233 Y117.329 E27.29358
G1 X164.479 Y117.82 E27.32991
G1 X164.651 Y118.341 E27.36621
G1 X164.772 Y119.218 E27.42478
G1 X164.773 Y190.062 E32.11187
G1 X164.764 Y190.789 E32.15997
G1 X164.717 Y191.336 E32.19629
G1 X164.591 Y191.87 E32.23259
G1 X164.39 Y192.381 E32.26892
G1 X164.116 Y192.857 E32.30526
G1 X163.776 Y193.288 E32.34158
G1 X163.377 Y193.665 E32.3779
G1 X162.927 Y193.98 E32.41424
G1 X162.437 Y194.227 E32.45054
G1 X161.916 Y194.4 E32.48686
G1 X161.375 Y194.495 E32.5232
G1 X160.776 Y194.523 E32.56288
G1 X149.658 Y194.524 E33.29845
G1 X148.96 Y194.515 E33.34464
G1 X148.413 Y194.468 E33.38096
G1 X147.879 Y194.342 E33.41726
G1 X147.368 Y194.14 E33.45361
G1 X146.893 Y193.866 E33.48989
G1 X146.462 Y193.525 E33.52625
G1 X146.085 Y193.126 E33.56257
G1 X145.77 Y192.677 E33.59886
G1 X145.523 Y192.186 E33.63522
G1 X145.351 Y191.665 E33.67152
G1 X145.255 Y191.124 E33.70787
G1 X145.228 Y190.511 E33.74847
G1 X145.227 Y120.285 E38.39467
G0 F720 X145.227 Y119.872
M204 S1000
M205 X30 Y30
G0 F1350 X145.742 Y119.879
M204 S500
M205 X10 Y10
G1 F900 X145.751 Y119.214 E38.43867
G1 X145.798 Y118.706 E38.47242
G1 X145.924 Y118.211 E38.50622
G1 X146.125 Y117.743 E38.53991
G1 X146.397 Y117.311 E38.57369
G1 X146.733 Y116.927 E38.60745
G1 X147.124 Y116.6 E38.64117
G1 X147.562 Y116.339 E38.6749
G1 X148.036 Y116.149 E38.70869
G1 X148.533 Y116.035 E38.74242
G1 X149.02 Y115.992 E38.77477
G1 X160.34 Y115.991 E39.52371
G1 X161.038 Y116.001 E39.56989
G1 X161.546 Y116.049 E39.60365
G1 X162.04 Y116.174 E39.63737
G1 X162.509 Y116.376 E39.67115
G1 X162.94 Y116.648 E39.70487
G1 X163.324 Y116.985 E39.73867
G1 X163.65 Y117.377 E39.7724
G1 X163.911 Y117.815 E39.80614
G1 X164.101 Y118.288 E39.83986
G1 X164.214 Y118.786 E39.87365
G1 X164.257 Y119.268 E39.90566
G1 X164.258 Y190.055 E44.58898
G1 X164.249 Y190.782 E44.63708
G1 X164.203 Y191.29 E44.67083
G1 X164.078 Y191.785 E44.7046
G1 X163.877 Y192.254 E44.73836
G1 X163.606 Y192.686 E44.7721
G1 X163.27 Y193.07 E44.80586
G1 X162.879 Y193.397 E44.83958
G1 X162.441 Y193.66 E44.87338
G1 X161.968 Y193.85 E44.90711
G1 X161.471 Y193.965 E44.94086
G1 X160.979 Y194.008 E44.97353
G1 X149.665 Y194.009 E45.72208
G1 X148.967 Y194 E45.76826
G1 X148.459 Y193.953 E45.80201
G1 X147.964 Y193.828 E45.83579
G1 X147.496 Y193.627 E45.86949
G1 X147.064 Y193.356 E45.90323
G1 X146.68 Y193.02 E45.93699
G1 X146.353 Y192.628 E45.97076
G1 X146.091 Y192.19 E46.00453
G1 X145.9 Y191.717 E46.03828
G1 X145.786 Y191.22 E46.07201
G1 X145.743 Y190.727 E46.10475
G1 X145.742 Y120.292 E50.76478
G0 F720 X145.742 Y119.879
M204 S1000
M205 X30 Y30
G1 F2700 E46.76478
;MESH:t8.stl
G0 F1350 X148.335 Y119.879
G0 X149.52 Y119.879
G0 X150.936 Y124.994
M204 S500
M205 X10 Y10
;TYPE:WALL-INNER
G1 F2700 E50.76478
G1 F821.8 X151.17 Y124.221 E50.8233
G1 F900 X151.345 Y123.793 E50.85389
G1 X151.662 Y123.216 E50.89745
G1 X152.162 Y122.618 E50.94902
G1 X152.781 Y122.118 E51.00166
G1 X153.358 Y121.815 E51.04478
G1 F792.3 X154.08 Y121.5 E51.10398
G1 F655.6 X154.225 Y121.412 E51.11939
G1 F618 X154.971 Y121.354 E51.19148
G1 F620.5 X155.699 Y121.407 E51.26153
G1 F699.1 X155.959 Y121.552 E51.28688
G1 F830.6 X156.643 Y121.81 E51.33929
G1 F876.2 X157.287 Y122.164 E51.38923
G1 F900 X157.886 Y122.666 E51.44094
G1 X158.383 Y123.284 E51.49341
G1 X158.684 Y123.859 E51.53635
G1 X158.858 Y124.311 E51.56839
G1 F823.3 X159.056 Y125.041 E51.6231
G1 F766.1 X159.072 Y125.28 E51.64171
G1 F769.9 X159.063 Y125.983 E51.69609
G1 F827.7 X158.829 Y126.779 E51.75578
G1 F900 X158.655 Y127.205 E51.78622
G1 X158.338 Y127.782 E51.82978
G1 X157.832 Y128.387 E51.88196
G1 X157.221 Y128.879 E51.93386
G1 X156.641 Y129.184 E51.97721
G1 X156.109 Y129.388 E52.01491
G1 X155.329 Y129.53 E52.06736
G1 X154.571 Y129.52 E52.11752
G1 X153.785 Y129.357 E52.17063
G1 X153.045 Y129.04 E52.22389
G1 X152.398 Y128.593 E52.27592
G1 X151.966 Y128.156 E52.31657
G1 X151.616 Y127.71 E52.35408
G1 X151.316 Y127.14 E52.3967
G1 X151.141 Y126.686 E52.42889
G1 F826.2 X150.93 Y125.927 E52.48566
G1 F759.8 X150.936 Y124.994 E52.55878
M204 S1000
M205 X30 Y30
G0 F1350 X150.936 Y185.009
M204 S500
M205 X10 Y10
G1 F758.6 X150.93 Y184.065 E52.63288
G1 F789.6 X151.188 Y183.103 E52.70799
G1 F859.9 X151.621 Y182.279 E52.77244
G1 F900 X152.134 Y181.648 E52.82625
G1 X152.623 Y181.241 E52.86834
G1 X153.093 Y180.936 E52.90541
G1 X153.785 Y180.643 E52.95513
G1 X154.568 Y180.48 E53.00804
G1 X155.356 Y180.474 E53.06018
G1 X155.903 Y180.569 E53.09691
G1 X156.414 Y180.723 E53.13222
G1 X156.642 Y180.817 E53.14853
G1 X157.22 Y181.121 E53.19174
G1 X157.832 Y181.613 E53.24369
G1 X158.257 Y182.121 E53.28751
G1 X158.566 Y182.597 E53.32506
G1 X158.807 Y183.166 E53.36594
G1 F821.8 X159.064 Y183.998 E53.42904
G1 F759.8 X159.07 Y184.926 E53.50176
G1 F779 X158.941 Y185.413 E53.54027
G1 F810.3 X158.812 Y185.9 E53.57729
G1 F861.5 X158.381 Y186.72 E53.64132
G1 F900 X157.858 Y187.361 E53.69605
G1 X157.28 Y187.839 E53.74567
G1 X156.671 Y188.171 E53.79156
G1 F799.1 X155.963 Y188.485 E53.84927
G1 F658.4 X155.805 Y188.583 E53.86609
G1 F618.8 X155.002 Y188.646 E53.94359
G1 F623.8 X154.331 Y188.597 E54.00781
G1 F693.9 X154.09 Y188.466 E54.03135
G1 F816 X153.417 Y188.217 E54.08371
G1 F856.7 X152.791 Y187.886 E54.13293
G1 F886.2 X152.371 Y187.559 E54.16869
G1 F900 X151.896 Y187.092 E54.21276
G1 X151.44 Y186.419 E54.26655
G1 X151.191 Y185.832 E54.30873
G1 F824.7 X150.936 Y185.009 E54.37094
M204 S1000
M205 X30 Y30
G0 F1350 X151.66 Y186.301
G0 X154.295 Y189.347
M204 S500
M205 X10 Y10
G1 F630.6 X155 Y189.362 E54.43752
G1 F625.5 X155.87 Y189.341 E54.52037
G1 F658.4 X156.102 Y189.399 E54.54199
G1 F799.1 X156.62 Y189.463 E54.58088
G1 F900 X159.713 Y189.464 E54.78552
G1 X159.713 Y185.735 E55.03223
G1 F823.3 X159.665 Y185.032 E55.0832
G1 F763.6 X159.669 Y184.196 E55.14839
G1 F758.6 X159.661 Y183.879 E55.17328
G1 F817.5 X159.713 Y183.328 E55.21359
G1 F900 X159.713 Y126.668 E58.96225
G1 F820.4 X159.663 Y126.073 E59.00559
G1 F764.9 X159.672 Y125.28 E59.06733
G1 F766.1 X159.665 Y124.987 E59.09011
G1 F823.3 X159.713 Y124.437 E59.13004
G1 F900 X159.713 Y121.701 E59.31106
G1 X159.713 Y120.536 E59.38814
G1 X156.661 Y120.537 E59.59006
G1 F852 X156.111 Y120.566 E59.62855
G1 F699.1 X155.736 Y120.655 E59.66138
G1 F629.8 X154.972 Y120.638 E59.73363
G1 F627.2 X154.16 Y120.658 E59.81074
G1 F655.6 X153.949 Y120.606 E59.83048
G1 F792.3 X153.415 Y120.536 E59.87096
G1 F900 X150.289 Y120.538 E60.07778
G1 X150.287 Y124.331 E60.32872
G1 F817.5 X150.34 Y124.877 E60.36868
G1 F758.6 X150.331 Y125.194 E60.39357
G1 F762.3 X150.336 Y126.045 E60.46005
G1 F821.8 X150.288 Y126.564 E60.49781
G1 F900 X150.287 Y183.267 E64.24932
G1 F820.4 X150.337 Y183.944 E64.29859
G1 F761.1 X150.331 Y184.806 E64.36603
G1 F758.6 X150.34 Y185.124 E64.391
G1 F817.5 X150.287 Y185.674 E64.43125
G1 F900 X150.287 Y189.464 E64.682
G1 X153.415 Y189.464 E64.88895
G1 F842.7 X153.949 Y189.429 E64.92676
G1 F693.9 X154.295 Y189.347 E64.95728
M204 S1000
M205 X30 Y30
G0 F1350 X150.07 Y189.681
G0 X149.772 Y189.979
M204 S500
M205 X10 Y10
G1 F900 X160.228 Y189.979 E65.64905
G1 X160.228 Y121.701 E70.16637
G1 X160.228 Y120.021 E70.27752
G1 X149.773 Y120.022 E70.96923
G1 X149.772 Y189.566 E75.5703
G0 F720 X149.772 Y189.979
M204 S1000
M205 X30 Y30
G0 F1350 X150.07 Y189.681
G0 X151.332 Y183.336
G0 X151.629 Y183.442
M204 S500
M205 X10 Y10
G1 F900 X151.704 Y183.228 E75.58531
G1 X152.052 Y182.565 E75.63485
G1 X152.509 Y182.005 E75.68267
G1 X152.952 Y181.637 E75.72077
G1 X153.341 Y181.39 E75.75126
G1 X153.941 Y181.136 E75.79436
G1 X154.626 Y180.995 E75.84063
G1 X155.312 Y180.989 E75.88602
G1 X155.754 Y181.062 E75.91566
G1 X156.265 Y181.216 E75.95097
G1 X156.402 Y181.273 E75.96079
G1 X156.932 Y181.551 E76.00038
G1 X157.473 Y181.986 E76.04631
G1 X157.9 Y182.497 E76.09037
G1 X158.133 Y182.896 E76.12094
G1 X158.365 Y183.44 E76.16007
G1 X158.505 Y184.124 E76.20626
G1 X158.513 Y184.822 E76.25244
G1 X158.371 Y185.56 E76.30217
G1 X158.296 Y185.775 E76.31723
G1 X157.948 Y186.437 E76.36671
G1 X157.491 Y186.997 E76.41453
G1 X156.988 Y187.412 E76.45768
G1 X156.357 Y187.755 E76.50519
G1 X155.729 Y187.95 E76.5487
G1 X155.005 Y188.028 E76.59688
G1 X154.326 Y187.961 E76.64202
G1 X153.665 Y187.765 E76.68763
G1 X153.068 Y187.45 E76.73229
G1 X152.732 Y187.192 E76.76032
G1 X152.299 Y186.767 E76.80046
G1 X151.893 Y186.17 E76.84823
G1 X151.634 Y185.556 E76.89231
G1 X151.495 Y184.875 E76.9383
G1 X151.488 Y184.179 E76.98435
G1 X151.552 Y183.847 E77.00672
G0 F720 X151.629 Y183.442
M204 S1000
M205 X30 Y30
G0 F1350 X151.332 Y183.336
G0 X151.174 Y125.055
G0 X151.495 Y125.122
M204 S500
M205 X10 Y10
G1 F900 X151.632 Y124.455 E77.05177
G1 X151.797 Y124.041 E77.08126
G1 X152.092 Y123.504 E77.12179
G1 X152.526 Y122.986 E77.1665
G1 X153.067 Y122.55 E77.21247
G1 X153.665 Y122.235 E77.25719
G1 X154.335 Y122.04 E77.30336
G1 X154.967 Y121.972 E77.34541
G1 F901.8 X155.714 Y122.046 E77.39498
G1 X156.394 Y122.261 E77.44207
G1 X156.994 Y122.592 E77.48732
G1 F900 X157.52 Y123.031 E77.53265
G1 X157.95 Y123.567 E77.57811
G1 X158.229 Y124.098 E77.6178
G1 X158.391 Y124.531 E77.64838
G1 X158.502 Y125.142 E77.68947
G1 X158.515 Y125.28 E77.69864
G1 X158.505 Y125.875 E77.73801
G1 X158.368 Y126.547 E77.78338
G1 X158.203 Y126.957 E77.81263
G1 X157.908 Y127.494 E77.85316
G1 X157.473 Y128.014 E77.89802
G1 X156.933 Y128.449 E77.94389
G1 X156.401 Y128.728 E77.98364
G1 X155.966 Y128.891 E78.01437
G1 X155.285 Y129.014 E78.06015
G1 X154.631 Y129.006 E78.10343
G1 X153.941 Y128.864 E78.15003
G1 X153.291 Y128.585 E78.19683
G1 X152.734 Y128.2 E78.24163
G1 X152.289 Y127.751 E78.28345
G1 X152.018 Y127.369 E78.31444
G1 X151.771 Y126.9 E78.34951
G1 X151.607 Y126.466 E78.38021
G1 X151.488 Y125.816 E78.42393
G1 X151.491 Y125.535 E78.44252
G0 F720 X151.495 Y125.122
M204 S1000
M205 X30 Y30
G0 F1350 X152.014 Y125.157
M204 S500
M205 X10 Y10
;TYPE:WALL-OUTER
G1 F900 X152.135 Y124.583 E78.48133
G1 X152.248 Y124.289 E78.50217
G1 X152.533 Y123.78 E78.54076
G1 X152.902 Y123.343 E78.5786
G1 X153.329 Y122.999 E78.61488
G1 X153.884 Y122.707 E78.65637
G1 X154.424 Y122.547 E78.69363
G1 X154.945 Y122.493 E78.72829
G1 X155.612 Y122.553 E78.7726
G1 X156.21 Y122.747 E78.81419
G1 X156.68 Y123.006 E78.84969
G1 X157.131 Y123.377 E78.88833
G1 X157.5 Y123.828 E78.92689
G1 X157.788 Y124.372 E78.96761
G1 X157.887 Y124.653 E78.98732
G1 X158 Y125.28 E79.02947
G1 X157.988 Y125.834 E79.06613
G1 X157.865 Y126.416 E79.10549
G1 X157.752 Y126.709 E79.12627
G1 X157.467 Y127.218 E79.16486
G1 X157.089 Y127.663 E79.20349
G1 X156.671 Y127.999 E79.23897
G1 X156.127 Y128.287 E79.2797
G1 X155.847 Y128.386 E79.29935
G1 X155.265 Y128.494 E79.33851
G1 X154.706 Y128.492 E79.37549
G1 X154.069 Y128.359 E79.41855
G1 X153.568 Y128.144 E79.45462
G1 X153.086 Y127.817 E79.49315
G1 X152.673 Y127.403 E79.53184
G1 X152.495 Y127.163 E79.55161
G1 X152.212 Y126.626 E79.59177
G1 X152.112 Y126.343 E79.61163
G1 X152.007 Y125.792 E79.64874
G1 X152.01 Y125.57 E79.66343
G0 F720 X152.014 Y125.157
M204 S1000
M205 X30 Y30
G0 F1350 X152.065 Y124.913
G1 F2700 E75.66343
G0 F1350 X151.239 Y124.742
G0 X151.181 Y184.045
G1 F2700 E79.66343
G0 F1350 X152.008 Y184.204
M204 S500
M205 X10 Y10
G1 F900 X152.142 Y183.501 E79.71077
G1 X152.501 Y182.829 E79.76118
G1 X152.858 Y182.391 E79.79857
G1 X153.311 Y182.012 E79.83764
G1 X153.563 Y181.858 E79.85718
G1 X154.07 Y181.641 E79.89367
G1 X154.657 Y181.514 E79.9334
G1 X155.286 Y181.507 E79.97502
G1 X155.606 Y181.555 E79.99643
G1 X156.117 Y181.709 E80.03174
G1 X156.671 Y182.001 E80.07317
G1 X157.089 Y182.337 E80.10865
