;FLAVOR:Marlin
;TIME:5269
;Filament used: 6.41797m
;Layer height: 0.25
;MINX:121.616
;MINY:100.907
;MINZ:0.3
;MAXX:200.317
;MAXY:181.384
;MAXZ:20.05
;Generated with Cura_SteamEngine main
M140 S60
M105
M190 S60
M104 S190
M105
M109 S190
M82 ;absolute extrusion mode
G28 ;Home
G1 Z15.0 F6000 ;Move the platform down 15mm
;Prime the extruder
G92 E0
G1 F200 E3
G92 E0
G92 E0
G92 E0
G1 F2700 E-4
;LAYER_COUNT:80
;LAYER:0
M107
M204 S1000
M205 X30 Y30
G0 F1350 X137.288 Y114.47 Z0.3
G0 X134.884 Y118.665
M204 S500
M205 X10 Y10
;TYPE:SKIRT
G1 F2700 E0
G1 F900 X135.894 Y116.679 E0.14741
G1 X136.338 Y115.879 E0.20794
G1 X136.828 Y115.12 E0.26772
G1 X137.288 Y114.47 E0.3204
G1 X138.186 Y113.419 E0.41186
G1 X138.927 Y112.676 E0.48129
G1 X139.633 Y112.057 E0.54341
G1 X140.468 Y111.42 E0.61289
G1 X141.197 Y110.938 E0.67071
G1 X142.171 Y110.338 E0.7464
G1 X154.498 Y103.025 E1.69468
G1 X155.325 Y102.55 E1.75777
G1 X155.999 Y102.197 E1.80811
G1 X157.058 Y101.737 E1.8845
G1 X158.178 Y101.371 E1.96246
G1 X159.342 Y101.106 E2.04144
G1 X160.6 Y100.944 E2.12536
G1 X161.821 Y100.907 E2.20618
G1 X163.086 Y100.992 E2.29006
G1 X164.252 Y101.181 E2.36821
G1 X165.423 Y101.491 E2.44835
G1 X166.549 Y101.901 E2.52763
G1 X167.686 Y102.447 E2.61108
G1 X168.77 Y103.101 E2.69484
G1 X169.458 Y103.61 E2.75146
G1 X169.972 Y104.023 E2.79509
G1 X170.929 Y104.875 E2.87986
G1 X171.587 Y105.51 E2.94036
G1 X172.29 Y106.241 E3.00746
G1 X172.698 Y106.696 E3.04789
G1 X173.355 Y107.481 E3.11562
G1 X174.358 Y108.776 E3.22399
G1 X176.037 Y110.891 E3.40265
G1 X177.804 Y112.993 E3.58433
G1 X179.581 Y114.987 E3.76104
G1 X181.409 Y116.929 E3.93749
G1 X183.336 Y118.86 E4.11798
G1 X185.277 Y120.7 E4.29492
G1 X187.29 Y122.501 E4.47363
G1 X189.357 Y124.251 E4.65281
G1 X191.427 Y125.902 E4.82799
G1 X193.61 Y127.546 E5.00879
G1 X194.258 Y128.022 E5.06199
G1 X195.01 Y128.611 E5.12519
G1 X195.865 Y129.382 E5.20136
G1 X196.353 Y129.888 E5.24787
G1 X196.816 Y130.41 E5.29403
G1 X197.32 Y131.041 E5.34746
G1 X197.889 Y131.827 E5.41166
G1 X198.204 Y132.344 E5.45171
G1 X198.542 Y132.946 E5.49739
G1 X198.885 Y133.604 E5.54648
G1 X199.401 Y134.831 E5.63455
G1 X199.72 Y135.801 E5.70211
G1 X199.939 Y136.658 E5.76063
G1 X200.05 Y137.185 E5.79626
G1 X200.19 Y138.028 E5.8528
G1 X200.272 Y138.858 E5.90798
G1 X200.306 Y139.468 E5.9484
G1 X200.317 Y140.19 E5.99617
G1 X200.296 Y140.794 E6.03616
G1 X200.221 Y141.676 E6.09472
G1 X200.008 Y142.982 E6.18227
G1 X199.732 Y144.057 E6.2557
G1 X199.298 Y145.364 E6.34681
G1 X198.831 Y146.412 E6.42272
G1 X198.474 Y147.099 E6.47394
G1 X198.103 Y147.746 E6.52329
G1 X197.47 Y148.688 E6.59838
G1 X196.64 Y149.762 E6.68818
G1 X195.897 Y150.698 E6.76724
G1 X194.245 Y152.905 E6.94963
G1 X192.724 Y155.059 E7.12409
G1 X191.207 Y157.344 E7.30555
G1 X189.792 Y159.611 E7.48236
G1 X188.437 Y161.927 E7.65988
G1 X186.516 Y165.462 E7.92606
G1 X186.14 Y166.1 E7.97506
G1 X185.518 Y167.008 E8.04788
G1 X184.818 Y167.892 E8.12248
G1 X184.073 Y168.703 E8.19534
G1 X183.541 Y169.211 E8.24401
G1 X182.74 Y169.884 E8.31322
G1 X181.998 Y170.424 E8.37394
G1 X180.971 Y171.121 E8.45606
G1 X169.176 Y178.845 E9.38886
G1 X168.006 Y179.581 E9.48031
G1 X167.419 Y179.922 E9.52522
G1 X166.549 Y180.334 E9.58891
G1 X165.709 Y180.664 E9.64862
G1 X164.765 Y180.955 E9.71397
G1 X163.984 Y181.132 E9.76695
G1 X163.199 Y181.265 E9.81963
G1 X162.563 Y181.335 E9.86196
G1 X161.959 Y181.373 E9.902
G1 X161.006 Y181.384 E9.96506
G1 X159.803 Y181.278 E10.04496
G1 X158.759 Y181.098 E10.11505
G1 X157.865 Y180.869 E10.17611
G1 X156.939 Y180.559 E10.24071
G1 X156.015 Y180.166 E10.30714
G1 X155.156 Y179.722 E10.37112
G1 X154.378 Y179.242 E10.4316
G1 X153.631 Y178.71 E10.49228
G1 X152.624 Y177.904 E10.57761
G1 X151.936 Y177.302 E10.6381
G1 X151.1 Y176.505 E10.71451
G1 X150.353 Y175.728 E10.78582
G1 X149.583 Y174.853 E10.86294
G1 X147.604 Y172.535 E11.06459
G1 X145.783 Y170.527 E11.24393
G1 X143.926 Y168.59 E11.42146
G1 X142.015 Y166.71 E11.59882
G1 X140.036 Y164.867 E11.77774
G1 X138.024 Y163.098 E11.95499
G1 X135.951 Y161.378 E12.1332
G1 X133.83 Y159.715 E12.31152
G1 X131.672 Y158.12 E12.48906
G1 X128.954 Y156.242 E12.70764
G1 X128.103 Y155.676 E12.77525
G1 X127.487 Y155.211 E12.82632
G1 X126.918 Y154.759 E12.87439
G1 X126.156 Y154.067 E12.9425
G1 X125.582 Y153.507 E12.99555
G1 X124.985 Y152.816 E13.05597
G1 X124.372 Y152.033 E13.12176
G1 X123.88 Y151.285 E13.18099
G1 X123.371 Y150.419 E13.24745
G1 X122.983 Y149.63 E13.30562
G1 X122.729 Y149.048 E13.34763
G1 X122.449 Y148.333 E13.39844
G1 X122.183 Y147.481 E13.45749
G1 X121.996 Y146.758 E13.5069
G1 X121.799 Y145.808 E13.57109
G1 X121.657 Y144.62 E13.65025
G1 X121.616 Y143.508 E13.72387
G1 X121.626 Y142.643 E13.7811
G1 X121.667 Y142.071 E13.81904
G1 X121.765 Y141.328 E13.86862
G1 X121.869 Y140.669 E13.91276
G1 X122.104 Y139.655 E13.98163
G1 X122.254 Y139.082 E14.02082
G1 X122.458 Y138.449 E14.06482
G1 X122.898 Y137.386 E14.14093
G1 X123.43 Y136.299 E14.221
G1 X124.158 Y135.116 E14.3129
G1 X124.961 Y134.038 E14.40183
G1 X126.266 Y132.357 E14.54263
G1 X127.881 Y130.155 E14.7233
G1 X129.421 Y127.921 E14.90282
G1 X130.854 Y125.714 E15.07691
G1 X132.277 Y123.379 E15.25783
G1 X133.608 Y121.053 E15.43513
G1 X134.69 Y119.029 E15.58697
G0 F720 X134.884 Y118.665
M204 S1000
M205 X30 Y30
G1 F2700 E11.58697
G0 F1350 X132.719 Y123.643
M204 S500
M205 X10 Y10
G1 F2700 E15.58697
G1 F900 X134.055 Y121.307 E15.76501
G1 X135.336 Y118.911 E15.94477
G1 X136.268 Y117.073 E16.08111
G1 X136.792 Y116.124 E16.15283
G1 X137.26 Y115.399 E16.20993
G1 X137.7 Y114.779 E16.26022
G1 X138.559 Y113.774 E16.34769
G1 X139.275 Y113.056 E16.41478
G1 X139.962 Y112.454 E16.47522
G1 X140.765 Y111.841 E16.54205
G1 X141.468 Y111.376 E16.59782
G1 X142.434 Y110.781 E16.67288
G1 X154.812 Y103.438 E17.62508
G1 X155.581 Y102.996 E17.68376
G1 X156.22 Y102.662 E17.73146
G1 X157.237 Y102.221 E17.8048
G1 X158.322 Y101.866 E17.88033
G1 X159.438 Y101.612 E17.95605
G1 X160.631 Y101.458 E18.03564
G1 X161.813 Y101.423 E18.11387
G1 X163.034 Y101.505 E18.19484
G1 X164.138 Y101.684 E18.26883
G1 X165.28 Y101.986 E18.34699
G1 X166.343 Y102.373 E18.42183
G1 X167.442 Y102.901 E18.5025
G1 X168.482 Y103.53 E18.58291
G1 X169.141 Y104.016 E18.63708
G1 X169.63 Y104.409 E18.67859
G1 X170.572 Y105.246 E18.76196
G1 X171.217 Y105.868 E18.82124
G1 X171.795 Y106.465 E18.87622
G1 X172.314 Y107.04 E18.92747
G1 X172.959 Y107.81 E18.99392
G1 X173.934 Y109.07 E19.09933
G1 X175.67 Y111.256 E19.28401
G1 X177.391 Y113.303 E19.46095
G1 X179.202 Y115.336 E19.64108
G1 X181.05 Y117.299 E19.81945
G1 X182.963 Y119.216 E19.99863
G1 X184.942 Y121.093 E20.17909
G1 X186.922 Y122.863 E20.3548
G1 X189.03 Y124.648 E20.53755
G1 X191.144 Y126.335 E20.71649
G1 X193.289 Y127.95 E20.89413
G1 X193.94 Y128.428 E20.94756
G1 X194.688 Y129.015 E21.01047
G1 X195.508 Y129.753 E21.08346
G1 X196.124 Y130.401 E21.14261
G1 X196.57 Y130.919 E21.18783
G1 X196.916 Y131.359 E21.22487
G1 X197.374 Y131.994 E21.27667
G1 X197.756 Y132.597 E21.32389
G1 X198.085 Y133.184 E21.36841
G1 X198.423 Y133.832 E21.41677
G1 X198.916 Y135.005 E21.50095
G1 X199.223 Y135.938 E21.56593
G1 X199.435 Y136.764 E21.62235
G1 X199.585 Y137.506 E21.67244
G1 X199.69 Y138.201 E21.71894
G1 X199.757 Y138.886 E21.76448
G1 X199.798 Y139.7 E21.8184
G1 X199.797 Y140.432 E21.86683
G1 X199.768 Y140.955 E21.90149
G1 X199.708 Y141.613 E21.9452
G1 X199.58 Y142.431 E21.99998
G1 X199.446 Y143.098 E22.04499
G1 X199.236 Y143.919 E22.10105
G1 X198.824 Y145.161 E22.18763
G1 X198.36 Y146.201 E22.26297
G1 X198.017 Y146.862 E22.31224
G1 X197.66 Y147.482 E22.35958
G1 X197.049 Y148.392 E22.4321
G1 X196.237 Y149.442 E22.51991
G1 X195.481 Y150.395 E22.60039
G1 X193.836 Y152.592 E22.78198
G1 X192.292 Y154.78 E22.95915
G1 X190.78 Y157.056 E23.13993
G1 X189.356 Y159.339 E23.31795
G1 X187.988 Y161.676 E23.49711
G1 X186.064 Y165.216 E23.76368
G1 X185.707 Y165.821 E23.81015
G1 X185.105 Y166.699 E23.88059
G1 X184.431 Y167.55 E23.95241
G1 X183.694 Y168.354 E24.02457
G1 X183.176 Y168.848 E24.07193
G1 X182.416 Y169.484 E24.13749
G1 X181.709 Y169.998 E24.19532
G1 X180.688 Y170.69 E24.27693
G1 X168.902 Y178.409 E25.20905
G1 X167.732 Y179.145 E25.3005
G1 X167.171 Y179.469 E25.34336
G1 X166.353 Y179.858 E25.40328
G1 X165.529 Y180.18 E25.46182
G1 X164.632 Y180.457 E25.52393
G1 X163.87 Y180.63 E25.57562
G1 X163.121 Y180.755 E25.62586
G1 X162.53 Y180.821 E25.66521
G1 X161.78 Y180.868 E25.71493
G1 X161.083 Y180.862 E25.76104
G1 X160.572 Y180.833 E25.7949
G1 X159.845 Y180.763 E25.84323
G1 X158.875 Y180.596 E25.90835
G1 X158.007 Y180.374 E25.96762
G1 X157.121 Y180.077 E26.02945
G1 X156.228 Y179.697 E26.09365
G1 X155.412 Y179.276 E26.1544
G1 X154.781 Y178.886 E26.20348
G1 X154.216 Y178.496 E26.2489
G1 X153.801 Y178.186 E26.28317
G1 X152.963 Y177.516 E26.35416
G1 X152.127 Y176.778 E26.42794
G1 X151.325 Y176.002 E26.50177
G1 X150.725 Y175.373 E26.55928
G1 X149.975 Y174.518 E26.63453
G1 X147.996 Y172.2 E26.83618
G1 X146.172 Y170.188 E27.01585
G1 X144.296 Y168.231 E27.19521
G1 X142.363 Y166.33 E27.37458
G1 X140.4 Y164.502 E27.55205
G1 X138.363 Y162.711 E27.7315
G1 X136.253 Y160.961 E27.91286
G1 X134.145 Y159.308 E28.0901
G1 X131.956 Y157.691 E28.27015
G1 X129.234 Y155.809 E28.48909
G1 X128.391 Y155.248 E28.55609
G1 X127.797 Y154.8 E28.60531
G1 X127.246 Y154.361 E28.65192
G1 X126.502 Y153.686 E28.71838
G1 X125.961 Y153.158 E28.7684
G1 X125.388 Y152.495 E28.82638
G1 X125.07 Y152.095 E28.86018
G1 X124.533 Y151.347 E28.9211
G1 X124.207 Y150.833 E28.96137
G1 X123.826 Y150.176 E29.01162
G1 X123.455 Y149.424 E29.0671
G1 X123.201 Y148.842 E29.10911
G1 X122.937 Y148.166 E29.15713
G1 X122.68 Y147.349 E29.21379
G1 X122.546 Y146.844 E29.24836
G1 X122.372 Y146.059 E29.30156
G1 X122.251 Y145.279 E29.35378
G1 X122.17 Y144.556 E29.40191
G1 X122.131 Y143.514 E29.4709
G1 X122.141 Y142.649 E29.52813
G1 X122.178 Y142.138 E29.56203
G1 X122.276 Y141.395 E29.61161
G1 X122.409 Y140.621 E29.66357
G1 X122.703 Y139.367 E29.74879
G1 X122.887 Y138.795 E29.78854
G1 X123.105 Y138.227 E29.82879
G1 X123.418 Y137.495 E29.88146
G1 X123.867 Y136.572 E29.94937
G1 X124.586 Y135.404 E30.04011
G1 X125.374 Y134.346 E30.12739
G1 X126.69 Y132.652 E30.26932
G1 X128.292 Y130.466 E30.44862
G1 X129.837 Y128.227 E30.6286
G1 X131.297 Y125.977 E30.80605
G1 X132.505 Y123.995 E30.95962
G0 F720 X132.719 Y123.643
M204 S1000
M205 X30 Y30
G1 F2700 E26.95962
G0 F1350 X130.247 Y128.538
M204 S500
M205 X10 Y10
G1 F2700 E30.95962
G1 F900 X131.756 Y126.215 E31.14289
G1 X133.152 Y123.923 E31.32045
G1 X134.511 Y121.547 E31.50154
G1 X135.818 Y119.102 E31.68497
G1 X136.728 Y117.306 E31.81817
G1 X137.231 Y116.394 E31.88708
G1 X137.693 Y115.678 E31.94346
G1 X138.1 Y115.105 E31.98996
G1 X138.94 Y114.122 E32.0755
G1 X139.631 Y113.429 E32.14025
G1 X140.291 Y112.851 E32.19829
G1 X141.064 Y112.261 E32.26263
G1 X141.738 Y111.815 E32.3161
G1 X142.697 Y111.224 E32.39063
G1 X155.069 Y103.885 E33.34235
G1 X155.838 Y103.443 E33.40103
G1 X156.457 Y103.12 E33.44723
G1 X157.411 Y102.706 E33.51603
G1 X158.456 Y102.364 E33.58878
G1 X159.535 Y102.12 E33.66197
G1 X160.67 Y101.973 E33.73769
G1 X161.813 Y101.938 E33.81334
G1 X162.958 Y102.015 E33.88927
G1 X164.037 Y102.19 E33.96159
G1 X165.124 Y102.478 E34.03599
G1 X166.147 Y102.85 E34.108
G1 X167.188 Y103.35 E34.18441
G1 X168.202 Y103.962 E34.26277
G1 X168.735 Y104.354 E34.30654
G1 X169.289 Y104.794 E34.35335
G1 X170.216 Y105.618 E34.43541
G1 X170.747 Y106.127 E34.48407
G1 X171.523 Y106.929 E34.55791
G1 X172.022 Y107.489 E34.60753
G1 X172.652 Y108.25 E34.67289
G1 X173.552 Y109.418 E34.77045
G1 X175.257 Y111.564 E34.95179
G1 X177.009 Y113.648 E35.13191
G1 X178.817 Y115.678 E35.31177
G1 X180.675 Y117.652 E35.49112
G1 X182.608 Y119.589 E35.67217
G1 X184.592 Y121.471 E35.85309
G1 X186.59 Y123.257 E36.0304
G1 X188.706 Y125.048 E36.21381
G1 X190.8 Y126.719 E36.39105
G1 X193.032 Y128.4 E36.57592
G1 X193.622 Y128.833 E36.62434
G1 X194.358 Y129.41 E36.68621
G1 X195.139 Y130.113 E36.75573
G1 X195.611 Y130.603 E36.80075
G1 X196.165 Y131.238 E36.8565
G1 X196.616 Y131.818 E36.90511
G1 X197.028 Y132.395 E36.95202
G1 X197.308 Y132.85 E36.98736
G1 X197.568 Y133.31 E37.02232
G1 X197.956 Y134.05 E37.0776
G1 X198.445 Y135.213 E37.16107
G1 X198.756 Y136.189 E37.22884
G1 X198.931 Y136.87 E37.27536
G1 X199.077 Y137.586 E37.32371
G1 X199.178 Y138.256 E37.36854
G1 X199.243 Y138.915 E37.41235
G1 X199.283 Y139.704 E37.46462
G1 X199.283 Y140.407 E37.51113
G1 X199.256 Y140.909 E37.54439
G1 X199.198 Y141.546 E37.58671
G1 X199.072 Y142.351 E37.64061
G1 X198.942 Y142.993 E37.68395
G1 X198.74 Y143.777 E37.73752
G1 X198.444 Y144.669 E37.7997
G1 X198.237 Y145.214 E37.83827
G1 X197.948 Y145.863 E37.88527
G1 X197.56 Y146.624 E37.94178
G1 X197.271 Y147.126 E37.98011
G1 X196.639 Y148.079 E38.05576
G1 X195.834 Y149.122 E38.14293
G1 X195.047 Y150.114 E38.22671
G1 X193.449 Y152.249 E38.40315
G1 X191.854 Y154.508 E38.5861
G1 X190.342 Y156.784 E38.76688
G1 X188.912 Y159.076 E38.94562
G1 X187.545 Y161.413 E39.12474
G1 X185.611 Y164.971 E39.39267
G1 X185.269 Y165.549 E39.43711
G1 X184.693 Y166.389 E39.50449
G1 X184.031 Y167.225 E39.57504
G1 X183.256 Y168.06 E39.65041
G1 X182.829 Y168.466 E39.6894
G1 X182.096 Y169.079 E39.75262
G1 X181.42 Y169.572 E39.80797
G1 X180.458 Y170.225 E39.8849
G1 X168.628 Y177.973 E40.8205
G1 X167.458 Y178.709 E40.91195
G1 X166.937 Y179.01 E40.95176
G1 X166.145 Y179.385 E41.00974
G1 X165.354 Y179.695 E41.06595
G1 X164.509 Y179.956 E41.12446
G1 X163.619 Y180.158 E41.18484
G1 X162.718 Y180.293 E41.24511
G1 X161.894 Y180.345 E41.29974
G1 X161.264 Y180.351 E41.34142
G1 X160.621 Y180.321 E41.38401
G1 X159.927 Y180.254 E41.43014
G1 X158.979 Y180.091 E41.49378
G1 X158.156 Y179.88 E41.54999
G1 X157.303 Y179.595 E41.60949
G1 X156.453 Y179.233 E41.67062
G1 X155.656 Y178.821 E41.72998
G1 X154.733 Y178.241 E41.8021
G1 X154.029 Y177.711 E41.8604
G1 X153.302 Y177.128 E41.92205
G1 X152.484 Y176.407 E41.99419
G1 X151.813 Y175.762 E42.05577
G1 X151.098 Y175.017 E42.12409
G1 X150.367 Y174.184 E42.19741
G1 X148.374 Y171.85 E42.40047
G1 X146.545 Y169.832 E42.58066
G1 X144.665 Y167.871 E42.76039
G1 X142.749 Y165.986 E42.93822
G1 X140.725 Y164.102 E43.12116
G1 X138.685 Y162.309 E43.30085
G1 X136.591 Y160.571 E43.48089
G1 X134.442 Y158.886 E43.66157
G1 X132.283 Y157.291 E43.83916
G1 X129.501 Y155.368 E44.06291
G1 X128.604 Y154.764 E44.13446
G1 X128.107 Y154.389 E44.17565
G1 X127.494 Y153.891 E44.2279
G1 X126.848 Y153.305 E44.28561
G1 X126.332 Y152.799 E44.33342
G1 X125.792 Y152.175 E44.38802
G1 X125.197 Y151.418 E44.45172
G1 X124.653 Y150.575 E44.5181
G1 X124.237 Y149.845 E44.57369
G1 X123.927 Y149.218 E44.61996
G1 X123.673 Y148.636 E44.66198
G1 X123.394 Y147.903 E44.71387
G1 X123.178 Y147.217 E44.76145
G1 X123.044 Y146.712 E44.79602
G1 X122.9 Y146.063 E44.84
G1 X122.788 Y145.406 E44.88409
G1 X122.685 Y144.534 E44.94219
G1 X122.646 Y143.52 E45.00932
G1 X122.659 Y142.429 E45.08151
G1 X122.786 Y141.463 E45.14597
G1 X122.911 Y140.737 E45.19471
G1 X123.108 Y139.888 E45.25237
G1 X123.25 Y139.347 E45.28938
G1 X123.533 Y138.543 E45.34577
G1 X123.881 Y137.72 E45.40489
G1 X124.315 Y136.827 E45.47058
G1 X125.015 Y135.691 E45.55886
G1 X125.833 Y134.593 E45.64945
G1 X127.113 Y132.946 E45.78745
G1 X128.729 Y130.74 E45.96837
G1 X130.013 Y128.878 E46.11801
G0 F720 X130.247 Y128.538
M204 S1000
M205 X30 Y30
G1 F2700 E42.11801
G0 F1350 X127.519 Y133.263
M204 S500
M205 X10 Y10
G1 F2700 E46.11801
G1 F900 X129.135 Y131.058 E46.29888
G1 X130.686 Y128.809 E46.47963
G1 X132.189 Y126.494 E46.66224
G1 X133.594 Y124.187 E46.84095
G1 X134.966 Y121.789 E47.02374
G1 X136.252 Y119.383 E47.20423
G1 X137.187 Y117.539 E47.34102
G1 X137.672 Y116.661 E47.40738
G1 X138.126 Y115.957 E47.4628
G1 X138.511 Y115.416 E47.50673
G1 X139.313 Y114.477 E47.58844
G1 X139.979 Y113.809 E47.65084
G1 X140.618 Y113.249 E47.70706
G1 X141.368 Y112.676 E47.7695
G1 X141.914 Y112.313 E47.81288
G1 X142.96 Y111.667 E47.89422
G1 X155.325 Y104.331 E48.84544
G1 X156.094 Y103.889 E48.90412
G1 X156.584 Y103.634 E48.94067
G1 X157.593 Y103.188 E49.01365
G1 X158.589 Y102.862 E49.08299
G1 X159.622 Y102.628 E49.15307
G1 X160.721 Y102.486 E49.22638
G1 X161.794 Y102.453 E49.2974
