; generated by PrusaSlicer 2.5.0+win64 on 2022-10-02 at 13:17:49 UTC

; 

; external perimeters extrusion width = 0.56mm
; perimeters extrusion width = 0.56mm
; infill extrusion width = 0.56mm
; solid infill extrusion width = 0.56mm
; top infill extrusion width = 0.50mm
; first layer extrusion width = 0.40mm

M73 P0 R472
M73 Q0 S474
M201 X1000 Y1000 Z200 E5000 ; sets maximum accelerations, mm/sec^2
M203 X200 Y200 Z12 E120 ; sets maximum feedrates, mm / sec
M204 P1250 R1250 T1250 ; sets acceleration (P, T) and retract acceleration (R), mm/sec^2
M205 X10.00 Y10.00 Z0.20 E2.50 ; sets the jerk limits, mm/sec
M205 S0 T0 ; sets the minimum extruding and travel feed rate, mm/sec
M107
;TYPE:Custom
M115 U3.9.3 ; tell printer latest fw version
G90 ; use absolute coordinates
M83 ; extruder relative mode
M104 S200 ; set extruder temp
M140 S55 ; set bed temp
M190 S55 ; wait for bed temp
M109 S200 ; wait for extruder temp
G28 W ; home all without mesh bed level
G80 ; mesh bed leveling
G92 E0.0
G1 Z2.0 F3000 ;Move Z Axis up
G92 E0.0
G1 Z2.0 F3000 ;Move Z Axis up
G21 ; set units to millimeters
G90 ; use absolute coordinates
M83 ; use relative distances for extrusion
; Filament gcode
M107
;LAYER_CHANGE
;Z:0.2
;HEIGHT:0.2
;BEFORE_LAYER_CHANGE
G92 E0.0
;0.2


G1 E-6 F4800
G1 Z.2 F7800
;AFTER_LAYER_CHANGE
;0.2
G1 X74.111 Y100.205
G1 E6 F3000
;TYPE:Skirt/Brim
;WIDTH:0.4
G1 F1800
G1 X76.301 Y99.299 E.07037
G1 X77.839 Y99.123 E.04595
G1 X164.098 Y98.735 E2.56117
G1 X232.13 Y98.735 E2.01995
G1 X234.466 Y99.132 E.07037
M73 Q0 S473
G1 X236.54 Y100.279 E.07037
G1 X238.119 Y102.047 E.07037
G1 X239.024 Y104.237 E.07037
G1 X239.201 Y105.806 E.04689
G1 X239.201 Y201.806 E2.85036
G1 X238.804 Y204.143 E.07037
G1 X237.657 Y206.217 E.07037
G1 X235.889 Y207.795 E.07037
G1 X233.699 Y208.701 E.07037
G1 X232.335 Y208.875 E.04083
G1 X149.87 Y211.265 E2.4495
G1 X77.87 Y211.265 E2.13777
G1 X75.534 Y210.868 E.07037
G1 X73.46 Y209.721 E.07037
G1 X71.881 Y207.953 E.07037
G1 X70.976 Y205.763 E.07037
G1 X70.799 Y204.194 E.04689
G1 X70.799 Y106.194 E2.90975
G1 X71.196 Y103.857 E.07037
G1 X72.343 Y101.783 E.07037
G1 X74.055 Y100.255 E.06814
G1 X74.302 Y100.544 F7800
G1 F1800
G1 X74.453 Y100.414 E.00591
G1 X76.613 Y99.598 E.06856
G1 X77.84 Y99.48 E.0366
G1 X164.099 Y99.092 E2.56117
G1 X232.13 Y99.092 E2.0199
G1 X234.404 Y99.489 E.06856
G1 X236.41 Y100.633 E.06856
G1 X237.909 Y102.389 E.06856
G1 X238.725 Y104.549 E.06856
G1 X238.844 Y105.806 E.03749
G1 X238.844 Y201.806 E2.85036
G1 X238.447 Y204.081 E.06856
G1 X237.303 Y206.086 E.06856
G1 X235.547 Y207.586 E.06856
G1 X232.324 Y208.518 E.0996
G1 X149.87 Y210.908 E2.44919
G1 X77.87 Y210.908 E2.13777
G1 X75.596 Y210.511 E.06856
G1 X73.59 Y209.367 E.06856
G1 X72.091 Y207.611 E.06856
G1 X71.275 Y205.451 E.06856
G1 X71.156 Y204.194 E.03749
G1 X71.156 Y106.194 E2.90975
G1 X71.553 Y103.919 E.06856
G1 X72.697 Y101.914 E.06856
G1 X74.245 Y100.592 E.06042
G1 X74.482 Y100.884 F7800
G1 F1800
G1 X74.794 Y100.631 E.01193
G1 X77.842 Y99.837 E.09352
G1 X164.101 Y99.449 E2.56117
G1 X232.13 Y99.449 E2.01986
G1 X234.34 Y99.846 E.06669
M73 P0 R471
G1 X236.275 Y100.987 E.06669
G1 X237.693 Y102.73 E.06669
G1 X238.487 Y105.806 E.09434
G1 X238.487 Y201.806 E2.85036
G1 X238.09 Y204.017 E.06669
G1 X236.949 Y205.952 E.06669
G1 X235.206 Y207.369 E.06669
G1 X232.314 Y208.161 E.08903
G1 X150.055 Y210.548 E2.44341
G1 X77.87 Y210.551 E2.14325
G1 X75.66 Y210.154 E.06669
G1 X73.725 Y209.013 E.06669
G1 X72.307 Y207.27 E.06669
G1 X71.513 Y204.194 E.09434
G1 X71.513 Y106.194 E2.90975
G1 X71.91 Y103.983 E.06669
G1 X73.051 Y102.048 E.06669
G1 X74.424 Y100.931 E.05254
G1 E-.9 F4800
;WIPE_START
G1 F6240
G1 X74.794 Y100.631 E-.3484
G1 X77.842 Y99.837 E-2.30167
G1 X80.845 Y99.823 E-2.19493
;WIPE_END
G1 E-.255 F4800
G1 X148.956 Y203.28 F7800
G1 E6 F3000
;TYPE:Perimeter
;WIDTH:0.399999
G1 F1800
G1 X78.785 Y203.28 E2.08348
G1 X78.785 Y107.108 E2.85546
G1 X148.956 Y107.108 E2.08348
G1 X148.956 Y203.205 E2.85323
M73 Q0 S472
G1 X149.313 Y203.637 F7800
G1 F1800
G1 X78.428 Y203.637 E2.10469
G1 X78.428 Y106.751 E2.87666
G1 X149.313 Y106.751 E2.10469
G1 X149.313 Y203.562 E2.87443
G1 X149.67 Y203.994 F7800
;TYPE:External perimeter
G1 F1800
G1 X78.07 Y203.994 E2.12589
G1 X78.07 Y106.394 E2.89787
G1 X149.67 Y106.394 E2.12589
G1 X149.67 Y203.919 E2.89564
G1 X149.195 Y203.84 F7800
G1 E-.9 F4800
;WIPE_START
G1 F6240
G1 X143.04 Y203.926 E-4.845
;WIPE_END
G1 E-.255 F4800
G1 X148.126 Y107.215 F7800
G1 E6 F3000
;TYPE:Solid infill
;WIDTH:0.400755
G1 F1800
G1 X148.689 Y107.778 E.02368
G1 X148.689 Y108.284 E.01506
G1 X147.78 Y107.376 E.03821
G1 X147.274 Y107.376 E.01506
G1 X148.689 Y108.79 E.05951
G1 X148.689 Y109.296 E.01506
G1 X146.768 Y107.376 E.0808
G1 X146.262 Y107.376 E.01506
G1 X148.689 Y109.802 E.1021
G1 X148.689 Y110.308 E.01506
G1 X145.756 Y107.376 E.12339
G1 X145.25 Y107.376 E.01506
G1 X148.689 Y110.814 E.14468
G1 X148.689 Y111.32 E.01506
G1 X144.744 Y107.376 E.16598
G1 X144.238 Y107.376 E.01506
G1 X148.689 Y111.826 E.18727
G1 X148.689 Y112.332 E.01506
G1 X143.732 Y107.376 E.20857
G1 X143.226 Y107.376 E.01506
G1 X148.689 Y112.838 E.22986
G1 X148.689 Y113.344 E.01506
G1 X142.72 Y107.376 E.25115
G1 X142.214 Y107.376 E.01506
G1 X148.689 Y113.85 E.27245
G1 X148.689 Y114.356 E.01506
G1 X141.708 Y107.376 E.29374
G1 X141.202 Y107.376 E.01506
G1 X148.689 Y114.863 E.31504
G1 X148.689 Y115.369 E.01506
G1 X140.696 Y107.376 E.33633
G1 X140.19 Y107.376 E.01506
G1 X148.689 Y115.875 E.35762
G1 X148.689 Y116.381 E.01506
G1 X139.684 Y107.376 E.37892
G1 X139.177 Y107.376 E.01506
G1 X148.689 Y116.887 E.40021
G1 X148.689 Y117.393 E.01506
G1 X138.671 Y107.376 E.42151
G1 X138.165 Y107.376 E.01506
G1 X148.689 Y117.899 E.4428
G1 X148.689 Y118.405 E.01506
G1 X137.659 Y107.376 E.4641
G1 X137.153 Y107.376 E.01506
G1 X148.689 Y118.911 E.48539
G1 X148.689 Y119.417 E.01506
G1 X136.647 Y107.376 E.50668
G1 X136.141 Y107.376 E.01506
G1 X148.689 Y119.923 E.52798
G1 X148.689 Y120.429 E.01506
G1 X135.635 Y107.376 E.54927
G1 X135.129 Y107.376 E.01506
G1 X148.689 Y120.935 E.57057
G1 X148.689 Y121.441 E.01506
G1 X134.623 Y107.376 E.59186
G1 X134.117 Y107.376 E.01506
M73 P0 R470
G1 X148.689 Y121.947 E.61315
G1 X148.689 Y122.453 E.01506
G1 X133.611 Y107.376 E.63445
G1 X133.105 Y107.376 E.01506
G1 X148.689 Y122.959 E.65574
G1 X148.689 Y123.465 E.01506
G1 X132.599 Y107.376 E.67704
G1 X132.093 Y107.376 E.01506
G1 X148.689 Y123.972 E.69833
G1 X148.689 Y124.478 E.01506
G1 X131.587 Y107.376 E.71962
G1 X131.081 Y107.376 E.01506
G1 X148.689 Y124.984 E.74092
G1 X148.689 Y125.49 E.01506
G1 X130.575 Y107.376 E.76221
G1 X130.068 Y107.376 E.01506
G1 X148.689 Y125.996 E.78351
G1 X148.689 Y126.502 E.01506
G1 X129.562 Y107.376 E.8048
G1 X129.056 Y107.376 E.01506
G1 X148.689 Y127.008 E.8261
G1 X148.689 Y127.514 E.01506
G1 X128.55 Y107.376 E.84739
G1 X128.044 Y107.376 E.01506
G1 X148.689 Y128.02 E.86868
G1 X148.689 Y128.526 E.01506
G1 X127.538 Y107.376 E.88998
G1 X127.032 Y107.376 E.01506
G1 X148.689 Y129.032 E.91127
G1 X148.689 Y129.538 E.01506
G1 X126.526 Y107.376 E.93257
G1 X126.02 Y107.376 E.01506
G1 X148.689 Y130.044 E.95386
G1 X148.689 Y130.55 E.01506
G1 X125.514 Y107.376 E.97515
G1 X125.008 Y107.376 E.01506
G1 X148.689 Y131.056 E.99645
G1 X148.689 Y131.562 E.01506
G1 X124.502 Y107.376 E1.01774
G1 X123.996 Y107.376 E.01506
G1 X148.689 Y132.068 E1.03904
G1 X148.689 Y132.574 E.01506
G1 X123.49 Y107.376 E1.06033
G1 X122.984 Y107.376 E.01506
M73 Q0 S471
G1 X148.689 Y133.081 E1.08162
G1 X148.689 Y133.587 E.01506
G1 X122.478 Y107.376 E1.10292
G1 X121.972 Y107.376 E.01506
G1 X148.689 Y134.093 E1.12421
G1 X148.689 Y134.599 E.01506
G1 X121.466 Y107.376 E1.14551
G1 X120.959 Y107.376 E.01506
G1 X148.689 Y135.105 E1.1668
G1 X148.689 Y135.611 E.01506
G1 X120.453 Y107.376 E1.1881
G1 X119.947 Y107.376 E.01506
G1 X148.689 Y136.117 E1.20939
G1 X148.689 Y136.623 E.01506
G1 X119.441 Y107.376 E1.23068
G1 X118.935 Y107.376 E.01506
G1 X148.689 Y137.129 E1.25198
G1 X148.689 Y137.635 E.01506
G1 X118.429 Y107.376 E1.27327
G1 X117.923 Y107.376 E.01506
G1 X148.689 Y138.141 E1.29457
G1 X148.689 Y138.647 E.01506
G1 X117.417 Y107.376 E1.31586
G1 X116.911 Y107.376 E.01506
G1 X148.689 Y139.153 E1.33715
G1 X148.689 Y139.659 E.01506
G1 X116.405 Y107.376 E1.35845
G1 X115.899 Y107.376 E.01506
G1 X148.689 Y140.165 E1.37974
G1 X148.689 Y140.671 E.01506
G1 X115.393 Y107.376 E1.40104
G1 X114.887 Y107.376 E.01506
G1 X148.689 Y141.177 E1.42233
G1 X148.689 Y141.683 E.01506
G1 X114.381 Y107.376 E1.44362
G1 X113.875 Y107.376 E.01506
G1 X148.689 Y142.19 E1.46492
G1 X148.689 Y142.696 E.01506
G1 X113.369 Y107.376 E1.48621
G1 X112.863 Y107.376 E.01506
G1 X148.689 Y143.202 E1.50751
G1 X148.689 Y143.708 E.01506
G1 X112.357 Y107.376 E1.5288
G1 X111.85 Y107.376 E.01506
G1 X148.689 Y144.214 E1.5501
G1 X148.689 Y144.72 E.01506
G1 X111.344 Y107.376 E1.57139
G1 X110.838 Y107.376 E.01506
G1 X148.689 Y145.226 E1.59268
G1 X148.689 Y145.732 E.01506
M73 P0 R469
G1 X110.332 Y107.376 E1.61398
G1 X109.826 Y107.376 E.01506
G1 X148.689 Y146.238 E1.63527
G1 X148.689 Y146.744 E.01506
G1 X109.32 Y107.376 E1.65657
G1 X108.814 Y107.376 E.01506
G1 X148.689 Y147.25 E1.67786
G1 X148.689 Y147.756 E.01506
G1 X108.308 Y107.376 E1.69915
G1 X107.802 Y107.376 E.01506
G1 X148.689 Y148.262 E1.72045
G1 X148.689 Y148.768 E.01506
G1 X107.296 Y107.376 E1.74174
G1 X106.79 Y107.376 E.01506
G1 X148.689 Y149.274 E1.76304
G1 X148.689 Y149.78 E.01506
G1 X106.284 Y107.376 E1.78433
G1 X105.778 Y107.376 E.01506
G1 X148.689 Y150.286 E1.80562
G1 X148.689 Y150.792 E.01506
G1 X105.272 Y107.376 E1.82692
G1 X104.766 Y107.376 E.01506
M73 Q0 S470
G1 X148.689 Y151.298 E1.84821
G1 X148.689 Y151.805 E.01506
G1 X104.26 Y107.376 E1.86951
G1 X103.754 Y107.376 E.01506
G1 X148.689 Y152.311 E1.8908
G1 X148.689 Y152.817 E.01506
G1 X103.248 Y107.376 E1.9121
G1 X102.741 Y107.376 E.01506
G1 X148.689 Y153.323 E1.93339
G1 X148.689 Y153.829 E.01506
G1 X102.235 Y107.376 E1.95468
G1 X101.729 Y107.376 E.01506
G1 X148.689 Y154.335 E1.97598
G1 X148.689 Y154.841 E.01506
G1 X101.223 Y107.376 E1.99727
G1 X100.717 Y107.376 E.01506
G1 X148.689 Y155.347 E2.01857
G1 X148.689 Y155.853 E.01506
G1 X100.211 Y107.376 E2.03986
G1 X99.705 Y107.376 E.01506
G1 X148.689 Y156.359 E2.06115
G1 X148.689 Y156.865 E.01506
G1 X99.199 Y107.376 E2.08245
G1 X98.693 Y107.376 E.01506
G1 X148.689 Y157.371 E2.10374
G1 X148.689 Y157.877 E.01506
G1 X98.187 Y107.376 E2.12504
G1 X97.681 Y107.376 E.01506
G1 X148.689 Y158.383 E2.14633
G1 X148.689 Y158.889 E.01506
G1 X97.175 Y107.376 E2.16762
G1 X96.669 Y107.376 E.01506
G1 X148.689 Y159.395 E2.18892
G1 X148.689 Y159.901 E.01506
M73 P0 R468
G1 X96.163 Y107.376 E2.21021
G1 X95.657 Y107.376 E.01506
G1 X148.689 Y160.407 E2.23151
G1 X148.689 Y160.914 E.01506
G1 X95.151 Y107.376 E2.2528
G1 X94.645 Y107.376 E.01506
G1 X148.689 Y161.42 E2.2741
G1 X148.689 Y161.926 E.01506
G1 X94.139 Y107.376 E2.29539
G1 X93.632 Y107.376 E.01506
G1 X148.689 Y162.432 E2.31668
G1 X148.689 Y162.938 E.01506
G1 X93.126 Y107.376 E2.33798
G1 X92.62 Y107.376 E.01506
G1 X148.689 Y163.444 E2.35927
G1 X148.689 Y163.95 E.01506
M73 Q0 S469
G1 X92.114 Y107.376 E2.38057
G1 X91.608 Y107.376 E.01506
G1 X148.689 Y164.456 E2.40186
G1 X148.689 Y164.962 E.01506
G1 X91.102 Y107.376 E2.42315
G1 X90.596 Y107.376 E.01506
G1 X148.689 Y165.468 E2.44445
G1 X148.689 Y165.974 E.01506
G1 X90.09 Y107.376 E2.46574
G1 X89.584 Y107.376 E.01506
G1 X148.689 Y166.48 E2.48704
G1 X148.689 Y166.986 E.01506
G1 X89.078 Y107.376 E2.50833
G1 X88.572 Y107.376 E.01506
G1 X148.689 Y167.492 E2.52962
G1 X148.689 Y167.998 E.01506
G1 X88.066 Y107.376 E2.55092
G1 X87.56 Y107.376 E.01506
G1 X148.689 Y168.504 E2.57221
G1 X148.689 Y169.01 E.01506
G1 X87.054 Y107.376 E2.59351
G1 X86.548 Y107.376 E.01506
G1 X148.689 Y169.516 E2.6148
G1 X148.689 Y170.023 E.01506
G1 X86.042 Y107.376 E2.6361
G1 X85.536 Y107.376 E.01506
G1 X148.689 Y170.529 E2.65739
G1 X148.689 Y171.035 E.01506
M73 P1 R467
M73 Q1 S469
G1 X85.03 Y107.376 E2.67868
G1 X84.524 Y107.376 E.01506
G1 X148.689 Y171.541 E2.69998
G1 X148.689 Y172.047 E.01506
G1 X84.017 Y107.376 E2.72127
G1 X83.511 Y107.376 E.01506
G1 X148.689 Y172.553 E2.74257
G1 X148.689 Y173.059 E.01506
G1 X83.005 Y107.376 E2.76386
G1 X82.499 Y107.376 E.01506
G1 X148.689 Y173.565 E2.78515
G1 X148.689 Y174.071 E.01506
G1 X81.993 Y107.376 E2.80645
G1 X81.487 Y107.376 E.01506
M73 Q1 S468
G1 X148.689 Y174.577 E2.82774
G1 X148.689 Y175.083 E.01506
G1 X80.981 Y107.376 E2.84904
G1 X80.475 Y107.376 E.01506
G1 X148.689 Y175.589 E2.87033
G1 X148.689 Y176.095 E.01506
G1 X79.969 Y107.376 E2.89162
G1 X79.463 Y107.376 E.01506
G1 X148.689 Y176.601 E2.91292
G1 X148.689 Y177.107 E.01506
G1 X79.052 Y107.471 E2.93019
G1 X79.052 Y107.977 E.01506
G1 X148.689 Y177.613 E2.93019
G1 X148.689 Y178.119 E.01506
G1 X79.052 Y108.483 E2.93019
G1 X79.052 Y108.989 E.01506
G1 X148.689 Y178.625 E2.93019
G1 X148.689 Y179.132 E.01506
G1 X79.052 Y109.495 E2.93019
G1 X79.052 Y110.001 E.01506
G1 X148.689 Y179.638 E2.93019
G1 X148.689 Y180.144 E.01506
G1 X79.052 Y110.508 E2.93019
G1 X79.052 Y111.014 E.01506
M73 P1 R466
G1 X148.689 Y180.65 E2.93019
G1 X148.689 Y181.156 E.01506
G1 X79.052 Y111.52 E2.93019
G1 X79.052 Y112.026 E.01506
G1 X148.689 Y181.662 E2.93019
G1 X148.689 Y182.168 E.01506
G1 X79.052 Y112.532 E2.93019
G1 X79.052 Y113.038 E.01506
G1 X148.689 Y182.674 E2.93019
G1 X148.689 Y183.18 E.01506
G1 X79.052 Y113.544 E2.93019
G1 X79.052 Y114.05 E.01506
M73 Q1 S467
G1 X148.689 Y183.686 E2.93019
G1 X148.689 Y184.192 E.01506
G1 X79.052 Y114.556 E2.93019
G1 X79.052 Y115.062 E.01506
G1 X148.689 Y184.698 E2.93019
G1 X148.689 Y185.204 E.01506
G1 X79.052 Y115.568 E2.93019
G1 X79.052 Y116.074 E.01506
G1 X148.689 Y185.71 E2.93019
G1 X148.689 Y186.216 E.01506
G1 X79.052 Y116.58 E2.93019
G1 X79.052 Y117.086 E.01506
G1 X148.689 Y186.722 E2.93019
G1 X148.689 Y187.228 E.01506
G1 X79.052 Y117.592 E2.93019
G1 X79.052 Y118.098 E.01506
G1 X148.689 Y187.734 E2.93019
G1 X148.689 Y188.241 E.01506
G1 X79.052 Y118.604 E2.93019
G1 X79.052 Y119.11 E.01506
G1 X148.689 Y188.747 E2.93019
G1 X148.689 Y189.253 E.01506
G1 X79.052 Y119.617 E2.93019
G1 X79.052 Y120.123 E.01506
M73 P1 R465
G1 X148.689 Y189.759 E2.93019
G1 X148.689 Y190.265 E.01506
G1 X79.052 Y120.629 E2.93019
G1 X79.052 Y121.135 E.01506
G1 X148.689 Y190.771 E2.93019
G1 X148.689 Y191.277 E.01506
G1 X79.052 Y121.641 E2.93019
G1 X79.052 Y122.147 E.01506
G1 X148.689 Y191.783 E2.93019
G1 X148.689 Y192.289 E.01506
G1 X79.052 Y122.653 E2.93019
G1 X79.052 Y123.159 E.01506
M73 Q1 S466
G1 X148.689 Y192.795 E2.93019
G1 X148.689 Y193.301 E.01506
G1 X79.052 Y123.665 E2.93019
G1 X79.052 Y124.171 E.01506
G1 X148.689 Y193.807 E2.93019
G1 X148.689 Y194.313 E.01506
G1 X79.052 Y124.677 E2.93019
G1 X79.052 Y125.183 E.01506
G1 X148.689 Y194.819 E2.93019
G1 X148.689 Y195.325 E.01506
G1 X79.052 Y125.689 E2.93019
G1 X79.052 Y126.195 E.01506
G1 X148.689 Y195.831 E2.93019
G1 X148.689 Y196.337 E.01506
G1 X79.052 Y126.701 E2.93019
G1 X79.052 Y127.207 E.01506
G1 X148.689 Y196.843 E2.93019
G1 X148.689 Y197.35 E.01506
G1 X79.052 Y127.713 E2.93019
G1 X79.052 Y128.219 E.01506
G1 X148.689 Y197.856 E2.93019
G1 X148.689 Y198.362 E.01506
G1 X79.052 Y128.726 E2.93019
G1 X79.052 Y129.232 E.01506
M73 P1 R464
G1 X148.689 Y198.868 E2.93019
G1 X148.689 Y199.374 E.01506
G1 X79.052 Y129.738 E2.93019
G1 X79.052 Y130.244 E.01506
G1 X148.689 Y199.88 E2.93019
G1 X148.689 Y200.386 E.01506
G1 X79.052 Y130.75 E2.93019
G1 X79.052 Y131.256 E.01506
G1 X148.689 Y200.892 E2.93019
G1 X148.689 Y201.398 E.01506
G1 X79.052 Y131.762 E2.93019
G1 X79.052 Y132.268 E.01506
M73 Q1 S465
G1 X148.689 Y201.904 E2.93019
G1 X148.689 Y202.41 E.01506
G1 X79.052 Y132.774 E2.93019
G1 X79.052 Y133.28 E.01506
G1 X148.689 Y202.916 E2.93019
G1 X148.689 Y203.012 E.00285
G1 X148.278 Y203.012 E.01221
G1 X79.052 Y133.786 E2.91293
G1 X79.052 Y134.292 E.01506
G1 X147.772 Y203.012 E2.89163
G1 X147.266 Y203.012 E.01506
G1 X79.052 Y134.798 E2.87034
G1 X79.052 Y135.304 E.01506
G1 X146.76 Y203.012 E2.84904
G1 X146.254 Y203.012 E.01506
G1 X79.052 Y135.81 E2.82775
G1 X79.052 Y136.316 E.01506
G1 X145.748 Y203.012 E2.80645
G1 X145.242 Y203.012 E.01506
