; generated by PrusaSlicer 2.5.0+win64 on 2022-09-30 at 13:06:37 UTC

; 

; external perimeters extrusion width = 0.56mm
; perimeters extrusion width = 0.56mm
; infill extrusion width = 0.56mm
; solid infill extrusion width = 0.56mm
; top infill extrusion width = 0.50mm
; first layer extrusion width = 0.40mm

M73 P0 R107
M73 Q0 S108
M201 X1000 Y1000 Z200 E5000 ; sets maximum accelerations, mm/sec^2
M203 X200 Y200 Z12 E120 ; sets maximum feedrates, mm / sec
M204 P1250 R1250 T1250 ; sets acceleration (P, T) and retract acceleration (R), mm/sec^2
M205 X10.00 Y10.00 Z0.20 E2.50 ; sets the jerk limits, mm/sec
M205 S0 T0 ; sets the minimum extruding and travel feed rate, mm/sec
M107
;TYPE:Custom
M115 U3.9.3 ; tell printer latest fw version
G90 ; use absolute coordinates
M83 ; extruder relative mode
M104 S200 ; set extruder temp
M140 S55 ; set bed temp
M190 S55 ; wait for bed temp
M109 S200 ; wait for extruder temp
G28 W ; home all without mesh bed level
G80 ; mesh bed leveling
G92 E0.0
G1 Z2.0 F3000 ;Move Z Axis up
G92 E0.0
G1 Z2.0 F3000 ;Move Z Axis up
G21 ; set units to millimeters
G90 ; use absolute coordinates
M83 ; use relative distances for extrusion
; Filament gcode
M107
;LAYER_CHANGE
;Z:0.2
;HEIGHT:0.2
;BEFORE_LAYER_CHANGE
G92 E0.0
;0.2


G1 E-6 F4800
G1 Z.2 F7800
;AFTER_LAYER_CHANGE
;0.2
G1 X128.247 Y140.462
G1 E6 F3000
;TYPE:Skirt/Brim
;WIDTH:0.4
G1 F1800
G1 X129.313 Y139.755 E.03798
G1 X130.37 Y139.25 E.03479
G1 X131.57 Y138.869 E.03738
G1 X132.754 Y138.667 E.03564
G1 X156.521 Y137.214 E.70701
G1 X158.122 Y137.177 E.04753
G1 X160.963 Y137.398 E.08462
G1 X163.868 Y138.02 E.0882
G1 X166.384 Y138.907 E.07922
G1 X168.962 Y140.203 E.08568
G1 X171.364 Y141.837 E.08626
G1 X173.479 Y143.724 E.08414
G1 X175.373 Y145.921 E.08612
G1 X176.959 Y148.352 E.08619
G1 X177.647 Y150.038 E.05407
G1 X177.953 Y151.768 E.05214
G1 X177.963 Y152.751 E.02919
G1 X177.874 Y153.624 E.02607
G1 X177.457 Y155.235 E.0494
G1 X176.594 Y156.968 E.05748
G1 X175.099 Y159.127 E.07798
G1 X173.52 Y160.923 E.071
G1 X171.754 Y162.542 E.07114
G1 X170.273 Y163.654 E.05499
G1 X168.679 Y164.65 E.05581
G1 X167.079 Y165.475 E.05344
G1 X165.301 Y166.208 E.05711
G1 X163.521 Y166.766 E.05538
G1 X161.637 Y167.184 E.0573
G1 X159.847 Y167.423 E.0536
G1 X157.932 Y167.515 E.05694
G1 X132.253 Y165.957 E.76385
G1 X130.712 Y165.568 E.0472
G1 X129.147 Y164.84 E.05123
G1 X127.827 Y163.882 E.04843
G1 X126.787 Y162.793 E.04471
G1 X126.207 Y161.979 E.02969
G1 X125.57 Y160.767 E.04065
G1 X125.188 Y159.693 E.03383
G1 X124.895 Y158.198 E.04523
G1 X124.84 Y157.224 E.02897
G1 X124.863 Y146.844 E.30821
G1 X125.188 Y144.997 E.05569
G1 X125.882 Y143.272 E.0552
G1 X126.902 Y141.756 E.05425
G1 X128.193 Y140.514 E.05318
G1 X128.439 Y140.769 F7800
G1 F1800
G1 X129.486 Y140.067 E.03743
G1 X130.501 Y139.582 E.03339
G1 X131.652 Y139.217 E.03586
G1 X132.788 Y139.023 E.03421
G1 X156.543 Y137.571 E.70663
G1 X158.119 Y137.534 E.04682
G1 X160.911 Y137.752 E.08314
G1 X163.772 Y138.364 E.08688
G1 X166.243 Y139.235 E.0778
G1 X168.779 Y140.51 E.08427
G1 X171.143 Y142.117 E.08487
G1 X173.226 Y143.977 E.08291
G1 X175.088 Y146.135 E.08464
G1 X176.645 Y148.521 E.08458
G1 X177.304 Y150.138 E.05186
G1 X177.596 Y151.791 E.04985
G1 X177.521 Y153.568 E.0528
G1 X177.121 Y155.113 E.04737
G1 X176.288 Y156.784 E.05545
G1 X174.817 Y158.908 E.07672
G1 X173.173 Y160.767 E.07367
G1 X171.451 Y162.328 E.06901
G1 X169.935 Y163.452 E.05602
G1 X168.355 Y164.423 E.05508
G1 X166.77 Y165.224 E.05274
G1 X165.03 Y165.926 E.0557
G1 X163.209 Y166.479 E.05652
G1 X161.573 Y166.833 E.04968
G1 X159.817 Y167.068 E.05261
G1 X157.932 Y167.158 E.05603
G1 X132.431 Y165.623 E.75852
G1 X130.888 Y165.251 E.04714
G1 X129.501 Y164.632 E.04508
G1 X128.289 Y163.806 E.04354
G1 X127.066 Y162.57 E.05164
G1 X126.508 Y161.787 E.02854
G1 X125.897 Y160.624 E.03901
G1 X125.531 Y159.593 E.03249
G1 X125.251 Y158.162 E.0433
G1 X125.197 Y157.224 E.02788
G1 X125.219 Y146.871 E.3074
G1 X125.531 Y145.097 E.05348
G1 X126.197 Y143.44 E.05302
G1 X127.176 Y141.986 E.05204
G1 X128.385 Y140.821 E.04986
G1 X128.631 Y141.077 F7800
G1 F1800
G1 X129.659 Y140.379 E.03688
G1 X130.631 Y139.915 E.03199
G1 X131.734 Y139.564 E.03434
G1 X132.822 Y139.378 E.03279
G1 X156.564 Y137.927 E.70625
G1 X158.117 Y137.891 E.04611
G1 X160.859 Y138.105 E.08166
G1 X163.676 Y138.708 E.08555
G1 X166.103 Y139.563 E.07638
G1 X168.596 Y140.816 E.08286
G1 X170.921 Y142.397 E.08348
G1 X172.973 Y144.229 E.08167
G1 X174.86 Y146.426 E.08599
G1 X176.349 Y148.724 E.0813
G1 X176.961 Y150.238 E.04848
G1 X177.145 Y151.035 E.02428
G1 X177.251 Y151.997 E.02874
G1 X177.161 Y153.562 E.04653
G1 X176.691 Y155.234 E.05157
G1 X175.743 Y156.985 E.05914
G1 X174.337 Y158.936 E.0714
G1 X172.784 Y160.651 E.06867
G1 X171.035 Y162.204 E.06947
G1 X169.659 Y163.207 E.05055
G1 X168.071 Y164.173 E.0552
G1 X166.553 Y164.931 E.05038
G1 X164.909 Y165.589 E.05256
G1 X163.118 Y166.134 E.0556
G1 X161.509 Y166.481 E.04886
G1 X159.786 Y166.712 E.05163
G1 X157.932 Y166.801 E.05512
G1 X132.484 Y165.27 E.75694
G1 X131.005 Y164.914 E.04518
G1 X129.674 Y164.319 E.04326
G1 X128.301 Y163.348 E.04993
G1 X127.319 Y162.316 E.0423
G1 X126.717 Y161.446 E.03144
G1 X126.141 Y160.28 E.0386
G1 X125.761 Y159.05 E.03822
G1 X125.606 Y158.125 E.02784
G1 X125.575 Y146.898 E.33334
G1 X125.873 Y145.198 E.05126
G1 X126.512 Y143.609 E.05085
G1 X127.449 Y142.216 E.04983
G1 X128.577 Y141.129 E.04653
G1 E-.9 F4800
;WIPE_START
G1 F6240
G1 X129.659 Y140.379 E-.96182
G1 X130.631 Y139.915 E-.78743
G1 X131.734 Y139.564 E-.84529
G1 X132.822 Y139.378 E-.80702
G1 X134.794 Y139.258 E-1.44344
;WIPE_END
G1 E-.255 F4800
G1 X164.049 Y154.472 F7800
G1 E6 F3000
;TYPE:Perimeter
;WIDTH:0.529812
G1 F1800
G1 X164.052 Y154.588 E.00469
;WIDTH:0.499326
G1 X164.093 Y154.963 E.01431
;WIDTH:0.449663
G1 X164.135 Y155.337 E.01275
;WIDTH:0.399999
G1 X164.332 Y155.777 E.01431
G1 X164.683 Y156.133 E.01483
G1 X164.971 Y156.267 E.00945
G1 X165.487 Y156.36 E.01555
G1 X166.03 Y156.333 E.01614
G1 X166.726 Y156.335 E.02066
G1 X166.126 Y156.804 E.02259
G1 X165.638 Y157.148 E.01775
G1 X164.95 Y157.582 E.02415
G1 X164.17 Y158.006 E.02636
G1 X163.322 Y158.4 E.02775
G1 X162.554 Y158.702 E.02452
G1 X162.013 Y158.888 E.01698
;WIDTH:0.447959
G1 X161.969 Y158.876 E.00152
;WIDTH:0.495919
G1 X161.926 Y158.863 E.0017
;WIDTH:0.543879
G1 X161.883 Y158.85 E.00188
;WIDTH:0.591839
G1 X161.839 Y158.837 E.00206
;WIDTH:0.639799
G1 X161.796 Y158.824 E.00224
;WIDTH:0.687758
G1 X161.753 Y158.812 E.00242
;WIDTH:0.735718
G1 X161.709 Y158.799 E.0026
G1 X161.733 Y158.76 E.0026
;WIDTH:0.687758
G1 X161.757 Y158.722 E.00242
;WIDTH:0.639799
G1 X161.78 Y158.684 E.00224
;WIDTH:0.591839
G1 X161.804 Y158.645 E.00206
;WIDTH:0.543879
G1 X161.828 Y158.607 E.00188
;WIDTH:0.495919
G1 X161.852 Y158.568 E.0017
;WIDTH:0.447959
G1 X161.875 Y158.53 E.00152
;WIDTH:0.399999
G1 X162.287 Y158.225 E.01522
G1 X162.721 Y157.663 E.02107
G1 X162.875 Y157.357 E.01018
G1 X163.207 Y156.576 E.02518
G1 X163.815 Y154.933 E.05203
;WIDTH:0.44327
G1 X163.893 Y154.779 E.00573
;WIDTH:0.486541
G1 X163.971 Y154.626 E.00635
;WIDTH:0.529812
G1 X164.015 Y154.539 E.00394
G1 E-.9 F4800
;WIPE_START
G1 F6240
G1 X164.052 Y154.588 E-.04463
G1 X164.093 Y154.963 E-.2755
G1 X164.135 Y155.337 E-.2755
G1 X164.332 Y155.777 E-.35222
G1 X164.683 Y156.133 E-.36499
G1 X164.971 Y156.267 E-.23268
G1 X165.487 Y156.36 E-.38275
G1 X166.03 Y156.333 E-.39726
G1 X166.726 Y156.335 E-.50837
G1 X166.126 Y156.804 E-.55598
G1 X165.638 Y157.148 E-.4368
G1 X164.95 Y157.582 E-.59432
G1 X164.44 Y157.859 E-.424
;WIPE_END
G1 E-.255 F4800
G1 X160.853 Y155.033 F7800
G1 E6 F3000
;WIDTH:0.466268
G1 F1800
G1 X160.753 Y155.365 E.01223
;WIDTH:0.432829
G1 X160.52 Y155.924 E.01962
;WIDTH:0.422492
G1 X160.375 Y156.07 E.00652
;WIDTH:0.465758
G1 X160.207 Y156.101 E.00599
;WIDTH:0.509023
G1 X160.039 Y156.131 E.0066
;WIDTH:0.552288
G1 X159.871 Y156.161 E.00722
G1 X159.937 Y156.092 E.00403
;WIDTH:0.526396
G1 X160.002 Y156.023 E.00383
;WIDTH:0.500504
G1 X160.142 Y155.789 E.01036
;WIDTH:0.456864
G1 X160.282 Y155.556 E.00937
;WIDTH:0.457314
G1 X160.414 Y155.091 E.01662
;WIDTH:0.5023
G1 X160.428 Y155.002 E.00346
;WIDTH:0.547286
G1 X160.443 Y154.912 E.0038
;WIDTH:0.592271
G1 X160.458 Y154.823 E.00414
;WIDTH:0.637257
G1 X160.472 Y154.733 E.00448
;WIDTH:0.682243
G1 X160.487 Y154.644 E.00482
;WIDTH:0.727228
G1 X160.502 Y154.554 E.00516
G1 X160.546 Y154.61 E.00404
;WIDTH:0.691127
G1 X160.607 Y154.695 E.00563
;WIDTH:0.646156
G1 X160.669 Y154.779 E.00524
;WIDTH:0.601184
G1 X160.73 Y154.864 E.00485
;WIDTH:0.556212
G1 X160.792 Y154.948 E.00446
;WIDTH:0.51124
G1 X160.809 Y154.972 E.00115
G1 E-.9 F4800
;WIPE_START
G1 F6240
G1 X160.753 Y155.365 E-.29026
G1 X160.52 Y155.924 E-.44227
G1 X160.375 Y156.07 E-.15087
G1 X160.207 Y156.101 E-.12452
G1 X160.039 Y156.131 E-.12452
G1 X159.871 Y156.161 E-.12452
G1 X159.937 Y156.092 E-.06954
G1 X160.002 Y156.023 E-.06954
G1 X160.142 Y155.789 E-.19894
G1 X160.282 Y155.556 E-.19894
G1 X160.414 Y155.091 E-.35257
G1 X160.428 Y155.002 E-.06628
G1 X160.443 Y154.912 E-.06628
G1 X160.458 Y154.823 E-.06628
G1 X160.472 Y154.733 E-.06628
G1 X160.487 Y154.644 E-.06628
G1 X160.502 Y154.554 E-.06628
G1 X160.546 Y154.61 E-.05184
G1 X160.607 Y154.695 E-.07638
G1 X160.669 Y154.779 E-.07638
G1 X160.73 Y154.864 E-.07638
G1 X160.792 Y154.948 E-.07638
G1 X160.809 Y154.972 E-.02158
;WIPE_END
G1 E-2.17693 F4800
G1 X159.872 Y152.526 F7800
G1 E6 F3000
;WIDTH:0.49183
G1 F1800
G1 X160.036 Y152.967 E.01757
;WIDTH:0.535408
G1 X160.074 Y153.132 E.00696
;WIDTH:0.578985
G1 X160.113 Y153.298 E.00758
;WIDTH:0.622562
G1 X160.151 Y153.464 E.00819
;WIDTH:0.66614
G1 X160.19 Y153.629 E.00881
;WIDTH:0.709717
G1 X160.228 Y153.795 E.00943
;WIDTH:0.753294
G1 X160.266 Y153.96 E.01004
G1 X160.161 Y153.827 E.01004
;WIDTH:0.709717
G1 X160.055 Y153.694 E.00943
;WIDTH:0.66614
G1 X159.95 Y153.561 E.00881
;WIDTH:0.622562
G1 X159.844 Y153.427 E.00819
;WIDTH:0.578985
G1 X159.739 Y153.294 E.00758
;WIDTH:0.535408
G1 X159.633 Y153.161 E.00696
;WIDTH:0.49183
G1 X159.569 Y153.039 E.00514
G1 X159.834 Y152.59 E.01946
G1 E-.9 F4800
;WIPE_START
G1 F6240
G1 X160.036 Y152.967 E-.3124
G1 X160.074 Y153.132 E-.12423
G1 X160.113 Y153.298 E-.12423
G1 X160.151 Y153.464 E-.12423
G1 X160.19 Y153.629 E-.12423
G1 X160.228 Y153.795 E-.12423
G1 X160.266 Y153.96 E-.12423
G1 X160.161 Y153.827 E-.12423
G1 X160.055 Y153.694 E-.12423
G1 X159.95 Y153.561 E-.12423
G1 X159.844 Y153.427 E-.12423
G1 X159.739 Y153.294 E-.12423
G1 X159.633 Y153.161 E-.12423
G1 X159.569 Y153.039 E-.1007
G1 X159.834 Y152.59 E-.38094
;WIPE_END
G1 E-2.81516 F4800
G1 X164.717 Y152.492 F7800
G1 E6 F3000
;WIDTH:0.466543
G1 F1800
G1 X164.789 Y152.547 E.00319
G1 X165.168 Y152.683 E.01419
G1 X164.998 Y152.917 E.01021
;WIDTH:0.510208
G1 X164.785 Y153.18 E.01312
;WIDTH:0.553872
G1 X164.573 Y153.442 E.01435
;WIDTH:0.597536
G1 X164.36 Y153.704 E.01558
G1 X164.393 Y153.548 E.00738
;WIDTH:0.555327
G1 X164.427 Y153.391 E.00682
;WIDTH:0.513117
G1 X164.46 Y153.235 E.00626
;WIDTH:0.470907
G1 X164.693 Y152.562 E.02531
G1 E-.9 F4800
;WIPE_START
G1 F6240
G1 X164.789 Y152.547 E-.07129
G1 X165.168 Y152.683 E-.29437
G1 X164.998 Y152.917 E-.21173
G1 X164.785 Y153.18 E-.24682
G1 X164.573 Y153.442 E-.24682
G1 X164.36 Y153.704 E-.24682
G1 X164.393 Y153.548 E-.11698
G1 X164.427 Y153.391 E-.11698
G1 X164.46 Y153.235 E-.11698
G1 X164.693 Y152.562 E-.5198
;WIPE_END
G1 E-2.91142 F4800
G1 X168.539 Y155.404 F7800
G1 E6 F3000
;TYPE:External perimeter
;WIDTH:0.695258
G1 F1800
G1 X168.312 Y155.632 E.01746
G1 E-.9 F4800
;WIPE_START
G1 F6240
G1 X168.539 Y155.404 E-.23518
;WIPE_END
G1 E-4.86482 F4800
G1 X168.025 Y153.564 F7800
G1 E6 F3000
;TYPE:Perimeter
;WIDTH:0.399999
G1 F1800
G1 X168.672 Y152.643 E.03342
G1 X168.992 Y152.089 E.01901
G1 X169.139 Y151.58 E.01572
G1 X169.141 Y151.162 E.0124
G1 X169.038 Y150.788 E.01153
G1 X169.497 Y151.437 E.0236
G1 X169.939 Y152.167 E.02533
G1 X169.978 Y152.374 E.00626
G1 X169.949 Y152.488 E.00349
G1 X169.683 Y152.962 E.01614
G1 X169.279 Y153.574 E.02178
G1 X168.92 Y154.061 E.01794
G1 X168.582 Y153.758 E.01349
G1 X168.095 Y153.589 E.01529
G1 E-.9 F4800
;WIPE_START
G1 F6240
G1 X168.672 Y152.643 E-.80928
G1 X168.992 Y152.089 E-.46782
G1 X169.139 Y151.58 E-.38684
G1 X169.141 Y151.162 E-.30517
G1 X169.038 Y150.788 E-.28369
G1 X169.497 Y151.437 E-.58079
G1 X169.939 Y152.167 E-.62345
G1 X169.978 Y152.374 E-.15402
G1 X169.949 Y152.488 E-.08595
G1 X169.683 Y152.962 E-.39732
G1 X169.279 Y153.574 E-.53609
G1 X169.105 Y153.811 E-.21457
;WIPE_END
G1 E-.255 F4800
G1 X164.555 Y150.299 F7800
G1 E6 F3000
G1 F1800
G1 X164.197 Y150.042 E.01308
G1 X163.967 Y149.972 E.00715
G1 X163.466 Y149.931 E.01493
G1 X163.234 Y149.996 E.00714
G1 X162.82 Y150.269 E.01473
G1 X162.589 Y150.516 E.01003
G1 X162.34 Y150.958 E.01506
G1 X162.128 Y150.563 E.01333
G1 X161.871 Y150.259 E.0118
G1 X161.424 Y150.021 E.01505
G1 X161.107 Y149.933 E.00977
G1 X160.628 Y149.942 E.01423
G1 X160.213 Y150.083 E.01302
G1 X159.938 Y150.326 E.0109
G1 X159.884 Y150.267 E.00236
G1 X159.456 Y149.996 E.01506
G1 X159.024 Y149.92 E.01301
G1 X158.687 Y149.956 E.01006
G1 X158.289 Y150.135 E.01296
G1 X157.962 Y150.436 E.0132
G1 X157.658 Y150.142 E.01257
G1 X157.328 Y149.989 E.0108
G1 X157.004 Y149.915 E.00987
G1 X156.473 Y149.999 E.01596
G1 X156.194 Y150.11 E.00893
G1 X155.836 Y150.408 E.01383
G1 X155.683 Y150.648 E.00845
G1 X155.545 Y151.077 E.01338
G1 X155.562 Y151.502 E.01262
G1 X155.684 Y151.866 E.01141
G1 X155.969 Y152.447 E.01922
G1 X156.346 Y153.103 E.02246
G1 X156.06 Y153.559 E.01596
G1 X155.936 Y153.399 E.00602
G1 X155.702 Y153.189 E.00933
G1 X155.225 Y152.918 E.01627
G1 X154.704 Y152.811 E.01581
G1 X154.29 Y152.831 E.01231
G1 X154.302 Y152.333 E.01477
G1 X154.288 Y151.698 E.01887
G1 X154.196 Y151.119 E.01739
G1 X154.084 Y150.752 E.0114
G1 X153.88 Y150.215 E.01705
G1 X153.555 Y149.689 E.01837
G1 X153.187 Y149.283 E.01627
G1 X152.71 Y148.93 E.01763
G1 X152.201 Y148.701 E.01655
G1 X151.651 Y148.565 E.01682
G1 X151.125 Y148.501 E.01573
G1 X149.539 Y148.465 E.04712
G1 X149.051 Y148.517 E.01456
G1 X148.612 Y148.686 E.01398
G1 X148.285 Y148.957 E.0126
G1 X148.048 Y149.357 E.01382
;WIDTH:0.400962
G1 X147.983 Y149.611 E.00779
G1 X147.96 Y149.554 E.00183
G1 X147.586 Y149.047 E.01873
;WIDTH:0.399999
G1 X147.349 Y148.831 E.00955
G1 X146.737 Y148.495 E.02072
G1 X146.067 Y148.336 E.02045
G1 X145.287 Y148.313 E.02318
G1 X144.522 Y148.449 E.02306
G1 X143.887 Y148.725 E.02056
G1 X143.569 Y148.989 E.01227
G1 X143.297 Y148.704 E.01171
G1 X143.059 Y148.588 E.00787
G1 X142.558 Y148.476 E.01523
G1 X139.291 Y148.487 E.09702
G1 X138.711 Y148.447 E.01726
G1 X138.442 Y148.469 E.00801
G1 X137.952 Y148.631 E.01532
G1 X137.713 Y148.811 E.00887
G1 X137.491 Y149.083 E.01043
G1 X137.216 Y148.87 E.01033
G1 X136.649 Y148.532 E.01959
G1 X136.166 Y148.387 E.01496
G1 X135.309 Y148.307 E.02558
G1 X134.587 Y148.389 E.02157
G1 X133.909 Y148.617 E.02123
G1 X133.252 Y149.026 E.02298
G1 X132.828 Y149.441 E.01763
G1 X132.828 Y147.992 E.04303
G1 X132.861 Y147.232 E.02258
G1 X133.028 Y146.904 E.01094
G1 X133.269 Y146.7 E.00939
G1 X133.66 Y146.604 E.01193
G1 X156.989 Y145.186 E.69395
G1 X157.851 Y145.161 E.02561
G1 X158.861 Y145.198 E.03
G1 X159.629 Y145.275 E.02292
G1 X160.404 Y145.399 E.02331
G1 X161.444 Y145.635 E.03165
G1 X162.196 Y145.858 E.02331
G1 X162.792 Y146.08 E.01886
G1 X163.272 Y146.263 E.01526
G1 X164.061 Y146.627 E.02581
G1 X165.02 Y147.153 E.03247
G1 X165.759 Y147.633 E.02615
G1 X166.457 Y148.139 E.02561
G1 X167.202 Y148.766 E.0289
G1 X167.98 Y149.533 E.03243
;WIDTH:0.404932
G1 X168.469 Y150.087 E.02226
G1 X168.369 Y150.03 E.00347
G1 X167.811 Y149.916 E.01714
;WIDTH:0.399999
G1 X165.698 Y149.912 E.06275
G1 X165.18 Y149.976 E.01548
G1 X164.939 Y150.045 E.00744
G1 X164.618 Y150.258 E.01145
G1 X164.559 Y150.84 F7800
;WIDTH:0.409114
G1 F1800
G1 X164.273 Y150.546 E.01251
;WIDTH:0.399999
G1 X164.049 Y150.367 E.00851
G1 X163.671 Y150.287 E.01145
G1 X163.375 Y150.324 E.00886
G1 X163.03 Y150.558 E.0124
G1 X162.877 Y150.73 E.00683
G1 X162.581 Y151.276 E.01843
G1 X162.317 Y152.033 E.02382
G1 X162.202 Y151.739 E.0094
G1 X162.025 Y151.121 E.01907
