; generated by PrusaSlicer 2.5.0+win64 on 2022-09-30 at 13:09:49 UTC

; 

; external perimeters extrusion width = 0.56mm
; perimeters extrusion width = 0.56mm
; infill extrusion width = 0.56mm
; solid infill extrusion width = 0.56mm
; top infill extrusion width = 0.50mm
; first layer extrusion width = 0.40mm

M73 P0 R108
M73 Q0 S109
M201 X1000 Y1000 Z200 E5000 ; sets maximum accelerations, mm/sec^2
M203 X200 Y200 Z12 E120 ; sets maximum feedrates, mm / sec
M204 P1250 R1250 T1250 ; sets acceleration (P, T) and retract acceleration (R), mm/sec^2
M205 X10.00 Y10.00 Z0.20 E2.50 ; sets the jerk limits, mm/sec
M205 S0 T0 ; sets the minimum extruding and travel feed rate, mm/sec
M107
;TYPE:Custom
M115 U3.9.3 ; tell printer latest fw version
G90 ; use absolute coordinates
M83 ; extruder relative mode
M104 S200 ; set extruder temp
M140 S55 ; set bed temp
M190 S55 ; wait for bed temp
M109 S200 ; wait for extruder temp
G28 W ; home all without mesh bed level
G80 ; mesh bed leveling
G92 E0.0
G1 Z2.0 F3000 ;Move Z Axis up
G92 E0.0
G1 Z2.0 F3000 ;Move Z Axis up
G21 ; set units to millimeters
G90 ; use absolute coordinates
M83 ; use relative distances for extrusion
; Filament gcode
M107
;LAYER_CHANGE
;Z:0.2
;HEIGHT:0.2
;BEFORE_LAYER_CHANGE
G92 E0.0
;0.2


G1 E-6 F4800
G1 Z.2 F7800
;AFTER_LAYER_CHANGE
;0.2
G1 X128.058 Y140.61
G1 E6 F3000
;TYPE:Skirt/Brim
;WIDTH:0.4
G1 F1800
G1 X128.809 Y140.06 E.02764
G1 X130.147 Y139.341 E.04509
G1 X131.259 Y138.949 E.03501
G1 X132.709 Y138.672 E.04384
G1 X156.521 Y137.214 E.70834
G1 X158.117 Y137.177 E.04739
G1 X159.677 Y137.251 E.04637
G1 X161.067 Y137.413 E.04155
G1 X163.825 Y138.008 E.08377
G1 X166.457 Y138.938 E.08288
G1 X168.961 Y140.202 E.08328
G1 X171.348 Y141.825 E.0857
G1 X173.456 Y143.7 E.08378
G1 X175.366 Y145.913 E.08677
G1 X176.943 Y148.322 E.08552
G1 X177.339 Y149.153 E.02731
G1 X177.648 Y150.044 E.028
G1 X177.958 Y151.864 E.05482
G1 X177.883 Y153.563 E.0505
G1 X177.457 Y155.235 E.05123
G1 X176.616 Y156.933 E.05626
G1 X175.113 Y159.109 E.07852
G1 X173.518 Y160.926 E.07179
G1 X171.766 Y162.531 E.07055
G1 X170.342 Y163.607 E.05301
G1 X168.592 Y164.7 E.06124
G1 X166.97 Y165.526 E.05404
G1 X165.181 Y166.251 E.05732
G1 X163.331 Y166.816 E.05743
G1 X161.6 Y167.19 E.05258
G1 X159.844 Y167.424 E.05259
G1 X157.931 Y167.515 E.05687
G1 X132.233 Y165.955 E.76442
G1 X130.651 Y165.547 E.04852
G1 X129.192 Y164.867 E.04779
G1 X127.896 Y163.942 E.04726
G1 X126.785 Y162.794 E.04743
G1 X125.982 Y161.604 E.04264
G1 X125.489 Y160.575 E.03387
G1 X125.073 Y159.251 E.04121
G1 X124.89 Y158.161 E.03281
G1 X124.848 Y147.092 E.32865
G1 X124.96 Y146.008 E.03235
G1 X125.198 Y144.959 E.03195
G1 X125.822 Y143.383 E.05032
G1 X126.831 Y141.841 E.05472
G1 X128.005 Y140.663 E.04938
G1 X128.257 Y140.914 F7800
G1 F1800
G1 X129.008 Y140.357 E.02776
G1 X130.289 Y139.669 E.04317
G1 X131.356 Y139.293 E.03361
G1 X132.746 Y139.027 E.042
G1 X156.543 Y137.57 E.7079
G1 X158.115 Y137.534 E.04669
G1 X161.015 Y137.766 E.08637
G1 X163.73 Y138.353 E.0825
G1 X166.318 Y139.266 E.08148
G1 X168.777 Y140.508 E.0818
G1 X171.128 Y142.106 E.08439
G1 X173.204 Y143.953 E.08251
G1 X175.081 Y146.128 E.08528
G1 X176.63 Y148.494 E.084
G1 X177.304 Y150.139 E.05278
G1 X177.602 Y151.883 E.0525
G1 X177.53 Y153.512 E.04844
G1 X177.121 Y155.113 E.04904
G1 X176.312 Y156.747 E.05414
G1 X174.739 Y159.007 E.08177
G1 X173.155 Y160.785 E.0707
G1 X171.271 Y162.472 E.07509
G1 X169.844 Y163.513 E.05245
G1 X168.295 Y164.457 E.05386
G1 X166.824 Y165.2 E.04894
G1 X165.059 Y165.916 E.05653
G1 X163.239 Y166.471 E.05652
G1 X161.538 Y166.839 E.05165
G1 X159.814 Y167.068 E.05165
G1 X157.931 Y167.158 E.05596
G1 X132.293 Y165.603 E.76263
G1 X130.773 Y165.212 E.04661
G1 X129.37 Y164.557 E.04595
G1 X128.13 Y163.672 E.04525
G1 X127.064 Y162.571 E.04549
G1 X126.295 Y161.431 E.04084
G1 X125.821 Y160.443 E.03253
G1 X125.421 Y159.173 E.03954
G1 X125.246 Y158.126 E.03151
G1 X125.204 Y147.107 E.32719
G1 X125.313 Y146.064 E.03113
G1 X125.541 Y145.061 E.03053
G1 X126.139 Y143.548 E.04833
G1 X127.106 Y142.069 E.05246
G1 X128.204 Y140.967 E.04618
G1 X128.456 Y141.218 F7800
G1 F1800
G1 X129.206 Y140.654 E.02787
G1 X130.431 Y139.997 E.04126
G1 X131.454 Y139.636 E.03221
G1 X132.782 Y139.383 E.04016
G1 X156.564 Y137.926 E.70745
G1 X158.113 Y137.891 E.04599
G1 X160.962 Y138.119 E.08486
G1 X163.636 Y138.697 E.08122
G1 X166.179 Y139.595 E.08008
G1 X168.593 Y140.814 E.08032
G1 X170.908 Y142.388 E.08308
G1 X172.952 Y144.206 E.08124
G1 X174.796 Y146.343 E.08379
G1 X176.317 Y148.667 E.08248
G1 X176.96 Y150.235 E.05034
G1 X177.245 Y151.901 E.05019
G1 X177.176 Y153.462 E.04638
G1 X176.941 Y154.523 E.03226
G1 X176.671 Y155.283 E.02395
G1 X175.736 Y156.996 E.05795
G1 X174.37 Y158.896 E.06948
G1 X172.904 Y160.532 E.06521
M73 Q0 S108
G1 X170.994 Y162.237 E.07603
G1 X169.648 Y163.215 E.0494
G1 X168.124 Y164.144 E.05298
G1 X166.557 Y164.928 E.05205
G1 X164.805 Y165.627 E.05599
G1 X163.147 Y166.126 E.05143
G1 X161.477 Y166.487 E.05072
G1 X159.784 Y166.712 E.05071
G1 X157.931 Y166.801 E.05506
G1 X132.353 Y165.251 E.76085
G1 X130.895 Y164.876 E.0447
G1 X129.549 Y164.248 E.04411
G1 X128.318 Y163.363 E.045
G1 X127.318 Y162.317 E.04296
G1 X126.608 Y161.259 E.03787
G1 X126.153 Y160.311 E.0312
G1 X125.77 Y159.095 E.03787
G1 X125.601 Y158.092 E.03021
G1 X125.561 Y147.121 E.32572
G1 X125.666 Y146.12 E.02991
G1 X125.883 Y145.164 E.0291
G1 X126.456 Y143.712 E.04635
G1 X127.381 Y142.297 E.05019
G1 X128.403 Y141.271 E.04299
G1 E-.9 F4800
;WIPE_START
G1 F6240
G1 X129.206 Y140.654 E-.74019
G1 X130.431 Y139.997 E-1.01553
G1 X131.454 Y139.636 E-.79266
G1 X132.782 Y139.383 E-.98837
G1 X134.569 Y139.273 E-1.30826
;WIPE_END
G1 E-.255 F4800
G1 X164.032 Y154.505 F7800
G1 E6 F3000
;TYPE:Perimeter
;WIDTH:0.51961
G1 F1800
G1 X164.039 Y154.64 E.00537
;WIDTH:0.485274
G1 X164.047 Y154.775 E.00498
;WIDTH:0.450937
G1 X164.12 Y155.132 E.01236
;WIDTH:0.425468
G1 X164.193 Y155.489 E.01159
;WIDTH:0.399999
G1 X164.331 Y155.779 E.00952
G1 X164.707 Y156.128 E.01523
G1 X165.011 Y156.295 E.0103
G1 X165.486 Y156.359 E.01423
G1 X166.03 Y156.332 E.01617
G1 X166.726 Y156.336 E.02066
G1 X166.129 Y156.802 E.02249
G1 X165.645 Y157.145 E.01761
G1 X165.154 Y157.46 E.01732
G1 X164.618 Y157.77 E.01839
G1 X163.391 Y158.372 E.04058
G1 X162.771 Y158.627 E.01991
;WIDTH:0.40308
G1 X161.959 Y158.9 E.02566
;WIDTH:0.447904
G1 X161.887 Y158.897 E.00241
;WIDTH:0.492728
G1 X161.815 Y158.895 E.00268
;WIDTH:0.537552
G1 X161.744 Y158.892 E.00295
;WIDTH:0.582375
G1 X161.672 Y158.89 E.00322
;WIDTH:0.627199
G1 X161.6 Y158.887 E.00348
;WIDTH:0.672023
G1 X161.529 Y158.885 E.00375
;WIDTH:0.716846
G1 X161.457 Y158.882 E.00402
G1 X161.546 Y158.811 E.00638
;WIDTH:0.672023
G1 X161.636 Y158.741 E.00595
;WIDTH:0.627199
G1 X161.725 Y158.67 E.00553
;WIDTH:0.582375
G1 X161.814 Y158.6 E.00511
;WIDTH:0.537552
G1 X161.904 Y158.529 E.00468
;WIDTH:0.492728
G1 X161.993 Y158.459 E.00426
;WIDTH:0.447904
G1 X162.082 Y158.388 E.00383
;WIDTH:0.40308
G1 X162.591 Y157.875 E.02163
;WIDTH:0.399999
G1 X162.846 Y157.421 E.01546
G1 X163.232 Y156.51 E.02939
G1 X163.749 Y155.116 E.04414
;WIDTH:0.43987
G1 X163.843 Y154.912 E.0074
;WIDTH:0.47974
G1 X163.937 Y154.709 E.00815
;WIDTH:0.51961
G1 X164 Y154.573 E.00592
G1 E-.9 F4800
;WIPE_START
G1 F6240
G1 X164.039 Y154.64 E-.05681
G1 X164.047 Y154.775 E-.09893
G1 X164.12 Y155.132 E-.26621
G1 X164.193 Y155.489 E-.26621
G1 X164.331 Y155.779 E-.23436
G1 X164.707 Y156.128 E-.37492
G1 X165.011 Y156.295 E-.25355
G1 X165.486 Y156.359 E-.35022
G1 X166.03 Y156.332 E-.39802
G1 X166.726 Y156.336 E-.50859
G1 X166.129 Y156.802 E-.55357
G1 X165.645 Y157.145 E-.43344
G1 X165.154 Y157.46 E-.42618
G1 X164.618 Y157.77 E-.45256
G1 X164.408 Y157.873 E-.17141
;WIPE_END
G1 E-.255 F4800
G1 X160.508 Y154.58 F7800
G1 E6 F3000
;WIDTH:0.733198
G1 F1800
G1 X160.56 Y154.651 E.00506
;WIDTH:0.686356
G1 X160.621 Y154.731 E.00535
;WIDTH:0.641907
G1 X160.681 Y154.811 E.00498
;WIDTH:0.597457
G1 X160.741 Y154.891 E.00461
;WIDTH:0.553008
G1 X160.801 Y154.971 E.00424
;WIDTH:0.508558
G1 X160.861 Y155.051 E.00387
;WIDTH:0.464108
G1 X160.735 Y155.376 E.01222
;WIDTH:0.42423
G1 X160.521 Y155.924 E.01863
;WIDTH:0.423939
G1 X160.374 Y156.07 E.00658
;WIDTH:0.466851
G1 X160.208 Y156.1 E.00595
;WIDTH:0.509763
G1 X160.041 Y156.129 E.00655
;WIDTH:0.552674
G1 X159.875 Y156.159 E.00715
G1 X159.941 Y156.089 E.00405
;WIDTH:0.526559
G1 X160.006 Y156.019 E.00384
;WIDTH:0.500443
G1 X160.143 Y155.784 E.01033
;WIDTH:0.453323
G1 X160.28 Y155.55 E.00927
;WIDTH:0.452205
G1 X160.41 Y155.096 E.01608
;WIDTH:0.499038
G1 X160.426 Y155.01 E.00332
;WIDTH:0.54587
G1 X160.443 Y154.924 E.00366
;WIDTH:0.592702
G1 X160.459 Y154.838 E.004
;WIDTH:0.639534
G1 X160.476 Y154.752 E.00434
;WIDTH:0.686366
G1 X160.492 Y154.666 E.00468
;WIDTH:0.733198
G1 X160.494 Y154.653 E.00072
G1 E-.9 F4800
;WIPE_START
G1 F6240
G1 X160.56 Y154.651 E-.0483
G1 X160.621 Y154.731 E-.07312
G1 X160.681 Y154.811 E-.07312
G1 X160.741 Y154.891 E-.07312
G1 X160.801 Y154.971 E-.07312
G1 X160.861 Y155.051 E-.07312
G1 X160.735 Y155.376 E-.25494
G1 X160.521 Y155.924 E-.4295
G1 X160.374 Y156.07 E-.15174
G1 X160.208 Y156.1 E-.12326
G1 X160.041 Y156.129 E-.12326
G1 X159.875 Y156.159 E-.12326
G1 X159.941 Y156.089 E-.06979
G1 X160.006 Y156.019 E-.06979
G1 X160.143 Y155.784 E-.19849
G1 X160.28 Y155.55 E-.19848
G1 X160.41 Y155.096 E-.34525
G1 X160.426 Y155.01 E-.06397
G1 X160.443 Y154.924 E-.06397
G1 X160.459 Y154.838 E-.06397
G1 X160.476 Y154.752 E-.06397
G1 X160.492 Y154.666 E-.06397
G1 X160.494 Y154.653 E-.00916
;WIPE_END
G1 E-2.26929 F4800
G1 X159.865 Y152.533 F7800
G1 E6 F3000
;WIDTH:0.488114
G1 F1800
G1 X160.029 Y152.967 E.01716
;WIDTH:0.532013
G1 X160.068 Y153.132 E.00692
;WIDTH:0.575912
G1 X160.107 Y153.298 E.00754
;WIDTH:0.619811
G1 X160.146 Y153.463 E.00816
;WIDTH:0.66371
G1 X160.186 Y153.629 E.00878
;WIDTH:0.707609
G1 X160.225 Y153.794 E.0094
;WIDTH:0.751508
G1 X160.264 Y153.96 E.01003
G1 X160.158 Y153.827 E.01003
;WIDTH:0.707609
G1 X160.053 Y153.693 E.0094
;WIDTH:0.66371
G1 X159.947 Y153.56 E.00878
;WIDTH:0.619811
G1 X159.841 Y153.427 E.00816
;WIDTH:0.575912
G1 X159.736 Y153.293 E.00754
;WIDTH:0.532013
G1 X159.63 Y153.16 E.00692
;WIDTH:0.488114
G1 X159.567 Y153.038 E.00509
G1 X159.827 Y152.598 E.01893
G1 E-.9 F4800
;WIPE_START
G1 F6240
G1 X160.029 Y152.967 E-.30749
G1 X160.068 Y153.132 E-.12434
G1 X160.107 Y153.298 E-.12434
G1 X160.146 Y153.463 E-.12434
G1 X160.186 Y153.629 E-.12434
G1 X160.225 Y153.794 E-.12434
G1 X160.264 Y153.96 E-.12434
G1 X160.158 Y153.827 E-.12434
G1 X160.053 Y153.693 E-.12434
G1 X159.947 Y153.56 E-.12434
G1 X159.841 Y153.427 E-.12434
G1 X159.736 Y153.293 E-.12434
G1 X159.63 Y153.16 E-.12434
G1 X159.567 Y153.038 E-.10055
G1 X159.827 Y152.598 E-.3736
;WIPE_END
G1 E-2.82629 F4800
G1 X165.106 Y152.768 F7800
G1 E6 F3000
;WIDTH:0.465366
G1 F1800
G1 X164.993 Y152.923 E.00677
;WIDTH:0.508852
G1 X164.782 Y153.184 E.01302
;WIDTH:0.552338
G1 X164.57 Y153.445 E.01423
;WIDTH:0.595824
G1 X164.359 Y153.706 E.01545
G1 X164.393 Y153.548 E.00743
;WIDTH:0.553342
G1 X164.427 Y153.39 E.00686
;WIDTH:0.510859
G1 X164.461 Y153.232 E.00629
;WIDTH:0.468376
G1 X164.711 Y152.499 E.02741
;WIDTH:0.465366
G1 X165.165 Y152.687 E.01725
G1 X165.15 Y152.707 E.00086
G1 E-.9 F4800
;WIPE_START
G1 F6240
G1 X164.993 Y152.923 E-.19557
G1 X164.782 Y153.184 E-.24553
G1 X164.57 Y153.445 E-.24553
G1 X164.359 Y153.706 E-.24553
G1 X164.393 Y153.548 E-.1181
G1 X164.427 Y153.39 E-.1181
G1 X164.461 Y153.232 E-.1181
G1 X164.711 Y152.499 E-.5663
G1 X165.165 Y152.687 E-.35891
G1 X165.15 Y152.707 E-.01788
;WIPE_END
G1 E-2.87044 F4800
G1 X166.836 Y149.913 F7800
G1 E6 F3000
;WIDTH:0.399999
G1 F1800
G1 X165.749 Y149.911 E.03227
G1 X165.191 Y149.974 E.01667
G1 X164.781 Y150.121 E.01294
G1 X164.532 Y150.301 E.00912
G1 X164.197 Y150.044 E.01254
G1 X163.863 Y149.937 E.01043
G1 X163.472 Y149.934 E.01161
G1 X163.178 Y150.029 E.00919
G1 X162.906 Y150.179 E.00921
G1 X162.579 Y150.55 E.01467
G1 X162.336 Y150.95 E.0139
G1 X162.099 Y150.514 E.01473
G1 X161.828 Y150.228 E.01168
G1 X161.341 Y149.984 E.01617
G1 X160.989 Y149.929 E.01057
G1 X160.512 Y149.963 E.01421
G1 X160.229 Y150.078 E.00905
G1 X159.94 Y150.331 E.01142
G1 X159.817 Y150.212 E.00508
G1 X159.43 Y149.986 E.01331
G1 X159.016 Y149.92 E.01244
G1 X158.687 Y149.957 E.00984
G1 X158.236 Y150.184 E.01499
G1 X157.974 Y150.403 E.01013
G1 X157.805 Y150.251 E.00675
G1 X157.371 Y150.009 E.01474
G1 X157.003 Y149.915 E.01128
G1 X156.478 Y149.996 E.0158
G1 X156.129 Y150.151 E.01132
G1 X155.779 Y150.48 E.01427
G1 X155.616 Y150.801 E.01068
G1 X155.541 Y151.182 E.01154
G1 X155.588 Y151.625 E.01323
G1 X155.779 Y152.099 E.01517
G1 X156.345 Y153.103 E.03423
G1 X156.062 Y153.551 E.01573
G1 X155.913 Y153.365 E.00706
G1 X155.545 Y153.081 E.01382
G1 X155.06 Y152.871 E.01569
G1 X154.627 Y152.8 E.01303
G1 X154.289 Y152.83 E.01006
G1 X154.304 Y152.221 E.01809
G1 X154.272 Y151.638 E.01735
G1 X154.197 Y151.132 E.01519
G1 X153.947 Y150.356 E.0242
G1 X153.678 Y149.862 E.01669
G1 X153.344 Y149.435 E.0161
G1 X152.885 Y149.042 E.01796
G1 X152.37 Y148.763 E.01738
G1 X151.791 Y148.592 E.01794
G1 X151.124 Y148.5 E.01998
G1 X149.537 Y148.466 E.04712
G1 X149.051 Y148.517 E.01453
G1 X148.612 Y148.685 E.01395
G1 X148.283 Y148.959 E.01272
G1 X148.05 Y149.352 E.01355
;WIDTH:0.400721
G1 X147.982 Y149.613 E.00804
G1 X147.846 Y149.39 E.00777
;WIDTH:0.399999
G1 X147.506 Y148.956 E.01636
G1 X147.035 Y148.635 E.01694
G1 X146.733 Y148.493 E.00989
G1 X146.08 Y148.338 E.01994
G1 X145.389 Y148.308 E.02053
G1 X144.76 Y148.385 E.01882
G1 X144.521 Y148.449 E.00735
G1 X143.885 Y148.725 E.02058
G1 X143.569 Y148.989 E.01222
G1 X143.298 Y148.704 E.01167
G1 X143.055 Y148.586 E.00802
G1 X142.558 Y148.476 E.01511
G1 X139.329 Y148.486 E.09589
G1 X138.574 Y148.445 E.02245
G1 X138.086 Y148.574 E.01496
G1 X137.847 Y148.693 E.00794
G1 X137.504 Y149.099 E.01578
G1 X137.35 Y148.973 E.00591
G1 X136.745 Y148.574 E.0215
G1 X136.165 Y148.386 E.01811
G1 X135.302 Y148.308 E.02573
G1 X134.722 Y148.362 E.01728
G1 X134.166 Y148.533 E.01728
G1 X133.633 Y148.761 E.01721
G1 X133.179 Y149.087 E.01659
G1 X132.827 Y149.46 E.01523
G1 X132.827 Y147.594 E.0554
G1 X132.887 Y147.145 E.01343
G1 X133.023 Y146.906 E.00818
G1 X133.273 Y146.697 E.00967
G1 X133.659 Y146.603 E.01181
G1 X156.987 Y145.185 E.69392
G1 X157.852 Y145.162 E.02569
G1 X158.698 Y145.188 E.02513
G1 X159.631 Y145.276 E.0278
G1 X160.459 Y145.409 E.0249
G1 X161.348 Y145.61 E.02708
G1 X162.217 Y145.865 E.02687
G1 X163.208 Y146.234 E.03142
G1 X163.884 Y146.536 E.02197
G1 X164.875 Y147.063 E.03333
G1 X165.804 Y147.657 E.03272
G1 X166.449 Y148.134 E.02383
G1 X167.202 Y148.766 E.02918
G1 X167.981 Y149.533 E.03247
;WIDTH:0.405322
G1 X168.466 Y150.085 E.02213
G1 X168.367 Y150.028 E.00345
G1 X167.812 Y149.916 E.01705
;WIDTH:0.399999
G1 X166.911 Y149.914 E.02675
G1 E-.9 F4800
;WIPE_START
G1 F6240
G1 X165.749 Y149.911 E-.84901
G1 X165.191 Y149.974 E-.41025
G1 X164.781 Y150.121 E-.31844
G1 X164.532 Y150.301 E-.2244
G1 X164.197 Y150.044 E-.30865
G1 X163.863 Y149.937 E-.25661
G1 X163.472 Y149.934 E-.2857
G1 X163.178 Y150.029 E-.22623
G1 X162.906 Y150.179 E-.22679
G1 X162.579 Y150.55 E-.36118
G1 X162.336 Y150.95 E-.34207
G1 X162.099 Y150.514 E-.36246
G1 X161.828 Y150.228 E-.28748
G1 X161.356 Y149.992 E-.38573
;WIPE_END
G1 E-.255 F4800
G1 X168.026 Y153.563 F7800
G1 E6 F3000
G1 F1800
G1 X168.643 Y152.689 E.03178
G1 X168.918 Y152.256 E.01523
G1 X169.085 Y151.849 E.01307
G1 X169.143 Y151.232 E.01837
G1 X169.045 Y150.797 E.01324
G1 X169.496 Y151.436 E.02323
G1 X169.915 Y152.128 E.02401
G1 X169.981 Y152.362 E.00723
G1 X169.947 Y152.49 E.00391
G1 X169.683 Y152.963 E.01608
G1 X169.278 Y153.575 E.02179
G1 X168.921 Y154.061 E.01792
G1 X168.581 Y153.758 E.01352
G1 X168.097 Y153.588 E.01523
G1 X167.36 Y153.878 F7800
G1 F1800
G1 X168.346 Y152.492 E.05051
G1 X168.617 Y152.064 E.01502
G1 X168.748 Y151.731 E.01064
G1 X168.786 Y151.224 E.01509
;WIDTH:0.44731
G1 X168.744 Y151.032 E.0066
;WIDTH:0.494621
G1 X168.702 Y150.841 E.00737
;WIDTH:0.541932
G1 X168.66 Y150.649 E.00814
;WIDTH:0.548371
G1 X168.498 Y150.455 E.01062
G1 X168.437 Y150.425 E.00285
;WIDTH:0.522416
