;FLAVOR:Marlin
;TIME:1508
;Filament used: 1.80929m
;Layer height: 0.25
;MINX:140.197
;MINY:140.197
;MINZ:0.3
;MAXX:169.803
;MAXY:169.803
;MAXZ:20.05
;Generated with Cura_SteamEngine main
M140 S60
M105
M190 S60
M104 S190
M105
M109 S190
M82 ;absolute extrusion mode
G28 ;Home
G1 Z15.0 F6000 ;Move the platform down 15mm
;Prime the extruder
G92 E0
G1 F200 E3
G92 E0
G92 E0
G92 E0
G1 F2700 E-4
;LAYER_COUNT:80
;LAYER:0
M107
M204 S1000
M205 X30 Y30
G0 F1350 X141.622 Y141.604 Z0.3
G0 X140.197 Y145.609
M204 S500
M205 X10 Y10
;TYPE:SKIRT
G1 F2700 E0
G1 F900 X140.206 Y144.944 E0.044
G1 X140.255 Y144.326 E0.08502
G1 X140.382 Y143.72 E0.12598
G1 X140.587 Y143.135 E0.16699
G1 X140.865 Y142.582 E0.20794
G1 X141.212 Y142.068 E0.24897
G1 X141.622 Y141.604 E0.28994
G1 X142.088 Y141.196 E0.33092
G1 X142.603 Y140.852 E0.37189
G1 X143.158 Y140.577 E0.41287
G1 X143.744 Y140.375 E0.45388
G1 X144.351 Y140.251 E0.49487
G1 X145.008 Y140.197 E0.53848
G1 X164.362 Y140.197 E1.81896
G1 X165.06 Y140.207 E1.86514
G1 X165.677 Y140.256 E1.90609
G1 X166.284 Y140.384 E1.94713
G1 X166.868 Y140.589 E1.98808
G1 X167.422 Y140.868 E2.02912
G1 X167.935 Y141.215 E2.0701
G1 X168.399 Y141.625 E2.11106
G1 X168.806 Y142.092 E2.15205
G1 X169.15 Y142.608 E2.19308
G1 X169.425 Y143.163 E2.23406
G1 X169.626 Y143.749 E2.27504
G1 X169.749 Y144.356 E2.31602
G1 X169.803 Y145.008 E2.3593
G1 X169.803 Y164.323 E3.6372
G1 X169.794 Y165.05 E3.6853
G1 X169.746 Y165.668 E3.72631
G1 X169.619 Y166.275 E3.76734
G1 X169.416 Y166.86 E3.80831
G1 X169.138 Y167.414 E3.84932
G1 X168.792 Y167.927 E3.89025
G1 X168.382 Y168.392 E3.93127
G1 X167.916 Y168.8 E3.97225
G1 X167.402 Y169.145 E4.0132
G1 X166.847 Y169.421 E4.05421
G1 X166.261 Y169.623 E4.09522
G1 X165.654 Y169.748 E4.13622
G1 X164.994 Y169.803 E4.18004
G1 X145.645 Y169.803 E5.46018
G1 X144.947 Y169.794 E5.50637
G1 X144.329 Y169.746 E5.54738
G1 X143.723 Y169.619 E5.58834
G1 X143.138 Y169.415 E5.62933
G1 X142.584 Y169.137 E5.67034
G1 X142.071 Y168.79 E5.71132
G1 X141.606 Y168.38 E5.75233
G1 X141.198 Y167.914 E5.79331
G1 X140.853 Y167.399 E5.83432
G1 X140.578 Y166.844 E5.8753
G1 X140.376 Y166.259 E5.91625
G1 X140.252 Y165.652 E5.95724
G1 X140.197 Y164.988 E6.00132
G1 X140.197 Y146.022 E7.25612
G0 F720 X140.197 Y145.609
M204 S1000
M205 X30 Y30
G0 F1350 X140.712 Y145.616
M204 S500
M205 X10 Y10
G1 F900 X140.721 Y144.951 E7.30012
G1 X140.769 Y144.368 E7.33882
G1 X140.896 Y143.796 E7.37759
G1 X141.1 Y143.247 E7.41634
G1 X141.376 Y142.731 E7.45505
G1 X141.72 Y142.258 E7.49375
G1 X142.125 Y141.835 E7.53249
G1 X142.584 Y141.472 E7.57121
G1 X143.089 Y141.175 E7.60997
G1 X143.629 Y140.949 E7.6487
G1 X144.195 Y140.799 E7.68744
G1 X144.989 Y140.712 E7.74029
G1 X164.354 Y140.712 E9.02149
G1 X165.052 Y140.722 E9.06767
G1 X165.636 Y140.771 E9.10645
G1 X166.207 Y140.898 E9.14515
G1 X166.756 Y141.102 E9.1839
G1 X167.272 Y141.379 E9.22264
G1 X167.745 Y141.723 E9.26134
G1 X168.167 Y142.129 E9.30008
G1 X168.53 Y142.588 E9.3388
G1 X168.827 Y143.093 E9.37756
G1 X169.052 Y143.633 E9.41626
G1 X169.202 Y144.199 E9.455
G1 X169.288 Y144.99 E9.50764
G1 X169.288 Y164.317 E10.78633
G1 X169.279 Y165.044 E10.83443
G1 X169.231 Y165.628 E10.8732
G1 X169.105 Y166.199 E10.91189
G1 X168.902 Y166.748 E10.95061
G1 X168.627 Y167.265 E10.98936
G1 X168.283 Y167.738 E11.02805
G1 X167.878 Y168.161 E11.0668
G1 X167.42 Y168.525 E11.1055
G1 X166.916 Y168.823 E11.14424
G1 X166.376 Y169.049 E11.18297
G1 X165.81 Y169.2 E11.22173
G1 X165.011 Y169.288 E11.27491
G1 X145.652 Y169.288 E12.55571
G1 X144.954 Y169.279 E12.6019
G1 X144.37 Y169.231 E12.64066
G1 X143.799 Y169.105 E12.67935
G1 X143.25 Y168.902 E12.71808
G1 X142.734 Y168.625 E12.75682
G1 X142.26 Y168.282 E12.79553
G1 X141.837 Y167.877 E12.83428
G1 X141.474 Y167.418 E12.873
G1 X141.176 Y166.914 E12.91173
G1 X140.95 Y166.374 E12.95046
G1 X140.8 Y165.808 E12.9892
G1 X140.712 Y165.007 E13.04252
G1 X140.712 Y146.029 E14.29811
G0 F720 X140.712 Y145.616
M204 S1000
M205 X30 Y30
G0 F1350 X141.227 Y145.623
M204 S500
M205 X10 Y10
G1 F900 X141.236 Y144.958 E14.34211
G1 X141.284 Y144.411 E14.37844
G1 X141.41 Y143.877 E14.41474
G1 X141.612 Y143.366 E14.4511
G1 X141.887 Y142.891 E14.48741
G1 X142.227 Y142.46 E14.52373
G1 X142.627 Y142.083 E14.56009
G1 X143.076 Y141.768 E14.59638
G1 X143.567 Y141.522 E14.63272
G1 X144.089 Y141.35 E14.66908
G1 X144.968 Y141.228 E14.72779
G1 X164.347 Y141.227 E16.00992
G1 X165.045 Y141.237 E16.0561
G1 X165.592 Y141.285 E16.09243
G1 X166.126 Y141.412 E16.12875
G1 X166.636 Y141.615 E16.16506
G1 X167.112 Y141.889 E16.2014
G1 X167.542 Y142.23 E16.23771
G1 X167.919 Y142.63 E16.27408
G1 X168.233 Y143.08 E16.31038
G1 X168.479 Y143.571 E16.34671
G1 X168.651 Y144.092 E16.38301
G1 X168.772 Y144.969 E16.44159
G1 X168.773 Y164.311 E17.72127
G1 X168.764 Y165.038 E17.76937
G1 X168.717 Y165.585 E17.80569
G1 X168.591 Y166.119 E17.84199
G1 X168.39 Y166.63 E17.87832
G1 X168.116 Y167.106 E17.91466
G1 X167.776 Y167.537 E17.95098
G1 X167.377 Y167.914 E17.9873
G1 X166.927 Y168.229 E18.02364
G1 X166.437 Y168.476 E18.05994
G1 X165.916 Y168.649 E18.09626
G1 X165.375 Y168.744 E18.1326
G1 X164.776 Y168.772 E18.17228
G1 X145.658 Y168.773 E19.43714
G1 X144.96 Y168.764 E19.48332
G1 X144.413 Y168.717 E19.51964
G1 X143.879 Y168.591 E19.55594
G1 X143.368 Y168.389 E19.5923
G1 X142.893 Y168.115 E19.62858
G1 X142.462 Y167.774 E19.66494
G1 X142.085 Y167.375 E19.70126
G1 X141.77 Y166.926 E19.73754
G1 X141.523 Y166.435 E19.77391
G1 X141.351 Y165.914 E19.81021
G1 X141.255 Y165.373 E19.84656
G1 X141.228 Y164.76 E19.88715
G1 X141.227 Y146.036 E21.12595
G0 F720 X141.227 Y145.623
M204 S1000
M205 X30 Y30
G0 F1350 X141.742 Y145.63
M204 S500
M205 X10 Y10
G1 F900 X141.751 Y144.965 E21.16995
G1 X141.798 Y144.457 E21.2037
G1 X141.924 Y143.962 E21.23749
G1 X142.125 Y143.494 E21.27119
G1 X142.397 Y143.062 E21.30497
G1 X142.733 Y142.678 E21.33872
G1 X143.124 Y142.351 E21.37245
G1 X143.562 Y142.09 E21.40618
G1 X144.036 Y141.9 E21.43997
G1 X144.533 Y141.786 E21.4737
G1 X145.02 Y141.743 E21.50605
G1 X164.34 Y141.742 E22.78427
G1 X165.038 Y141.752 E22.83046
G1 X165.546 Y141.8 E22.86422
G1 X166.04 Y141.925 E22.89793
G1 X166.509 Y142.127 E22.93171
G1 X166.94 Y142.399 E22.96543
G1 X167.324 Y142.736 E22.99924
G1 X167.65 Y143.128 E23.03297
G1 X167.911 Y143.566 E23.0667
G1 X168.101 Y144.039 E23.10042
G1 X168.214 Y144.537 E23.13421
G1 X168.257 Y145.019 E23.16623
G1 X168.258 Y164.304 E24.44213
G1 X168.249 Y165.031 E24.49024
G1 X168.203 Y165.539 E24.52398
G1 X168.078 Y166.034 E24.55776
G1 X167.877 Y166.503 E24.59152
G1 X167.606 Y166.935 E24.62526
G1 X167.27 Y167.319 E24.65902
G1 X166.879 Y167.646 E24.69274
G1 X166.441 Y167.909 E24.72654
G1 X165.968 Y168.099 E24.76027
G1 X165.471 Y168.214 E24.79402
G1 X164.979 Y168.257 E24.82669
G1 X145.665 Y168.258 E26.10452
G1 X144.967 Y168.249 E26.1507
G1 X144.459 Y168.202 E26.18446
G1 X143.964 Y168.077 E26.21823
G1 X143.496 Y167.876 E26.25193
G1 X143.064 Y167.605 E26.28567
G1 X142.68 Y167.269 E26.31943
G1 X142.353 Y166.877 E26.3532
G1 X142.091 Y166.439 E26.38697
G1 X141.9 Y165.966 E26.42072
G1 X141.786 Y165.469 E26.45446
G1 X141.743 Y164.976 E26.4872
G1 X141.742 Y146.043 E27.73982
G0 F720 X141.742 Y145.63
M204 S1000
M205 X30 Y30
G1 F2700 E23.73982
;MESH:??????xyz??????.stl
G0 F1350 X144.335 Y145.63
G0 X145.52 Y145.63
G0 X146.287 Y146.287
M204 S500
M205 X10 Y10
;TYPE:WALL-INNER
G1 F2700 E27.73982
G1 F900 X146.287 Y163.713 E28.89273
G1 X163.713 Y163.713 E30.04565
G1 X163.713 Y146.287 E31.19856
G1 X146.7 Y146.287 E32.32415
G0 F720 X146.287 Y146.287
M204 S1000
M205 X30 Y30
G0 F1350 X145.772 Y145.772
M204 S500
M205 X10 Y10
G1 F900 X145.772 Y164.228 E33.54521
G1 X164.228 Y164.228 E34.76628
G1 X164.228 Y145.772 E35.98734
G1 X146.185 Y145.772 E37.18107
G0 F720 X145.772 Y145.772
M204 S1000
M205 X30 Y30
G0 F1350 X145.257 Y145.257
M204 S500
M205 X10 Y10
;TYPE:WALL-OUTER
G1 F900 X145.257 Y164.743 E38.47028
G1 X164.743 Y164.743 E39.75949
G1 X164.743 Y145.257 E41.04869
G1 X145.67 Y145.257 E42.31057
G0 F720 X145.257 Y145.257
M204 S1000
M205 X30 Y30
G0 F1350 X145.257 Y145.507
G0 X146.07 Y146.07
G0 X146.776 Y146.776
M204 S500
M205 X10 Y10
;TYPE:SKIN
G1 F900 X146.776 Y155 E42.85468
G1 X146.776 Y163.224 E43.39878
G1 X163.224 Y163.224 E44.48699
G1 X163.224 Y146.776 E45.5752
G1 X147.189 Y146.776 E46.63609
G0 F720 X146.776 Y146.776
M204 S1000
M205 X30 Y30
G0 F1350 X162.966 Y147.672
M204 S500
M205 X10 Y10
G1 F900 X162.327 Y147.032 E46.69593
M204 S1000
M205 X30 Y30
G0 F1350 X161.599 Y147.032
M204 S500
M205 X10 Y10
G1 F900 X162.966 Y148.4 E46.82388
M204 S1000
M205 X30 Y30
G0 F1350 X162.966 Y149.128
M204 S500
M205 X10 Y10
G1 F900 X160.871 Y147.032 E47.01994
M204 S1000
M205 X30 Y30
G0 F1350 X160.142 Y147.032
M204 S500
M205 X10 Y10
G1 F900 X162.966 Y149.857 E47.28422
M204 S1000
M205 X30 Y30
G0 F1350 X162.966 Y150.585
M204 S500
M205 X10 Y10
G1 F900 X159.414 Y147.032 E47.61661
M204 S1000
M205 X30 Y30
G0 F1350 X158.686 Y147.032
M204 S500
M205 X10 Y10
G1 F900 X162.966 Y151.313 E48.01711
M204 S1000
M205 X30 Y30
G0 F1350 X162.966 Y152.042
M204 S500
M205 X10 Y10
G1 F900 X157.957 Y147.032 E48.48583
M204 S1000
M205 X30 Y30
G0 F1350 X157.229 Y147.032
M204 S500
M205 X10 Y10
G1 F900 X162.966 Y152.77 E49.02266
M204 S1000
M205 X30 Y30
G0 F1350 X162.966 Y153.498
M204 S500
M205 X10 Y10
G1 F900 X156.501 Y147.032 E49.62761
M204 S1000
M205 X30 Y30
G0 F1350 X155.772 Y147.032
M204 S500
M205 X10 Y10
G1 F900 X162.966 Y154.227 E50.30076
M204 S1000
M205 X30 Y30
G0 F1350 X162.966 Y154.955
M204 S500
M205 X10 Y10
G1 F900 X155.044 Y147.032 E51.04203
M204 S1000
M205 X30 Y30
G0 F1350 X154.316 Y147.032
M204 S500
M205 X10 Y10
G1 F900 X162.966 Y155.683 E51.85142
M204 S1000
M205 X30 Y30
G0 F1350 X162.966 Y156.412
M204 S500
M205 X10 Y10
G1 F900 X153.587 Y147.032 E52.72901
M204 S1000
M205 X30 Y30
G0 F1350 X152.859 Y147.032
M204 S500
M205 X10 Y10
G1 F900 X162.966 Y157.14 E53.67473
M204 S1000
M205 X30 Y30
G0 F1350 X162.966 Y157.868
M204 S500
M205 X10 Y10
G1 F900 X152.131 Y147.032 E54.68855
M204 S1000
M205 X30 Y30
G0 F1350 X151.402 Y147.032
M204 S500
M205 X10 Y10
G1 F900 X162.966 Y158.596 E55.77054
M204 S1000
M205 X30 Y30
G0 F1350 X162.966 Y159.325
M204 S500
M205 X10 Y10
G1 F900 X150.674 Y147.032 E56.92069
M204 S1000
M205 X30 Y30
G0 F1350 X149.946 Y147.032
M204 S500
M205 X10 Y10
G1 F900 X162.966 Y160.053 E58.13896
M204 S1000
M205 X30 Y30
G0 F1350 X162.966 Y160.781
M204 S500
M205 X10 Y10
G1 F900 X149.217 Y147.032 E59.42539
M204 S1000
M205 X30 Y30
G0 F1350 X148.489 Y147.032
M204 S500
M205 X10 Y10
G1 F900 X162.966 Y161.51 E60.77998
M204 S1000
M205 X30 Y30
G0 F1350 X162.966 Y162.238
M204 S500
M205 X10 Y10
G1 F900 X147.761 Y147.032 E62.20269
M204 S1000
M205 X30 Y30
G0 F1350 X147.032 Y147.032
M204 S500
M205 X10 Y10
G1 F900 X162.966 Y162.966 E63.69356
M204 S1000
M205 X30 Y30
G0 F1350 X162.238 Y162.966
M204 S500
M205 X10 Y10
G1 F900 X147.032 Y147.761 E65.11626
M204 S1000
M205 X30 Y30
G0 F1350 X147.032 Y148.489
M204 S500
M205 X10 Y10
G1 F900 X161.51 Y162.966 E66.47085
M204 S1000
M205 X30 Y30
G0 F1350 X160.781 Y162.966
M204 S500
M205 X10 Y10
G1 F900 X147.032 Y149.217 E67.75728
M204 S1000
M205 X30 Y30
G0 F1350 X147.032 Y149.946
M204 S500
M205 X10 Y10
G1 F900 X160.053 Y162.966 E68.97555
M204 S1000
M205 X30 Y30
G0 F1350 X159.325 Y162.966
M204 S500
M205 X10 Y10
G1 F900 X147.032 Y150.674 E70.1257
M204 S1000
M205 X30 Y30
G0 F1350 X147.032 Y151.402
M204 S500
M205 X10 Y10
G1 F900 X158.596 Y162.966 E71.20769
M204 S1000
M205 X30 Y30
G0 F1350 X157.868 Y162.966
M204 S500
M205 X10 Y10
G1 F900 X147.032 Y152.131 E72.22152
M204 S1000
M205 X30 Y30
G0 F1350 X147.032 Y152.859
M204 S500
M205 X10 Y10
G1 F900 X157.14 Y162.966 E73.16723
M204 S1000
M205 X30 Y30
G0 F1350 X156.412 Y162.966
M204 S500
M205 X10 Y10
G1 F900 X147.032 Y153.587 E74.04482
M204 S1000
M205 X30 Y30
G0 F1350 X147.032 Y154.316
M204 S500
M205 X10 Y10
G1 F900 X155.683 Y162.966 E74.85421
M204 S1000
M205 X30 Y30
G0 F1350 X154.955 Y162.966
M204 S500
M205 X10 Y10
G1 F900 X147.032 Y155.044 E75.59548
M204 S1000
M205 X30 Y30
G0 F1350 X147.032 Y155.772
M204 S500
M205 X10 Y10
G1 F900 X154.227 Y162.966 E76.26864
M204 S1000
M205 X30 Y30
G0 F1350 X153.498 Y162.966
M204 S500
M205 X10 Y10
G1 F900 X147.032 Y156.501 E76.87358
M204 S1000
M205 X30 Y30
G0 F1350 X147.032 Y157.229
M204 S500
M205 X10 Y10
G1 F900 X152.77 Y162.966 E77.41041
M204 S1000
M205 X30 Y30
G0 F1350 X152.042 Y162.966
M204 S500
M205 X10 Y10
G1 F900 X147.032 Y157.957 E77.87913
M204 S1000
M205 X30 Y30
G0 F1350 X147.032 Y158.686
M204 S500
M205 X10 Y10
G1 F900 X151.313 Y162.966 E78.27963
M204 S1000
M205 X30 Y30
G0 F1350 X150.585 Y162.966
M204 S500
M205 X10 Y10
G1 F900 X147.032 Y159.414 E78.61203
M204 S1000
M205 X30 Y30
G0 F1350 X147.032 Y160.142
M204 S500
M205 X10 Y10
G1 F900 X149.857 Y162.966 E78.8763
M204 S1000
M205 X30 Y30
G0 F1350 X149.128 Y162.966
M204 S500
M205 X10 Y10
G1 F900 X147.032 Y160.871 E79.07237
M204 S1000
M205 X30 Y30
G0 F1350 X147.032 Y161.599
M204 S500
M205 X10 Y10
G1 F900 X148.4 Y162.966 E79.20032
M204 S1000
M205 X30 Y30
G0 F1350 X147.672 Y162.966
M204 S500
M205 X10 Y10
G1 F900 X147.032 Y162.327 E79.26015
M204 S1000
M205 X30 Y30
;MESH:NONMESH
G0 F600 X147.032 Y162.327 Z0.55
G0 F1350 X146.45 Y146.45
;TIME_ELAPSED:94.756711
;LAYER:1
M106 S127.5
M204 S500
M205 X10 Y10
;TYPE:WALL-INNER
;MESH:??????xyz??????.stl
G1 F1650 X146.45 Y163.55 E80.14882
G1 X163.55 Y163.55 E81.03749
G1 X163.55 Y146.45 E81.92616
G1 X146.962 Y146.45 E82.78822
G0 F1320 X146.45 Y146.45
M204 S1500
M205 X30 Y30
G0 F2475 X145.95 Y145.95
M204 S500
M205 X10 Y10
G1 F1650 X145.95 Y164.05 E83.72886
G1 X164.05 Y164.05 E84.6695
G1 X164.05 Y145.95 E85.61014
G1 X146.462 Y145.95 E86.52417
G0 F1320 X145.95 Y145.95
M204 S1500
M205 X30 Y30
G0 F2475 X145.45 Y145.45
M204 S500
M205 X10 Y10
;TYPE:WALL-OUTER
G1 F1050 X145.45 Y164.55 E87.51677
G1 X164.55 Y164.55 E88.50938
G1 X164.55 Y145.45 E89.50199
G1 X145.962 Y145.45 E90.46799
G0 F840 X145.45 Y145.45
M204 S1500
M205 X30 Y30
G0 F2475 X145.45 Y145.7
G0 X146.27 Y146.27
G0 X146.925 Y146.925
M204 S500
M205 X10 Y10
;TYPE:SKIN
G1 F1050 X146.925 Y163.075 E91.30728
G1 X163.075 Y163.075 E92.14658
G1 X163.075 Y146.925 E92.98588
G1 X147.437 Y146.925 E93.79857
G0 F840 X146.925 Y146.925
M204 S1500
M205 X30 Y30
G0 F2475 X147.175 Y147.688
M204 S500
M205 X10 Y10
G1 F1050 X147.689 Y147.174 E93.83635
M204 S1500
M205 X30 Y30
G0 F2475 X148.396 Y147.174
M204 S500
M205 X10 Y10
G1 F1050 X147.175 Y148.395 E93.92609
M204 S1500
M205 X30 Y30
G0 F2475 X147.175 Y149.102
M204 S500
M205 X10 Y10
G1 F1050 X149.103 Y147.174 E94.06779
M204 S1500
M205 X30 Y30
G0 F2475 X149.81 Y147.174
M204 S500
M205 X10 Y10
G1 F1050 X147.175 Y149.809 E94.26145
M204 S1500
M205 X30 Y30
G0 F2475 X147.175 Y150.516
M204 S500
M205 X10 Y10
G1 F1050 X150.517 Y147.174 E94.50707
M204 S1500
M205 X30 Y30
G0 F2475 X151.224 Y147.174
M204 S500
M205 X10 Y10
G1 F1050 X147.175 Y151.223 E94.80465
M204 S1500
M205 X30 Y30
G0 F2475 X147.175 Y151.931
M204 S500
M205 X10 Y10
G1 F1050 X151.931 Y147.174 E95.15423
M204 S1500
M205 X30 Y30
G0 F2475 X152.638 Y147.174
M204 S500
M205 X10 Y10
G1 F1050 X147.175 Y152.638 E95.55577
M204 S1500
M205 X30 Y30
G0 F2475 X147.175 Y153.345
M204 S500
M205 X10 Y10
G1 F1050 X153.346 Y147.174 E96.00931
M204 S1500
M205 X30 Y30
G0 F2475 X154.053 Y147.174
M204 S500
M205 X10 Y10
G1 F1050 X147.175 Y154.052 E96.51481
M204 S1500
M205 X30 Y30
G0 F2475 X147.175 Y154.759
M204 S500
M205 X10 Y10
G1 F1050 X154.76 Y147.174 E97.07227
M204 S1500
M205 X30 Y30
G0 F2475 X155.467 Y147.174
M204 S500
M205 X10 Y10
G1 F1050 X147.175 Y155.466 E97.68169
M204 S1500
M205 X30 Y30
G0 F2475 X147.175 Y156.173
M204 S500
M205 X10 Y10
G1 F1050 X156.174 Y147.174 E98.34308
M204 S1500
M205 X30 Y30
G0 F2475 X156.881 Y147.174
M204 S500
M205 X10 Y10
G1 F1050 X147.175 Y156.88 E99.05642
M204 S1500
M205 X30 Y30
G0 F2475 X147.175 Y157.587
M204 S500
M205 X10 Y10
G1 F1050 X157.588 Y147.174 E99.82173
M204 S1500
M205 X30 Y30
G0 F2475 X158.295 Y147.174
M204 S500
M205 X10 Y10
G1 F1050 X147.175 Y158.295 E100.63903
M204 S1500
M205 X30 Y30
G0 F2475 X147.175 Y159.002
M204 S500
M205 X10 Y10
G1 F1050 X159.002 Y147.174 E101.50829
M204 S1500
M205 X30 Y30
G0 F2475 X159.709 Y147.174
M204 S500
