;FLAVOR:Marlin
;TIME:6015
;Filament used: 5.09572m
;Layer height: 0.25
;MINX:118.036
;MINY:120.696
;MINZ:0.3
;MAXX:191.964
;MAXY:184.056
;MAXZ:45.55
;Generated with Cura_SteamEngine main
M140 S60
M105
M190 S60
M104 S190
M105
M109 S190
M82 ;absolute extrusion mode
G28 ;Home
G1 Z15.0 F6000 ;Move the platform down 15mm
;Prime the extruder
G92 E0
G1 F200 E3
G92 E0
G92 E0
G92 E0
G1 F2700 E-4
;LAYER_COUNT:182
;LAYER:0
M107
M204 S1000
M205 X30 Y30
G0 F1350 X121.123 Y123.369 Z0.3
G0 X118.036 Y130.235
M204 S500
M205 X10 Y10
;TYPE:SKIRT
G1 F2700 E0
G1 F900 X118.046 Y129.54 E0.04599
G1 X118.095 Y128.922 E0.087
G1 X118.247 Y128.202 E0.13569
G1 X118.804 Y126.711 E0.24099
G1 X119.216 Y125.877 E0.30254
G1 X119.475 Y125.418 E0.3374
G1 X119.755 Y124.98 E0.3718
G1 X120.081 Y124.53 E0.40856
G1 X120.632 Y123.875 E0.46519
G1 X121.123 Y123.369 E0.51184
G1 X121.806 Y122.794 E0.57091
G1 X122.396 Y122.359 E0.6194
G1 X123.142 Y121.914 E0.67687
G1 X123.643 Y121.655 E0.71419
G1 X124.498 Y121.303 E0.77536
G1 X125.359 Y121.03 E0.83512
G1 X126.006 Y120.877 E0.87911
G1 X126.836 Y120.756 E0.9346
G1 X127.531 Y120.698 E0.98074
G1 X157.199 Y120.696 E2.9436
G1 X158.036 Y120.708 E2.99898
G1 X158.946 Y120.774 E3.05934
G1 X159.71 Y120.884 E3.11041
G1 X160.456 Y121.074 E3.16134
G1 X161.221 Y121.322 E3.21455
G1 X161.854 Y121.578 E3.25972
G1 X162.517 Y121.903 E3.30858
G1 X163.117 Y122.253 E3.35453
G1 X163.546 Y122.553 E3.38917
G1 X165.048 Y123.682 E3.51348
G1 X167.914 Y125.758 E3.74762
G1 X168.363 Y126.073 E3.78391
G1 X168.846 Y126.461 E3.82489
G1 X169.275 Y126.907 E3.86584
G1 X169.644 Y127.405 E3.90684
G1 X170.04 Y128.162 E3.96337
G1 X170.762 Y129.899 E4.08782
G1 X171.846 Y132.366 E4.2661
G1 X173.008 Y134.823 E4.44592
G1 X174.23 Y137.227 E4.62434
G1 X175.512 Y139.583 E4.8018
G1 X176.865 Y141.906 E4.97965
G1 X178.282 Y144.193 E5.15765
G1 X179.774 Y146.456 E5.33699
G1 X181.301 Y148.631 E5.51281
G1 X182.94 Y150.833 E5.69442
G1 X184.591 Y152.925 E5.87074
G1 X186.304 Y154.972 E6.04734
G1 X188.118 Y157.021 E6.22839
G1 X189.765 Y158.782 E6.38792
G1 X190.622 Y159.678 E6.46995
G1 X191.02 Y160.153 E6.51095
G1 X191.354 Y160.674 E6.55189
G1 X191.619 Y161.235 E6.59294
G1 X191.808 Y161.824 E6.63386
G1 X191.921 Y162.434 E6.67491
G1 X191.964 Y163.316 E6.73333
G1 X191.964 Y169.452 E7.13929
G1 X191.955 Y170.179 E7.1874
G1 X191.907 Y170.797 E7.22841
G1 X191.78 Y171.404 E7.26944
G1 X191.577 Y171.989 E7.3104
G1 X191.299 Y172.543 E7.35141
G1 X190.953 Y173.056 E7.39235
G1 X190.543 Y173.521 E7.43337
G1 X190.077 Y173.929 E7.47435
G1 X189.563 Y174.274 E7.5153
G1 X189.008 Y174.55 E7.55631
G1 X188.422 Y174.752 E7.59732
G1 X187.815 Y174.877 E7.63832
G1 X187.155 Y174.932 E7.68214
G1 X163.184 Y174.932 E9.26808
G1 X162.483 Y174.922 E9.31446
G1 X161.866 Y174.873 E9.35541
G1 X161.159 Y174.716 E9.40332
G1 X160.334 Y174.466 E9.46036
G1 X157.724 Y173.707 E9.64019
G1 X155.126 Y173.031 E9.8178
G1 X152.518 Y172.43 E9.99487
G1 X149.841 Y171.893 E10.17551
G1 X147.224 Y171.445 E10.35117
G1 X144.537 Y171.062 E10.53074
G1 X141.891 Y170.761 E10.70693
G1 X139.166 Y170.529 E10.88787
G1 X136.509 Y170.378 E11.06394
G1 X133.802 Y170.302 E11.24311
G1 X132.424 Y170.292 E11.33428
G1 X128.174 Y170.292 E11.61546
G1 X127.476 Y170.282 E11.66165
G1 X126.738 Y170.225 E11.71062
G1 X125.865 Y170.072 E11.76926
G1 X125.31 Y169.937 E11.80705
G1 X124.6 Y169.719 E11.85619
G1 X123.924 Y169.454 E11.90423
G1 X123.113 Y169.063 E11.96379
G1 X122.413 Y168.641 E12.01787
G1 X121.662 Y168.079 E12.07993
G1 X121.263 Y167.742 E12.11448
G1 X120.648 Y167.127 E12.17203
G1 X120.274 Y166.688 E12.21018
G1 X119.753 Y165.996 E12.26749
G1 X119.375 Y165.41 E12.31363
G1 X119.12 Y164.93 E12.34959
G1 X118.777 Y164.217 E12.40193
G1 X118.35 Y163.072 E12.48278
G1 X118.171 Y162.479 E12.52377
G1 X118.052 Y161.753 E12.57244
G1 X118.036 Y160.643 E12.64589
G1 X118.036 Y130.648 E14.63037
G0 F720 X118.036 Y130.235
M204 S1000
M205 X30 Y30
G0 F1350 X118.551 Y130.242
M204 S500
M205 X10 Y10
G1 F900 X118.561 Y129.547 E14.67636
G1 X118.61 Y128.964 E14.71507
G1 X118.753 Y128.32 E14.75871
G1 X119.278 Y126.913 E14.85807
G1 X119.785 Y125.889 E14.93367
G1 X120.335 Y125.029 E15.00121
G1 X121.021 Y124.212 E15.07179
G1 X121.468 Y123.751 E15.11427
G1 X122.138 Y123.187 E15.17221
G1 X122.596 Y122.851 E15.2098
G1 X123.405 Y122.357 E15.27251
G1 X123.852 Y122.126 E15.3058
G1 X124.686 Y121.782 E15.36549
G1 X125.504 Y121.525 E15.42221
G1 X126.092 Y121.385 E15.4622
G1 X126.91 Y121.266 E15.51689
G1 X127.434 Y121.222 E15.55168
G1 X127.94 Y121.212 E15.58517
G1 X157.191 Y121.211 E17.52043
G1 X157.9 Y121.221 E17.56734
G1 X158.859 Y121.278 E17.6309
G1 X159.767 Y121.429 E17.6918
G1 X160.297 Y121.564 E17.72799
G1 X161.062 Y121.812 E17.78119
G1 X161.627 Y122.041 E17.82153
G1 X162.29 Y122.366 E17.87038
G1 X162.957 Y122.754 E17.92143
G1 X164.776 Y124.122 E18.07201
G1 X167.575 Y126.149 E18.30066
G1 X168.067 Y126.494 E18.34041
G1 X168.522 Y126.862 E18.37913
G1 X168.923 Y127.289 E18.41789
G1 X169.262 Y127.766 E18.4566
G1 X169.565 Y128.359 E18.50066
G1 X170.294 Y130.112 E18.62627
G1 X171.396 Y132.621 E18.80757
G1 X172.537 Y135.033 E18.98411
G1 X173.772 Y137.463 E19.16445
G1 X175.06 Y139.829 E19.34268
G1 X176.436 Y142.193 E19.52365
G1 X177.833 Y144.446 E19.69903
G1 X179.346 Y146.742 E19.88096
G1 X180.896 Y148.949 E20.05939
G1 X182.522 Y151.134 E20.23958
G1 X184.174 Y153.227 E20.41599
G1 X185.938 Y155.335 E20.59785
G1 X187.722 Y157.351 E20.77595
G1 X189.393 Y159.138 E20.93782
G1 X190.25 Y160.034 E21.01985
G1 X190.625 Y160.484 E21.0586
G1 X190.935 Y160.98 E21.0973
G1 X191.174 Y161.514 E21.13601
G1 X191.339 Y162.076 E21.17476
G1 X191.449 Y162.959 E21.23363
G1 X191.449 Y169.446 E21.66282
G1 X191.44 Y170.173 E21.71092
G1 X191.392 Y170.757 E21.74969
G1 X191.266 Y171.328 E21.78837
G1 X191.063 Y171.877 E21.8271
G1 X190.788 Y172.394 E21.86584
G1 X190.444 Y172.867 E21.90454
G1 X190.039 Y173.29 E21.94328
G1 X189.581 Y173.654 E21.98199
G1 X189.077 Y173.952 E22.02073
G1 X188.537 Y174.178 E22.05946
G1 X187.971 Y174.329 E22.09821
G1 X187.172 Y174.417 E22.15139
G1 X163.192 Y174.417 E23.73793
G1 X162.491 Y174.407 E23.78431
G1 X161.907 Y174.358 E23.82308
G1 X161.308 Y174.223 E23.86371
G1 X160.483 Y173.973 E23.92074
G1 X157.888 Y173.218 E24.09955
G1 X155.263 Y172.535 E24.279
G1 X152.593 Y171.92 E24.46028
G1 X149.956 Y171.391 E24.63822
G1 X147.276 Y170.932 E24.81811
G1 X144.6 Y170.551 E24.99694
G1 X141.956 Y170.25 E25.173
G1 X139.205 Y170.015 E25.35567
G1 X136.517 Y169.863 E25.53379
G1 X133.821 Y169.787 E25.71223
G1 X132.428 Y169.777 E25.8044
G1 X128.182 Y169.777 E26.08532
G1 X127.484 Y169.767 E26.1315
G1 X126.807 Y169.715 E26.17642
G1 X125.956 Y169.565 E26.23359
G1 X125.461 Y169.445 E26.26729
G1 X124.751 Y169.227 E26.31643
G1 X124.148 Y168.99 E26.3593
G1 X123.328 Y168.593 E26.41957
G1 X122.813 Y168.282 E26.45938
G1 X122.393 Y167.987 E26.49333
G1 X121.752 Y167.501 E26.54655
G1 X121.019 Y166.77 E26.61504
G1 X120.685 Y166.378 E26.64912
G1 X120.164 Y165.686 E26.70642
G1 X119.827 Y165.163 E26.74759
G1 X119.584 Y164.707 E26.78177
G1 X119.254 Y164.021 E26.83214
G1 X118.833 Y162.892 E26.91186
G1 X118.666 Y162.331 E26.95058
G1 X118.565 Y161.675 E26.9945
G1 X118.551 Y160.706 E27.05861
G1 X118.551 Y130.655 E29.04681
G0 F720 X118.551 Y130.242
M204 S1000
M205 X30 Y30
G0 F1350 X119.066 Y130.25
M204 S500
M205 X10 Y10
G1 F900 X119.076 Y129.555 E29.09279
G1 X119.124 Y129.008 E29.12912
G1 X119.314 Y128.289 E29.17832
G1 X119.749 Y127.124 E29.2606
G1 X120.233 Y126.146 E29.33279
G1 X120.755 Y125.329 E29.39694
G1 X121.411 Y124.549 E29.46437
G1 X121.813 Y124.135 E29.50255
G1 X122.47 Y123.581 E29.5594
G1 X122.953 Y123.227 E29.59902
G1 X123.889 Y122.668 E29.67115
G1 X124.875 Y122.261 E29.74173
G1 X125.648 Y122.019 E29.79532
G1 X126.182 Y121.892 E29.83163
G1 X126.984 Y121.775 E29.88525
G1 X127.567 Y121.727 E29.92396
G1 X157.184 Y121.726 E31.88344
G1 X157.893 Y121.736 E31.93035
G1 X158.639 Y121.784 E31.97981
G1 X159.289 Y121.863 E32.02313
G1 X160.139 Y122.054 E32.08077
G1 X160.904 Y122.302 E32.13397
G1 X161.401 Y122.503 E32.16944
G1 X162.064 Y122.828 E32.21829
G1 X162.664 Y123.178 E32.26425
G1 X164.465 Y124.532 E32.41332
G1 X167.263 Y126.559 E32.64191
G1 X167.772 Y126.916 E32.68305
G1 X168.197 Y127.263 E32.71935
G1 X168.567 Y127.668 E32.75564
G1 X168.962 Y128.251 E32.80223
G1 X169.817 Y130.308 E32.94961
G1 X170.913 Y132.802 E33.12985
G1 X172.08 Y135.27 E33.31046
G1 X173.314 Y137.699 E33.49072
G1 X174.616 Y140.09 E33.67084
G1 X175.982 Y142.438 E33.85056
G1 X177.42 Y144.757 E34.03109
G1 X178.923 Y147.036 E34.21171
G1 X180.46 Y149.226 E34.38873
G1 X182.117 Y151.451 E34.57227
G1 X183.787 Y153.568 E34.75067
G1 X185.541 Y155.663 E34.93144
G1 X187.341 Y157.698 E35.11118
G1 X189.021 Y159.494 E35.27389
G1 X189.878 Y160.39 E35.35592
G1 X190.227 Y160.813 E35.3922
G1 X190.512 Y161.283 E35.42857
G1 X190.725 Y161.789 E35.46489
G1 X190.863 Y162.32 E35.50119
G1 X190.934 Y162.993 E35.54596
G1 X190.934 Y169.44 E35.9725
G1 X190.925 Y170.167 E36.0206
G1 X190.878 Y170.714 E36.05693
G1 X190.752 Y171.248 E36.09323
G1 X190.551 Y171.759 E36.12956
G1 X190.277 Y172.235 E36.16589
G1 X189.937 Y172.666 E36.20221
G1 X189.538 Y173.043 E36.23853
G1 X189.088 Y173.358 E36.27487
G1 X188.598 Y173.605 E36.31118
G1 X188.077 Y173.778 E36.3475
G1 X187.536 Y173.873 E36.38384
G1 X186.937 Y173.901 E36.42351
G1 X163.199 Y173.902 E37.99403
G1 X162.498 Y173.892 E38.04042
G1 X161.951 Y173.844 E38.07675
G1 X161.458 Y173.73 E38.11022
G1 X160.673 Y173.492 E38.16449
G1 X157.988 Y172.711 E38.3495
G1 X155.4 Y172.038 E38.52642
G1 X152.702 Y171.416 E38.7096
G1 X150.043 Y170.883 E38.88902
G1 X147.363 Y170.424 E39.06891
G1 X144.697 Y170.044 E39.24708
G1 X141.951 Y169.732 E39.42993
G1 X139.277 Y169.504 E39.60748
G1 X136.527 Y169.348 E39.78972
G1 X133.839 Y169.272 E39.96763
G1 X132.431 Y169.262 E40.06078
G1 X128.189 Y169.262 E40.34144
G1 X127.246 Y169.248 E40.40383
G1 X126.205 Y169.097 E40.47343
G1 X125.613 Y168.953 E40.51374
G1 X124.903 Y168.735 E40.56287
G1 X124.371 Y168.527 E40.60067
G1 X123.593 Y168.152 E40.65781
G1 X122.955 Y167.767 E40.70711
G1 X122.085 Y167.108 E40.77932
G1 X121.255 Y166.278 E40.85698
G1 X120.576 Y165.376 E40.93167
G1 X120.187 Y164.774 E40.97909
G1 X119.727 Y163.816 E41.0494
G1 X119.315 Y162.712 E41.12736
G1 X119.161 Y162.185 E41.16369
G1 X119.077 Y161.448 E41.21276
G1 X119.066 Y160.698 E41.26239
G1 X119.066 Y130.663 E43.24952
G0 F720 X119.066 Y130.25
M204 S1000
M205 X30 Y30
G0 F1350 X119.581 Y130.257
M204 S500
M205 X10 Y10
G1 F900 X119.591 Y129.562 E43.29551
G1 X119.639 Y129.054 E43.32927
G1 X119.797 Y128.469 E43.36936
G1 X120.227 Y127.318 E43.45065
G1 X120.679 Y126.404 E43.51811
G1 X121.169 Y125.637 E43.57833
G1 X121.8 Y124.886 E43.64323
G1 X122.153 Y124.522 E43.67677
G1 X122.802 Y123.975 E43.73293
G1 X123.229 Y123.661 E43.768
G1 X124.125 Y123.127 E43.83701
G1 X125.064 Y122.74 E43.9042
G1 X126.054 Y122.432 E43.9728
G1 X127.058 Y122.285 E44.03993
G1 X127.578 Y122.242 E44.07445
G1 X157.177 Y122.241 E46.03274
G1 X157.886 Y122.251 E46.07965
G1 X158.779 Y122.307 E46.13885
G1 X159.754 Y122.471 E46.20426
G1 X160.963 Y122.863 E46.28835
G1 X161.837 Y123.291 E46.35274
G1 X162.343 Y123.586 E46.39149
G1 X164.141 Y124.933 E46.54012
G1 X167.007 Y127.009 E46.77426
G1 X167.476 Y127.338 E46.81216
G1 X167.869 Y127.662 E46.84586
G1 X168.207 Y128.045 E46.87966
G1 X168.529 Y128.55 E46.91928
G1 X169.341 Y130.504 E47.05928
G1 X170.457 Y133.044 E47.24283
G1 X171.609 Y135.479 E47.42105
G1 X172.87 Y137.961 E47.60524
G1 X174.157 Y140.325 E47.78332
G1 X175.544 Y142.708 E47.96574
G1 X176.981 Y145.026 E48.14618
G1 X178.484 Y147.305 E48.3268
G1 X180.083 Y149.584 E48.51099
G1 X181.681 Y151.73 E48.68801
G1 X183.386 Y153.891 E48.87012
G1 X185.158 Y156.009 E49.05283
G1 X186.96 Y158.044 E49.23266
G1 X188.674 Y159.877 E49.39869
G1 X189.505 Y160.746 E49.47824
G1 X189.828 Y161.141 E49.512
G1 X190.085 Y161.582 E49.54577
G1 X190.27 Y162.057 E49.5795
G1 X190.379 Y162.556 E49.61329
G1 X190.419 Y163.316 E49.66364
G1 X190.419 Y169.433 E50.06835
G1 X190.41 Y170.16 E50.11645
G1 X190.364 Y170.668 E50.1502
G1 X190.239 Y171.163 E50.18397
G1 X190.038 Y171.632 E50.21773
G1 X189.767 Y172.064 E50.25147
G1 X189.431 Y172.448 E50.28523
G1 X189.04 Y172.775 E50.31895
G1 X188.602 Y173.038 E50.35276
G1 X188.129 Y173.228 E50.38648
G1 X187.632 Y173.343 E50.42023
G1 X187.14 Y173.386 E50.45291
G1 X163.207 Y173.387 E52.03633
G1 X162.506 Y173.377 E52.08271
G1 X161.871 Y173.317 E52.12491
G1 X160.782 Y172.987 E52.2002
G1 X158.153 Y172.222 E52.38135
G1 X155.504 Y171.533 E52.56244
G1 X152.819 Y170.914 E52.74474
G1 X150.129 Y170.375 E52.92625
G1 X147.449 Y169.916 E53.10614
G1 X144.755 Y169.532 E53.28618
G1 X142.016 Y169.22 E53.46856
G1 X139.316 Y168.99 E53.64784
G1 X136.57 Y168.835 E53.82981
G1 X133.81 Y168.757 E54.01249
G1 X132.435 Y168.747 E54.10346
G1 X128.196 Y168.747 E54.38392
G1 X127.498 Y168.737 E54.4301
G1 X126.949 Y168.695 E54.46653
G1 X125.96 Y168.52 E54.53298
G1 X124.809 Y168.167 E54.61263
G1 X123.803 Y167.679 E54.68661
G1 X123.255 Y167.348 E54.72896
G1 X122.358 Y166.668 E54.80343
G1 X121.628 Y165.918 E54.87268
G1 X120.987 Y165.067 E54.94317
G1 X120.646 Y164.538 E54.98481
G1 X120.199 Y163.607 E55.05313
G1 X119.798 Y162.532 E55.12904
G1 X119.657 Y162.042 E55.16278
G1 X119.592 Y161.441 E55.20277
G1 X119.581 Y160.691 E55.2524
G1 X119.581 Y130.67 E57.23861
G0 F720 X119.581 Y130.257
M204 S1000
M205 X30 Y30
G1 F2700 E53.23861
;MESH:????????????-????????????.stl
G0 F1350 X122.174 Y130.257
G0 X123.359 Y130.257
G0 X126.081 Y132.331
M204 S500
M205 X10 Y10
;TYPE:WALL-INNER
G1 F2700 E57.23861
G1 F900 X125.423 Y132.063 E57.28561
G1 X124.974 Y131.756 E57.3216
G1 X124.694 Y131.493 E57.34701
G1 X124.292 Y130.948 E57.39182
G1 X124.127 Y130.598 E57.41742
G1 X124.127 Y137.625 E57.88233
G1 X124.808 Y136.208 E57.98634
G1 X125.407 Y135.123 E58.06834
G1 X125.988 Y134.206 E58.14016
G1 X126.433 Y133.566 E58.19174
G1 X126.954 Y132.879 E58.24878
G1 X127.374 Y132.378 E58.29203
G1 X126.749 Y132.428 E58.33352
G1 X126.489 Y132.39 E58.3509
G0 F720 X126.081 Y132.331
M204 S1000
M205 X30 Y30
G0 F1350 X127.826 Y131.451
G0 X128.593 Y130.804
G0 X129.666 Y128.704
M204 S500
M205 X10 Y10
G1 F900 X129.775 Y129.464 E58.4017
G1 X129.724 Y130.026 E58.43903
G1 X130.183 Y129.652 E58.4782
G1 X130.973 Y129.052 E58.54384
G1 X131.732 Y128.532 E58.60471
G1 X132.561 Y128.014 E58.66938
G1 X133.537 Y127.479 E58.74302
G1 X134.194 Y127.155 E58.79149
G1 X135.031 Y126.788 E58.85195
G1 X127.953 Y126.788 E59.32024
G1 X128.258 Y126.927 E59.34241
G1 X128.706 Y127.235 E59.37838
G1 X128.985 Y127.498 E59.40375
G1 X129.383 Y128.038 E59.44813
G1 X129.505 Y128.324 E59.4687
G0 F720 X129.666 Y128.704
M204 S1000
M205 X30 Y30
G0 F1350 X138.893 Y126.37
G0 X140.694 Y126.089
G0 X141.712 Y126.001
G0 X142.673 Y125.971
G0 X143.556 Y125.985
G0 X144.587 Y126.047
G0 X146.048 Y126.248
G0 X156.16 Y128.305
M204 S500
M205 X10 Y10
G1 F900 X156.42 Y127.835 E59.50424
G1 X156.841 Y127.35 E59.54673
G1 X157.381 Y126.95 E59.59119
G1 X157.723 Y126.787 E59.61626
G1 X150.667 Y126.787 E60.08308
G1 X151.542 Y127.183 E60.14663
G1 X152.391 Y127.61 E60.2095
G1 X153.394 Y128.185 E60.28599
G1 X153.901 Y128.502 E60.32555
G1 X154.736 Y129.074 E60.39252
G1 X155.953 Y130.004 E60.49385
G1 X155.903 Y129.546 E60.52433
G1 X155.955 Y128.965 E60.56293
G1 X156.038 Y128.699 E60.58136
G0 F720 X156.16 Y128.305
M204 S1000
M205 X30 Y30
G0 F1350 X157.517 Y132.608
G0 X159.078 Y134.635
G0 X159.995 Y136.147
G0 X160.794 Y137.807
G0 X161.482 Y139.668
G0 X161.961 Y141.499
G0 X162.73 Y143.528
G0 X163.728 Y161.381
M204 S500
M205 X10 Y10
G1 F942.1 X163.876 Y162.025 E60.62313
G1 F986.2 X163.876 Y162.993 E60.68158
G1 F942.1 X163.898 Y163.743 E60.729
G1 F901.8 X163.899 Y168.842 E61.0657
G1 F900 X185.874 Y168.842 E62.51958
G1 X185.874 Y164.28 E62.8214
G1 X165.612 Y164.28 E64.16195
G1 X165.251 Y164.229 E64.18607
G1 X164.839 Y164.023 E64.21655
G1 F901.8 X164.476 Y163.599 E64.2534
G1 F938.3 X164.348 Y163.173 E64.28163
G1 F982 X164.348 Y162.025 E64.35124
G1 F942.1 X164.325 Y161.222 E64.40202
G1 F900 X164.325 Y131.27 E66.38366
G1 X162.659 Y131.269 E66.49389
G1 X162.277 Y131.141 E66.52054
G1 X162.054 Y131.003 E66.53789
