;FLAVOR:Marlin
;TIME:1029
;Filament used: 0.361908m
;Layer height: 0.25
;MINX:60.197
;MINY:59.697
;MINZ:0.3
;MAXX:249.803
;MAXY:250.303
;MAXZ:0.3
;Generated with Cura_SteamEngine main
M140 S70
M105
M190 S70
M104 S190
M105
M109 S190
M82 ;absolute extrusion mode
G28 ;Home
G1 Z15.0 F6000 ;Move the platform down 15mm
;Prime the extruder
G92 E0
G1 F200 E3
G92 E0
G92 E0
G92 E0
G1 F2700 E-4
;LAYER_COUNT:1
;LAYER:0
M107
M204 S1000
M205 X30 Y30
G0 F1350 X61.622 Y61.104 Z0.3
G0 X60.197 Y65.109
M204 S500
M205 X10 Y10
;TYPE:SKIRT
G1 F2700 E0
G1 F900 X60.206 Y64.444 E0.01659
G1 X60.255 Y63.826 E0.03205
G1 X60.382 Y63.22 E0.0475
G1 X60.587 Y62.635 E0.06296
G1 X60.865 Y62.082 E0.0784
G1 X61.212 Y61.568 E0.09387
G1 X61.622 Y61.104 E0.10932
G1 X62.088 Y60.696 E0.12477
G1 X62.603 Y60.352 E0.14022
G1 X63.158 Y60.077 E0.15567
G1 X63.744 Y59.875 E0.17113
G1 X64.351 Y59.751 E0.18658
G1 X65.008 Y59.697 E0.20303
G1 X94.361 Y59.697 E0.93524
G1 X95.065 Y59.707 E0.95281
G1 X95.683 Y59.756 E0.96827
G1 X96.289 Y59.884 E0.98372
G1 X96.874 Y60.089 E0.99919
G1 X97.427 Y60.367 E1.01462
G1 X97.852 Y60.648 E1.02733
G1 X98.402 Y61.055 E1.0444
G1 X100.614 Y62.642 E1.11231
G1 X102.837 Y64.143 E1.17922
G1 X105.116 Y65.59 E1.24656
G1 X107.427 Y66.965 E1.31364
G1 X109.78 Y68.28 E1.38088
G1 X112.197 Y69.541 E1.44889
G1 X114.595 Y70.707 E1.5154
G1 X117.03 Y71.806 E1.58205
G1 X119.511 Y72.844 E1.64913
G1 X122.083 Y73.834 E1.71788
G1 X124.584 Y74.717 E1.78404
G1 X127.13 Y75.534 E1.85074
G1 X129.751 Y76.297 E1.91884
G1 X132.314 Y76.963 E1.9849
G1 X134.986 Y77.578 E2.05329
G1 X137.599 Y78.101 E2.11977
G1 X140.255 Y78.557 E2.18699
G1 X142.933 Y78.938 E2.25447
G1 X145.576 Y79.238 E2.32082
G1 X148.294 Y79.469 E2.38887
G1 X150.958 Y79.62 E2.45543
G1 X153.654 Y79.696 E2.5227
G1 X156.352 Y79.696 E2.59001
G1 X159.049 Y79.62 E2.65731
G1 X161.705 Y79.469 E2.72367
G1 X164.435 Y79.237 E2.79202
G1 X167.073 Y78.937 E2.85825
G1 X169.751 Y78.556 E2.92572
G1 X172.403 Y78.101 E2.99284
G1 X175.033 Y77.575 E3.05975
G1 X177.672 Y76.966 E3.12731
G1 X180.272 Y76.29 E3.19432
G1 X182.867 Y75.535 E3.26174
G1 X185.407 Y74.718 E3.3283
G1 X187.972 Y73.812 E3.39616
G1 X190.444 Y72.861 E3.46223
G1 X192.974 Y71.803 E3.53063
G1 X195.423 Y70.697 E3.59766
G1 X197.808 Y69.537 E3.66382
G1 X200.229 Y68.274 E3.73194
G1 X202.581 Y66.961 E3.79913
G1 X204.897 Y65.58 E3.8664
G1 X207.153 Y64.148 E3.93305
G1 X209.385 Y62.641 E4.00023
G1 X211.605 Y61.049 E4.06838
G1 X212.149 Y60.647 E4.08525
G1 X212.671 Y60.311 E4.10074
G1 X213.23 Y60.046 E4.11617
G1 X213.82 Y59.855 E4.13164
G1 X214.429 Y59.741 E4.1471
G1 X215.33 Y59.697 E4.1696
G1 X244.355 Y59.697 E4.89363
G1 X245.053 Y59.706 E4.91104
G1 X245.671 Y59.754 E4.92651
G1 X246.277 Y59.881 E4.94195
G1 X246.862 Y60.085 E4.95741
G1 X247.416 Y60.363 E4.97287
G1 X247.929 Y60.71 E4.98832
G1 X248.394 Y61.12 E5.00378
G1 X248.802 Y61.586 E5.01923
G1 X249.147 Y62.101 E5.0347
G1 X249.422 Y62.656 E5.05015
G1 X249.624 Y63.241 E5.06558
G1 X249.748 Y63.848 E5.08104
G1 X249.803 Y64.506 E5.09751
G1 X249.803 Y93.84 E5.82925
G1 X249.793 Y94.563 E5.84729
G1 X249.744 Y95.181 E5.86275
G1 X249.616 Y95.787 E5.8782
G1 X249.412 Y96.372 E5.89366
G1 X249.134 Y96.926 E5.90912
G1 X248.844 Y97.363 E5.9222
G1 X248.21 Y98.215 E5.94869
G1 X246.591 Y100.451 E6.01756
G1 X245.075 Y102.677 E6.08474
G1 X243.623 Y104.94 E6.15181
G1 X242.242 Y107.238 E6.21869
G1 X240.906 Y109.606 E6.28651
G1 X239.656 Y111.979 E6.35342
G1 X238.472 Y114.386 E6.42033
G1 X237.35 Y116.846 E6.48778
G1 X236.307 Y119.31 E6.55452
G1 X235.308 Y121.871 E6.6231
G1 X234.415 Y124.368 E6.68925
G1 X233.583 Y126.919 E6.75618
G1 X232.816 Y129.514 E6.82368
G1 X232.137 Y132.084 E6.88999
G1 X231.508 Y134.761 E6.95859
G1 X230.976 Y137.36 E7.02477
G1 X230.506 Y140.036 E7.09254
G1 X230.117 Y142.685 E7.15933
G1 X229.802 Y145.36 E7.22652
G1 X229.563 Y148.042 E7.29369
G1 X229.398 Y150.741 E7.36114
G1 X229.312 Y153.401 E7.42753
G1 X229.3 Y156.1 E7.49486
G1 X229.366 Y158.832 E7.56303
G1 X229.505 Y161.49 E7.62942
G1 X229.72 Y164.15 E7.69599
G1 X230.016 Y166.859 E7.76397
G1 X230.386 Y169.533 E7.83131
G1 X230.826 Y172.169 E7.89797
G1 X231.345 Y174.815 E7.96524
G1 X231.943 Y177.46 E8.03288
G1 X232.599 Y180.028 E8.099
G1 X233.351 Y182.656 E8.16718
G1 X234.157 Y185.198 E8.23371
G1 X235.048 Y187.757 E8.3013
G1 X235.99 Y190.237 E8.36748
G1 X237.028 Y192.749 E8.43528
G1 X238.127 Y195.208 E8.50247
G1 X239.292 Y197.631 E8.56953
G1 X240.537 Y200.042 E8.63722
G1 X241.843 Y202.405 E8.70457
G1 X243.191 Y204.69 E8.77075
G1 X244.636 Y206.988 E8.83846
G1 X246.133 Y209.225 E8.90561
G1 X247.201 Y210.741 E8.95187
G1 X247.888 Y211.695 E8.98119
G1 X248.216 Y212.22 E8.99663
G1 X248.475 Y212.783 E9.01209
G1 X248.659 Y213.375 E9.02756
G1 X248.765 Y213.985 E9.043
G1 X248.803 Y214.83 E9.0641
G1 X248.803 Y243.83 E9.78751
G1 X248.793 Y244.557 E9.80565
G1 X248.744 Y245.175 E9.82111
G1 X248.617 Y245.781 E9.83656
G1 X248.412 Y246.366 E9.85202
G1 X248.134 Y246.919 E9.86746
G1 X247.787 Y247.433 E9.88293
G1 X247.377 Y247.897 E9.89838
G1 X246.91 Y248.304 E9.91383
G1 X246.395 Y248.649 E9.92929
G1 X245.84 Y248.924 E9.94474
G1 X245.254 Y249.125 E9.9602
G1 X244.647 Y249.249 E9.97565
G1 X243.991 Y249.303 E9.99207
G1 X214.639 Y249.303 E10.72426
G1 X213.936 Y249.293 E10.7418
G1 X213.318 Y249.244 E10.75726
G1 X212.712 Y249.116 E10.77271
G1 X212.127 Y248.911 E10.78818
G1 X211.487 Y248.59 E10.80604
G1 X210.601 Y247.973 E10.83297
G1 X209.532 Y247.207 E10.86577
G1 X207.294 Y245.697 E10.93312
G1 X205.029 Y244.26 E11.00003
G1 X202.716 Y242.883 E11.06718
G1 X200.359 Y241.569 E11.1345
G1 X197.974 Y240.326 E11.20159
G1 X195.535 Y239.141 E11.26923
G1 X193.125 Y238.053 E11.33519
G1 X190.598 Y236.998 E11.4035
G1 X188.108 Y236.04 E11.47005
G1 X185.548 Y235.138 E11.53776
G1 X182.996 Y234.318 E11.60462
G1 X180.422 Y233.571 E11.67148
G1 X177.798 Y232.889 E11.73911
G1 X175.167 Y232.285 E11.80645
G1 X172.527 Y231.757 E11.87361
G1 X169.885 Y231.305 E11.94047
G1 X167.246 Y230.93 E12.00696
G1 X164.538 Y230.624 E12.07494
G1 X161.844 Y230.395 E12.14239
G1 X159.186 Y230.245 E12.2088
G1 X156.491 Y230.17 E12.27605
G1 X153.794 Y230.172 E12.34333
G1 X151.092 Y230.249 E12.41076
G1 X148.44 Y230.4 E12.47702
G1 X145.716 Y230.632 E12.54522
G1 X143.054 Y230.937 E12.61206
G1 X140.408 Y231.314 E12.67873
G1 X137.724 Y231.775 E12.74666
G1 X135.111 Y232.3 E12.81314
G1 X132.494 Y232.902 E12.88013
G1 X129.854 Y233.591 E12.94819
G1 X127.286 Y234.338 E13.01491
G1 X124.706 Y235.169 E13.08252
G1 X122.191 Y236.058 E13.14906
G1 X119.676 Y237.028 E13.2163
G1 X117.166 Y238.078 E13.28417
G1 X114.739 Y239.176 E13.35062
G1 X112.325 Y240.35 E13.41758
G1 X109.909 Y241.612 E13.48558
G1 X107.584 Y242.911 E13.55201
G1 X105.244 Y244.306 E13.61997
G1 X102.997 Y245.733 E13.68637
G1 X100.743 Y247.258 E13.75426
G1 X98.58 Y248.81 E13.82067
G1 X97.862 Y249.344 E13.84299
G1 X97.342 Y249.681 E13.85844
G1 X96.783 Y249.948 E13.8739
G1 X96.195 Y250.141 E13.88934
G1 X95.586 Y250.257 E13.9048
G1 X94.67 Y250.303 E13.92768
G1 X65.645 Y250.303 E14.65171
G1 X64.947 Y250.294 E14.66912
G1 X64.329 Y250.246 E14.68459
G1 X63.723 Y250.119 E14.70003
G1 X63.138 Y249.915 E14.71549
G1 X62.584 Y249.637 E14.73095
G1 X62.071 Y249.29 E14.7464
G1 X61.606 Y248.88 E14.76186
G1 X61.198 Y248.414 E14.77731
G1 X60.853 Y247.899 E14.79278
G1 X60.578 Y247.344 E14.80823
G1 X60.376 Y246.759 E14.82367
G1 X60.252 Y246.152 E14.83912
G1 X60.197 Y245.488 E14.85574
G1 X60.197 Y216.139 E15.58786
G1 X60.207 Y215.436 E15.60539
G1 X60.256 Y214.818 E15.62086
G1 X60.384 Y214.212 E15.63631
G1 X60.589 Y213.627 E15.65177
G1 X60.867 Y213.074 E15.66721
G1 X61.147 Y212.649 E15.67991
G1 X61.937 Y211.58 E15.71306
G1 X63.501 Y209.401 E15.77997
G1 X65.006 Y207.175 E15.847
G1 X66.473 Y204.864 E15.91528
G1 X67.827 Y202.591 E15.98128
G1 X69.147 Y200.228 E16.0488
G1 X70.41 Y197.81 E16.11685
G1 X71.575 Y195.414 E16.18331
G1 X72.669 Y192.991 E16.24963
G1 X73.721 Y190.477 E16.31761
G1 X74.701 Y187.932 E16.38564
G1 X75.591 Y185.412 E16.4523
G1 X76.402 Y182.89 E16.51839
G1 X77.168 Y180.259 E16.58674
G1 X77.839 Y177.677 E16.65329
G1 X78.444 Y175.054 E16.72044
G1 X78.977 Y172.396 E16.78807
G1 X79.43 Y169.755 E16.85491
G1 X79.811 Y167.08 E16.92231
G1 X80.112 Y164.435 E16.98871
G1 X80.344 Y161.71 E17.05694
G1 X80.495 Y159.054 E17.1233
G1 X80.572 Y156.354 E17.19068
G1 X80.572 Y153.655 E17.258
G1 X80.497 Y150.962 E17.32521
G1 X80.346 Y148.298 E17.39177
G1 X80.115 Y145.579 E17.45984
G1 X79.814 Y142.922 E17.52654
G1 X79.437 Y140.272 E17.59331
G1 X78.98 Y137.608 E17.66074
G1 X78.457 Y134.994 E17.72724
G1 X77.841 Y132.319 E17.79571
G1 X77.165 Y129.718 E17.86275
G1 X76.425 Y127.171 E17.92891
G1 X75.588 Y124.567 E17.99714
G1 X74.708 Y122.071 E18.06316
G1 X73.741 Y119.559 E18.1303
G1 X72.678 Y117.015 E18.19908
G1 X71.593 Y114.612 E18.26485
G1 X70.414 Y112.185 E18.33216
G1 X69.159 Y109.779 E18.39985
G1 X67.852 Y107.438 E18.46673
G1 X66.459 Y105.1 E18.53462
G1 X65.039 Y102.863 E18.60072
G1 X63.526 Y100.621 E18.66819
G1 X61.936 Y98.403 E18.73626
G1 X61.168 Y97.379 E18.76819
G1 X60.829 Y96.861 E18.78364
G1 X60.559 Y96.303 E18.7991
G1 X60.364 Y95.715 E18.81455
G1 X60.246 Y95.107 E18.83
G1 X60.197 Y94.494 E18.84534
G1 X60.197 Y65.522 E19.56805
G0 F720 X60.197 Y65.109
M204 S1000
M205 X30 Y30
G0 F1350 X60.712 Y65.116
M204 S500
M205 X10 Y10
G1 F900 X60.721 Y64.451 E19.58464
G1 X60.769 Y63.868 E19.59924
G1 X60.896 Y63.296 E19.61385
G1 X61.1 Y62.747 E19.62846
G1 X61.376 Y62.231 E19.64306
G1 X61.72 Y61.758 E19.65765
G1 X62.125 Y61.335 E19.67226
G1 X62.584 Y60.972 E19.68686
G1 X63.089 Y60.675 E19.70147
G1 X63.629 Y60.449 E19.71607
G1 X64.195 Y60.299 E19.73068
G1 X64.989 Y60.212 E19.7506
G1 X94.354 Y60.212 E20.48312
G1 X95.058 Y60.222 E20.50068
G1 X95.641 Y60.271 E20.51528
G1 X96.213 Y60.398 E20.52989
G1 X96.761 Y60.602 E20.54448
G1 X97.35 Y60.917 E20.56114
G1 X98.072 Y61.451 E20.58354
G1 X100.312 Y63.058 E20.65231
G1 X102.583 Y64.592 E20.72067
G1 X104.837 Y66.023 E20.78727
G1 X107.183 Y67.419 E20.85537
G1 X109.535 Y68.734 E20.92259
G1 X111.95 Y69.993 E20.99053
G1 X114.361 Y71.165 E21.0574
G1 X116.849 Y72.289 E21.1255
G1 X119.33 Y73.326 E21.19258
G1 X121.911 Y74.32 E21.26157
G1 X124.387 Y75.194 E21.32707
G1 X127.014 Y76.037 E21.3959
G1 X129.587 Y76.786 E21.46274
G1 X132.203 Y77.466 E21.53017
G1 X134.878 Y78.082 E21.59864
G1 X137.519 Y78.611 E21.66583
G1 X140.168 Y79.065 E21.73288
G1 X142.836 Y79.445 E21.8001
G1 X145.546 Y79.752 E21.86814
G1 X148.255 Y79.982 E21.93595
G1 X150.95 Y80.135 E22.00329
G1 X153.639 Y80.211 E22.07039
G1 X156.367 Y80.211 E22.13844
G1 X159.057 Y80.135 E22.20557
G1 X161.744 Y79.983 E22.27271
G1 X164.465 Y79.751 E22.34083
G1 X167.17 Y79.444 E22.40874
G1 X169.838 Y79.064 E22.47597
G1 X172.483 Y78.61 E22.54291
G1 X175.149 Y78.077 E22.61073
G1 X177.776 Y77.471 E22.67798
G1 X180.437 Y76.779 E22.74657
G1 X182.995 Y76.035 E22.81302
G1 X185.595 Y75.199 E22.88115
G1 X188.144 Y74.298 E22.94859
G1 X190.625 Y73.344 E23.0149
G1 X193.169 Y72.279 E23.0837
G1 X195.644 Y71.161 E23.15144
G1 X198.055 Y69.989 E23.21831
G1 X200.474 Y68.728 E23.28636
G1 X202.826 Y67.414 E23.35357
G1 X205.135 Y66.038 E23.42062
G1 X207.447 Y64.57 E23.48894
G1 X209.687 Y63.057 E23.55636
G1 X211.934 Y61.446 E23.62533
G1 X212.455 Y61.061 E23.64149
G1 X212.949 Y60.746 E23.65611
G1 X213.481 Y60.501 E23.67072
G1 X214.041 Y60.331 E23.68532
G1 X214.965 Y60.212 E23.70856
G1 X244.348 Y60.212 E24.44152
G1 X245.046 Y60.221 E24.45893
G1 X245.63 Y60.269 E24.47355
G1 X246.201 Y60.395 E24.48814
G1 X246.75 Y60.598 E24.50274
G1 X247.266 Y60.875 E24.51735
G1 X247.74 Y61.218 E24.53194
G1 X248.163 Y61.623 E24.54655
G1 X248.526 Y62.082 E24.56115
G1 X248.824 Y62.586 E24.57575
G1 X249.05 Y63.126 E24.59036
G1 X249.2 Y63.692 E24.60496
G1 X249.288 Y64.489 E24.62497
G1 X249.288 Y93.833 E25.35696
G1 X249.278 Y94.556 E25.37499
G1 X249.23 Y95.14 E25.38961
G1 X249.103 Y95.711 E25.4042
G1 X248.899 Y96.26 E25.41881
G1 X248.577 Y96.859 E25.43578
G1 X247.761 Y97.957 E25.4699
G1 X246.16 Y100.168 E25.538
G1 X244.661 Y102.37 E25.60445
G1 X243.178 Y104.682 E25.67296
G1 X241.79 Y106.99 E25.74015
G1 X240.462 Y109.344 E25.80757
G1 X239.199 Y111.741 E25.87515
G1 X238.01 Y114.161 E25.94241
G1 X236.875 Y116.646 E26.01056
G1 X235.826 Y119.126 E26.07773
G1 X234.824 Y121.695 E26.14652
G1 X233.936 Y124.176 E26.21225
G1 X233.085 Y126.787 E26.28076
G1 X232.329 Y129.345 E26.34729
G1 X231.625 Y132.01 E26.41605
G1 X231.014 Y134.607 E26.4826
G1 X230.461 Y137.31 E26.55143
G1 X230.004 Y139.91 E26.61728
G1 X229.607 Y142.618 E26.68555
G1 X229.288 Y145.324 E26.75352
G1 X229.049 Y148.002 E26.82059
G1 X228.885 Y150.693 E26.88784
G1 X228.797 Y153.417 E26.95583
G1 X228.785 Y156.109 E27.02298
G1 X228.851 Y158.837 E27.09105
G1 X228.992 Y161.521 E27.1581
G1 X229.209 Y164.214 E27.22549
G1 X229.504 Y166.913 E27.29322
G1 X229.878 Y169.621 E27.36141
G1 X230.316 Y172.245 E27.42777
G1 X230.843 Y174.927 E27.49596
G1 X231.443 Y177.585 E27.56393
G1 X232.102 Y180.164 E27.63033
G1 X232.857 Y182.802 E27.69878
G1 X233.665 Y185.349 E27.76543
G1 X234.561 Y187.924 E27.83344
G1 X235.523 Y190.455 E27.90099
G1 X236.549 Y192.941 E27.96807
G1 X237.66 Y195.426 E28.03598
G1 X238.845 Y197.889 E28.10416
G1 X240.074 Y200.269 E28.17097
G1 X241.387 Y202.646 E28.23871
G1 X242.756 Y204.966 E28.30591
G1 X244.201 Y207.263 E28.37361
G1 X245.72 Y209.533 E28.44174
G1 X246.783 Y211.042 E28.48778
G1 X247.47 Y211.996 E28.51711
G1 X247.778 Y212.493 E28.53169
G1 X248.017 Y213.028 E28.54631
G1 X248.18 Y213.59 E28.56091
G1 X248.288 Y214.469 E28.583
G1 X248.288 Y243.823 E29.31524
G1 X248.278 Y244.55 E29.33338
G1 X248.23 Y245.133 E29.34797
G1 X248.103 Y245.705 E29.36259
G1 X247.899 Y246.254 E29.3772
G1 X247.623 Y246.77 E29.39179
G1 X247.278 Y247.243 E29.4064
G1 X246.873 Y247.665 E29.42099
G1 X246.414 Y248.028 E29.43558
G1 X245.909 Y248.325 E29.4502
G1 X245.369 Y248.551 E29.4648
G1 X244.804 Y248.701 E29.47938
G1 X244.011 Y248.788 E29.49928
G1 X214.646 Y248.788 E30.2318
G1 X213.943 Y248.778 E30.24934
G1 X213.36 Y248.729 E30.26393
G1 X212.788 Y248.602 E30.27855
G1 X212.24 Y248.398 E30.29313
G1 X211.555 Y248.01 E30.31277
G1 X210.901 Y247.555 E30.33265
G1 X209.816 Y246.777 E30.36595
G1 X207.572 Y245.264 E30.43346
G1 X205.302 Y243.823 E30.50053
G1 X202.96 Y242.429 E30.56852
G1 X200.604 Y241.116 E30.6358
G1 X198.212 Y239.869 E30.70309
G1 X195.769 Y238.682 E30.77085
G1 X193.29 Y237.563 E30.83869
G1 X190.796 Y236.523 E30.9061
G1 X188.28 Y235.555 E30.97335
G1 X185.732 Y234.656 E31.04075
G1 X183.135 Y233.822 E31.10879
G1 X180.545 Y233.07 E31.17606
G1 X177.935 Y232.392 E31.24333
G1 X175.283 Y231.783 E31.31121
G1 X172.639 Y231.254 E31.37847
G1 X169.945 Y230.793 E31.44665
G1 X167.304 Y230.418 E31.51319
G1 X164.605 Y230.113 E31.58094
G1 X161.88 Y229.881 E31.64917
G1 X159.194 Y229.73 E31.71627
G1 X156.505 Y229.655 E31.78338
G1 X153.779 Y229.657 E31.85138
G1 X151.083 Y229.734 E31.91866
G1 X148.367 Y229.888 E31.98652
G1 X145.686 Y230.117 E32.05364
G1 X142.996 Y230.425 E32.12118
G1 X140.316 Y230.806 E32.18871
G1 X137.637 Y231.267 E32.25652
G1 X135.002 Y231.796 E32.32356
G1 X132.356 Y232.405 E32.39129
G1 X129.731 Y233.09 E32.45896
G1 X127.159 Y233.838 E32.52578
G1 X124.54 Y234.682 E32.59442
G1 X122.006 Y235.577 E32.66146
G1 X119.477 Y236.553 E32.72908
G1 X116.971 Y237.602 E32.79685
G1 X114.524 Y238.708 E32.86383
G1 X112.078 Y239.898 E32.93169
G1 X109.69 Y241.144 E32.99888
G1 X107.302 Y242.48 E33.06713
G1 X105 Y243.852 E33.13398
G1 X102.694 Y245.317 E33.20213
G1 X100.47 Y246.82 E33.26909
G1 X98.273 Y248.397 E33.33655
G1 X97.555 Y248.931 E33.35888
G1 X97.063 Y249.247 E33.37346
G1 X96.532 Y249.494 E33.38807
G1 X95.972 Y249.665 E33.40268
G1 X95.036 Y249.788 E33.42623
G1 X65.652 Y249.788 E34.15921
G1 X64.954 Y249.779 E34.17663
G1 X64.37 Y249.731 E34.19125
G1 X63.799 Y249.605 E34.20583
G1 X63.25 Y249.402 E34.22043
G1 X62.734 Y249.125 E34.23504
G1 X62.26 Y248.782 E34.24964
G1 X61.837 Y248.377 E34.26425
G1 X61.474 Y247.918 E34.27884
G1 X61.176 Y247.414 E34.29345
G1 X60.95 Y246.874 E34.30805
G1 X60.8 Y246.308 E34.32266
G1 X60.712 Y245.507 E34.34276
G1 X60.712 Y216.146 E35.07517
G1 X60.722 Y215.443 E35.09271
G1 X60.771 Y214.86 E35.10731
G1 X60.898 Y214.288 E35.12192
