;FLAVOR:Marlin
;TIME:1508
;Filament used: 0.682173m
;Layer height: 0.25
;MINX:140.197
;MINY:140.197
;MINZ:0.3
;MAXX:169.803
;MAXY:169.803
;MAXZ:20.05
;Generated with Cura_SteamEngine main
M140 S70
M105
M190 S70
M104 S190
M105
M109 S190
M82 ;absolute extrusion mode
G28 ;Home
G1 Z15.0 F6000 ;Move the platform down 15mm
;Prime the extruder
G92 E0
G1 F200 E3
G92 E0
G92 E0
G92 E0
G1 F2700 E-4
;LAYER_COUNT:80
;LAYER:0
M107
M204 S1000
M205 X30 Y30
G0 F1350 X141.622 Y141.604 Z0.3
G0 X140.197 Y145.609
M204 S500
M205 X10 Y10
;TYPE:SKIRT
G1 F2700 E0
G1 F900 X140.206 Y144.944 E0.01659
G1 X140.255 Y144.326 E0.03205
G1 X140.382 Y143.72 E0.0475
G1 X140.587 Y143.135 E0.06296
G1 X140.865 Y142.582 E0.0784
G1 X141.212 Y142.068 E0.09387
G1 X141.622 Y141.604 E0.10932
G1 X142.088 Y141.196 E0.12477
G1 X142.603 Y140.852 E0.14022
G1 X143.158 Y140.577 E0.15567
G1 X143.744 Y140.375 E0.17113
G1 X144.351 Y140.251 E0.18658
G1 X145.008 Y140.197 E0.20303
G1 X164.362 Y140.197 E0.68582
G1 X165.06 Y140.207 E0.70323
G1 X165.677 Y140.256 E0.71867
G1 X166.284 Y140.384 E0.73415
G1 X166.868 Y140.589 E0.74958
G1 X167.422 Y140.868 E0.76506
G1 X167.935 Y141.215 E0.78051
G1 X168.399 Y141.625 E0.79595
G1 X168.806 Y142.092 E0.81141
G1 X169.15 Y142.608 E0.82688
G1 X169.425 Y143.163 E0.84233
G1 X169.626 Y143.749 E0.85778
G1 X169.749 Y144.356 E0.87323
G1 X169.803 Y145.008 E0.88955
G1 X169.803 Y164.323 E1.37137
G1 X169.794 Y165.05 E1.3895
G1 X169.746 Y165.668 E1.40496
G1 X169.619 Y166.275 E1.42043
G1 X169.416 Y166.86 E1.43588
G1 X169.138 Y167.414 E1.45134
G1 X168.792 Y167.927 E1.46678
G1 X168.382 Y168.392 E1.48224
G1 X167.916 Y168.8 E1.49769
G1 X167.402 Y169.145 E1.51314
G1 X166.847 Y169.421 E1.5286
G1 X166.261 Y169.623 E1.54406
G1 X165.654 Y169.748 E1.55952
G1 X164.994 Y169.803 E1.57604
G1 X145.645 Y169.803 E2.0587
G1 X144.947 Y169.794 E2.07612
G1 X144.329 Y169.746 E2.09158
G1 X143.723 Y169.619 E2.10702
G1 X143.138 Y169.415 E2.12248
G1 X142.584 Y169.137 E2.13794
G1 X142.071 Y168.79 E2.15339
G1 X141.606 Y168.38 E2.16885
G1 X141.198 Y167.914 E2.1843
G1 X140.853 Y167.399 E2.19977
G1 X140.578 Y166.844 E2.21522
G1 X140.376 Y166.259 E2.23066
G1 X140.252 Y165.652 E2.24611
G1 X140.197 Y164.988 E2.26273
G1 X140.197 Y146.022 E2.73584
G0 F720 X140.197 Y145.609
M204 S1000
M205 X30 Y30
G0 F1350 X140.712 Y145.616
M204 S500
M205 X10 Y10
G1 F900 X140.721 Y144.951 E2.75243
G1 X140.769 Y144.368 E2.76702
G1 X140.896 Y143.796 E2.78164
G1 X141.1 Y143.247 E2.79625
G1 X141.376 Y142.731 E2.81085
G1 X141.72 Y142.258 E2.82544
G1 X142.125 Y141.835 E2.84004
G1 X142.584 Y141.472 E2.85464
G1 X143.089 Y141.175 E2.86926
G1 X143.629 Y140.949 E2.88386
G1 X144.195 Y140.799 E2.89847
G1 X144.989 Y140.712 E2.91839
G1 X164.354 Y140.712 E3.40145
G1 X165.052 Y140.722 E3.41887
G1 X165.636 Y140.771 E3.43349
G1 X166.207 Y140.898 E3.44808
G1 X166.756 Y141.102 E3.46269
G1 X167.272 Y141.379 E3.4773
G1 X167.745 Y141.723 E3.49189
G1 X168.167 Y142.129 E3.50649
G1 X168.53 Y142.588 E3.52109
G1 X168.827 Y143.093 E3.53571
G1 X169.052 Y143.633 E3.5503
G1 X169.202 Y144.199 E3.56491
G1 X169.288 Y144.99 E3.58475
G1 X169.288 Y164.317 E4.06687
G1 X169.279 Y165.044 E4.085
G1 X169.231 Y165.628 E4.09962
G1 X169.105 Y166.199 E4.11421
G1 X168.902 Y166.748 E4.12881
G1 X168.627 Y167.265 E4.14342
G1 X168.283 Y167.738 E4.15801
G1 X167.878 Y168.161 E4.17262
G1 X167.42 Y168.525 E4.18721
G1 X166.916 Y168.823 E4.20181
G1 X166.376 Y169.049 E4.21642
G1 X165.81 Y169.2 E4.23103
G1 X165.011 Y169.288 E4.25108
G1 X145.652 Y169.288 E4.73399
G1 X144.954 Y169.279 E4.75141
G1 X144.37 Y169.231 E4.76602
G1 X143.799 Y169.105 E4.78061
G1 X143.25 Y168.902 E4.79521
G1 X142.734 Y168.625 E4.80982
G1 X142.26 Y168.282 E4.82442
G1 X141.837 Y167.877 E4.83902
G1 X141.474 Y167.418 E4.85362
G1 X141.176 Y166.914 E4.86823
G1 X140.95 Y166.374 E4.88283
G1 X140.8 Y165.808 E4.89744
G1 X140.712 Y165.007 E4.91754
G1 X140.712 Y146.029 E5.39095
G0 F720 X140.712 Y145.616
M204 S1000
M205 X30 Y30
G0 F1350 X141.227 Y145.623
M204 S500
M205 X10 Y10
G1 F900 X141.236 Y144.958 E5.40754
G1 X141.284 Y144.411 E5.42123
G1 X141.41 Y143.877 E5.43492
G1 X141.612 Y143.366 E5.44863
G1 X141.887 Y142.891 E5.46232
G1 X142.227 Y142.46 E5.47601
G1 X142.627 Y142.083 E5.48972
G1 X143.076 Y141.768 E5.50341
G1 X143.567 Y141.522 E5.51711
G1 X144.089 Y141.35 E5.53082
G1 X144.968 Y141.228 E5.55295
G1 X164.347 Y141.227 E6.03637
G1 X165.045 Y141.237 E6.05378
G1 X165.592 Y141.285 E6.06748
G1 X166.126 Y141.412 E6.08117
G1 X166.636 Y141.615 E6.09486
G1 X167.112 Y141.889 E6.10856
G1 X167.542 Y142.23 E6.12225
G1 X167.919 Y142.63 E6.13596
G1 X168.233 Y143.08 E6.14965
G1 X168.479 Y143.571 E6.16335
G1 X168.651 Y144.092 E6.17704
G1 X168.772 Y144.969 E6.19912
G1 X168.773 Y164.311 E6.68161
G1 X168.764 Y165.038 E6.69975
G1 X168.717 Y165.585 E6.71344
G1 X168.591 Y166.119 E6.72713
G1 X168.39 Y166.63 E6.74083
G1 X168.116 Y167.106 E6.75453
G1 X167.776 Y167.537 E6.76822
G1 X167.377 Y167.914 E6.78191
G1 X166.927 Y168.229 E6.79562
G1 X166.437 Y168.476 E6.8093
G1 X165.916 Y168.649 E6.823
G1 X165.375 Y168.744 E6.8367
G1 X164.776 Y168.772 E6.85166
G1 X145.658 Y168.773 E7.32856
G1 X144.96 Y168.764 E7.34597
G1 X144.413 Y168.717 E7.35967
G1 X143.879 Y168.591 E7.37335
G1 X143.368 Y168.389 E7.38706
G1 X142.893 Y168.115 E7.40074
G1 X142.462 Y167.774 E7.41445
G1 X142.085 Y167.375 E7.42814
G1 X141.77 Y166.926 E7.44183
G1 X141.523 Y166.435 E7.45554
G1 X141.351 Y165.914 E7.46922
G1 X141.255 Y165.373 E7.48293
G1 X141.228 Y164.76 E7.49823
G1 X141.227 Y146.036 E7.96531
G0 F720 X141.227 Y145.623
M204 S1000
M205 X30 Y30
G0 F1350 X141.742 Y145.63
M204 S500
M205 X10 Y10
G1 F900 X141.751 Y144.965 E7.9819
G1 X141.798 Y144.457 E7.99462
G1 X141.924 Y143.962 E8.00737
G1 X142.125 Y143.494 E8.02007
G1 X142.397 Y143.062 E8.03281
G1 X142.733 Y142.678 E8.04553
G1 X143.124 Y142.351 E8.05825
G1 X143.562 Y142.09 E8.07097
G1 X144.036 Y141.9 E8.08371
G1 X144.533 Y141.786 E8.09643
G1 X145.02 Y141.743 E8.10862
G1 X164.34 Y141.742 E8.59056
G1 X165.038 Y141.752 E8.60797
G1 X165.546 Y141.8 E8.6207
G1 X166.04 Y141.925 E8.63341
G1 X166.509 Y142.127 E8.64615
G1 X166.94 Y142.399 E8.65887
G1 X167.324 Y142.736 E8.67161
G1 X167.65 Y143.128 E8.68433
G1 X167.911 Y143.566 E8.69705
G1 X168.101 Y144.039 E8.70976
G1 X168.214 Y144.537 E8.7225
G1 X168.257 Y145.019 E8.73457
G1 X168.258 Y164.304 E9.21564
G1 X168.249 Y165.031 E9.23378
G1 X168.203 Y165.539 E9.2465
G1 X168.078 Y166.034 E9.25924
G1 X167.877 Y166.503 E9.27196
G1 X167.606 Y166.935 E9.28469
G1 X167.27 Y167.319 E9.29741
G1 X166.879 Y167.646 E9.31013
G1 X166.441 Y167.909 E9.32287
G1 X165.968 Y168.099 E9.33559
G1 X165.471 Y168.214 E9.34831
G1 X164.979 Y168.257 E9.36063
G1 X145.665 Y168.258 E9.84242
G1 X144.967 Y168.249 E9.85984
G1 X144.459 Y168.202 E9.87256
G1 X143.964 Y168.077 E9.8853
G1 X143.496 Y167.876 E9.898
G1 X143.064 Y167.605 E9.91073
G1 X142.68 Y167.269 E9.92345
G1 X142.353 Y166.877 E9.93619
G1 X142.091 Y166.439 E9.94892
G1 X141.9 Y165.966 E9.96164
G1 X141.786 Y165.469 E9.97436
G1 X141.743 Y164.976 E9.98671
G1 X141.742 Y146.043 E10.45899
G0 F720 X141.742 Y145.63
M204 S1000
M205 X30 Y30
G1 F2700 E6.45899
;MESH:??????xyz??????.stl
G0 F1350 X144.335 Y145.63
G0 X145.52 Y145.63
G0 X146.287 Y146.287
M204 S500
M205 X10 Y10
;TYPE:WALL-INNER
G1 F2700 E10.45899
G1 F900 X146.287 Y163.713 E10.89369
G1 X163.713 Y163.713 E11.32838
G1 X163.713 Y155 E11.54573
G1 X163.713 Y146.287 E11.76308
G1 X146.7 Y146.287 E12.18747
G0 F720 X146.287 Y146.287
M204 S1000
M205 X30 Y30
G0 F1350 X145.772 Y145.772
M204 S500
M205 X10 Y10
G1 F900 X145.772 Y164.228 E12.64786
G1 X164.228 Y164.228 E13.10824
G1 X164.228 Y155 E13.33844
G1 X164.228 Y145.772 E13.56863
G1 X146.185 Y145.772 E14.01872
G0 F720 X145.772 Y145.772
M204 S1000
M205 X30 Y30
G0 F1350 X145.257 Y145.257
M204 S500
M205 X10 Y10
;TYPE:WALL-OUTER
G1 F900 X145.257 Y164.743 E14.5048
G1 X164.743 Y164.743 E14.99088
G1 X164.743 Y155 E15.23392
G1 X164.743 Y145.257 E15.47696
G1 X145.67 Y145.257 E15.95274
G0 F720 X145.257 Y145.257
M204 S1000
M205 X30 Y30
G0 F1350 X145.257 Y145.507
G0 X146.07 Y146.07
G0 X146.776 Y146.776
M204 S500
M205 X10 Y10
;TYPE:SKIN
G1 F900 X146.776 Y163.224 E16.36304
G1 X163.224 Y163.224 E16.77334
G1 X163.224 Y155 E16.97848
G1 X163.224 Y146.776 E17.18363
G1 X147.189 Y146.776 E17.58363
G0 F720 X146.776 Y146.776
M204 S1000
M205 X30 Y30
G0 F1350 X162.966 Y147.672
M204 S500
M205 X10 Y10
G1 F900 X162.327 Y147.032 E17.60619
M204 S1000
M205 X30 Y30
G0 F1350 X161.599 Y147.032
M204 S500
M205 X10 Y10
G1 F900 X162.966 Y148.4 E17.65443
M204 S1000
M205 X30 Y30
G0 F1350 X162.966 Y149.128
M204 S500
M205 X10 Y10
G1 F900 X160.871 Y147.032 E17.72836
M204 S1000
M205 X30 Y30
G0 F1350 X160.142 Y147.032
M204 S500
M205 X10 Y10
G1 F900 X162.966 Y149.857 E17.828
M204 S1000
M205 X30 Y30
G0 F1350 X162.966 Y150.585
M204 S500
M205 X10 Y10
G1 F900 X159.414 Y147.032 E17.95332
M204 S1000
M205 X30 Y30
G0 F1350 X158.686 Y147.032
M204 S500
M205 X10 Y10
G1 F900 X162.966 Y151.313 E18.10433
M204 S1000
M205 X30 Y30
G0 F1350 X162.966 Y152.042
M204 S500
M205 X10 Y10
G1 F900 X157.957 Y147.032 E18.28105
M204 S1000
M205 X30 Y30
G0 F1350 X157.229 Y147.032
M204 S500
M205 X10 Y10
G1 F900 X162.966 Y152.77 E18.48346
M204 S1000
M205 X30 Y30
G0 F1350 X162.966 Y153.498
M204 S500
M205 X10 Y10
G1 F900 X156.501 Y147.032 E18.71155
M204 S1000
M205 X30 Y30
G0 F1350 X155.772 Y147.032
M204 S500
M205 X10 Y10
G1 F900 X162.966 Y154.227 E18.96535
M204 S1000
M205 X30 Y30
G0 F1350 X162.966 Y154.955
M204 S500
M205 X10 Y10
G1 F900 X155.044 Y147.032 E19.24484
M204 S1000
M205 X30 Y30
G0 F1350 X154.316 Y147.032
M204 S500
M205 X10 Y10
G1 F900 X162.966 Y155.683 E19.55001
M204 S1000
M205 X30 Y30
G0 F1350 X162.966 Y156.412
M204 S500
M205 X10 Y10
G1 F900 X153.587 Y147.032 E19.8809
M204 S1000
M205 X30 Y30
G0 F1350 X152.859 Y147.032
M204 S500
M205 X10 Y10
G1 F900 X162.966 Y157.14 E20.23747
M204 S1000
M205 X30 Y30
G0 F1350 X162.966 Y157.868
M204 S500
M205 X10 Y10
G1 F900 X152.131 Y147.032 E20.61972
M204 S1000
M205 X30 Y30
G0 F1350 X151.402 Y147.032
M204 S500
M205 X10 Y10
G1 F900 X162.966 Y158.596 E21.02767
M204 S1000
M205 X30 Y30
G0 F1350 X162.966 Y159.325
M204 S500
M205 X10 Y10
G1 F900 X150.674 Y147.032 E21.46133
M204 S1000
M205 X30 Y30
G0 F1350 X149.946 Y147.032
M204 S500
M205 X10 Y10
G1 F900 X162.966 Y160.053 E21.92066
M204 S1000
M205 X30 Y30
G0 F1350 X162.966 Y160.781
M204 S500
M205 X10 Y10
G1 F900 X149.217 Y147.032 E22.40569
M204 S1000
M205 X30 Y30
G0 F1350 X148.489 Y147.032
M204 S500
M205 X10 Y10
G1 F900 X162.966 Y161.51 E22.91643
M204 S1000
M205 X30 Y30
G0 F1350 X162.966 Y162.238
M204 S500
M205 X10 Y10
G1 F900 X147.761 Y147.032 E23.45284
M204 S1000
M205 X30 Y30
G0 F1350 X147.032 Y147.032
M204 S500
M205 X10 Y10
G1 F900 X162.966 Y162.966 E24.01496
M204 S1000
M205 X30 Y30
G0 F1350 X162.238 Y162.966
M204 S500
M205 X10 Y10
G1 F900 X147.032 Y147.761 E24.55138
M204 S1000
M205 X30 Y30
G0 F1350 X147.032 Y148.489
M204 S500
M205 X10 Y10
G1 F900 X161.51 Y162.966 E25.06211
M204 S1000
M205 X30 Y30
G0 F1350 X160.781 Y162.966
M204 S500
M205 X10 Y10
G1 F900 X147.032 Y149.217 E25.54714
M204 S1000
M205 X30 Y30
G0 F1350 X147.032 Y149.946
M204 S500
M205 X10 Y10
G1 F900 X160.053 Y162.966 E26.00648
M204 S1000
M205 X30 Y30
G0 F1350 X159.325 Y162.966
M204 S500
M205 X10 Y10
G1 F900 X147.032 Y150.674 E26.44013
M204 S1000
M205 X30 Y30
G0 F1350 X147.032 Y151.402
M204 S500
M205 X10 Y10
G1 F900 X158.596 Y162.966 E26.84808
M204 S1000
M205 X30 Y30
G0 F1350 X157.868 Y162.966
M204 S500
M205 X10 Y10
G1 F900 X147.032 Y152.131 E27.23033
M204 S1000
M205 X30 Y30
G0 F1350 X147.032 Y152.859
M204 S500
M205 X10 Y10
G1 F900 X157.14 Y162.966 E27.5869
M204 S1000
M205 X30 Y30
G0 F1350 X156.412 Y162.966
M204 S500
M205 X10 Y10
G1 F900 X147.032 Y153.587 E27.91779
M204 S1000
M205 X30 Y30
G0 F1350 X147.032 Y154.316
M204 S500
M205 X10 Y10
G1 F900 X155.683 Y162.966 E28.22296
M204 S1000
M205 X30 Y30
G0 F1350 X154.955 Y162.966
M204 S500
M205 X10 Y10
G1 F900 X147.032 Y155.044 E28.50245
M204 S1000
M205 X30 Y30
G0 F1350 X147.032 Y155.772
M204 S500
M205 X10 Y10
G1 F900 X154.227 Y162.966 E28.75626
M204 S1000
M205 X30 Y30
G0 F1350 X153.498 Y162.966
M204 S500
M205 X10 Y10
G1 F900 X147.032 Y156.501 E28.98435
M204 S1000
M205 X30 Y30
G0 F1350 X147.032 Y157.229
M204 S500
M205 X10 Y10
G1 F900 X152.77 Y162.966 E29.18675
M204 S1000
M205 X30 Y30
G0 F1350 X152.042 Y162.966
M204 S500
M205 X10 Y10
G1 F900 X147.032 Y157.957 E29.36348
M204 S1000
M205 X30 Y30
G0 F1350 X147.032 Y158.686
M204 S500
M205 X10 Y10
G1 F900 X151.313 Y162.966 E29.51448
M204 S1000
M205 X30 Y30
G0 F1350 X150.585 Y162.966
M204 S500
M205 X10 Y10
G1 F900 X147.032 Y159.414 E29.63981
M204 S1000
M205 X30 Y30
G0 F1350 X147.032 Y160.142
M204 S500
M205 X10 Y10
G1 F900 X149.857 Y162.966 E29.73945
M204 S1000
M205 X30 Y30
G0 F1350 X149.128 Y162.966
M204 S500
M205 X10 Y10
G1 F900 X147.032 Y160.871 E29.81337
M204 S1000
M205 X30 Y30
G0 F1350 X147.032 Y161.599
M204 S500
M205 X10 Y10
G1 F900 X148.4 Y162.966 E29.86162
M204 S1000
M205 X30 Y30
G0 F1350 X147.672 Y162.966
M204 S500
M205 X10 Y10
G1 F900 X147.032 Y162.327 E29.88418
M204 S1000
M205 X30 Y30
;MESH:NONMESH
G0 F600 X147.032 Y162.327 Z0.55
G0 F1350 X146.45 Y146.45
;TIME_ELAPSED:94.756887
;LAYER:1
M106 S127.5
M204 S500
M205 X10 Y10
;TYPE:WALL-INNER
;MESH:??????xyz??????.stl
G1 F1650 X146.45 Y163.55 E30.21924
G1 X163.55 Y163.55 E30.5543
G1 X163.55 Y155 E30.72183
G1 X163.55 Y146.45 E30.88936
G1 X146.962 Y146.45 E31.2144
G0 F1320 X146.45 Y146.45
M204 S1500
M205 X30 Y30
G0 F2475 X145.95 Y145.95
M204 S500
M205 X10 Y10
G1 F1650 X145.95 Y164.05 E31.56905
G1 X164.05 Y164.05 E31.92371
G1 X164.05 Y155 E32.10104
G1 X164.05 Y145.95 E32.27837
G1 X146.462 Y145.95 E32.62299
G0 F1320 X145.95 Y145.95
M204 S1500
M205 X30 Y30
G0 F2475 X145.45 Y145.45
M204 S500
M205 X10 Y10
;TYPE:WALL-OUTER
G1 F1050 X145.45 Y164.55 E32.99724
G1 X164.55 Y164.55 E33.3715
G1 X164.55 Y155 E33.55862
G1 X164.55 Y145.45 E33.74575
G1 X145.962 Y145.45 E34.10997
G0 F840 X145.45 Y145.45
M204 S1500
M205 X30 Y30
G0 F2475 X145.45 Y145.7
G0 X146.27 Y146.27
G0 X146.925 Y146.925
M204 S500
M205 X10 Y10
;TYPE:SKIN
G1 F1050 X146.925 Y163.075 E34.42642
G1 X163.075 Y163.075 E34.74286
G1 X163.075 Y155 E34.90109
G1 X163.075 Y146.925 E35.05931
G1 X147.437 Y146.925 E35.36573
G0 F840 X146.925 Y146.925
M204 S1500
M205 X30 Y30
G0 F2475 X147.175 Y147.688
M204 S500
M205 X10 Y10
G1 F1050 X147.689 Y147.174 E35.37997
M204 S1500
M205 X30 Y30
G0 F2475 X148.396 Y147.174
M204 S500
M205 X10 Y10
G1 F1050 X147.175 Y148.395 E35.41381
M204 S1500
M205 X30 Y30
G0 F2475 X147.175 Y149.102
M204 S500
M205 X10 Y10
G1 F1050 X149.103 Y147.174 E35.46723
M204 S1500
M205 X30 Y30
G0 F2475 X149.81 Y147.174
M204 S500
M205 X10 Y10
G1 F1050 X147.175 Y149.809 E35.54025
M204 S1500
M205 X30 Y30
G0 F2475 X147.175 Y150.516
M204 S500
M205 X10 Y10
G1 F1050 X150.517 Y147.174 E35.63286
M204 S1500
M205 X30 Y30
G0 F2475 X151.224 Y147.174
M204 S500
M205 X10 Y10
G1 F1050 X147.175 Y151.223 E35.74506
M204 S1500
M205 X30 Y30
G0 F2475 X147.175 Y151.931
M204 S500
M205 X10 Y10
G1 F1050 X151.931 Y147.174 E35.87686
M204 S1500
M205 X30 Y30
G0 F2475 X152.638 Y147.174
M204 S500
M205 X10 Y10
G1 F1050 X147.175 Y152.638 E36.02826
M204 S1500
M205 X30 Y30
G0 F2475 X147.175 Y153.345
M204 S500
M205 X10 Y10
G1 F1050 X153.346 Y147.174 E36.19926
M204 S1500
M205 X30 Y30
G0 F2475 X154.053 Y147.174
M204 S500
M205 X10 Y10
G1 F1050 X147.175 Y154.052 E36.38986
M204 S1500
M205 X30 Y30
G0 F2475 X147.175 Y154.759
M204 S500
M205 X10 Y10
G1 F1050 X154.76 Y147.174 E36.60004
M204 S1500
M205 X30 Y30
G0 F2475 X155.467 Y147.174
M204 S500
M205 X10 Y10
G1 F1050 X147.175 Y155.466 E36.82982
M204 S1500
M205 X30 Y30
G0 F2475 X147.175 Y156.173
M204 S500
M205 X10 Y10
G1 F1050 X156.174 Y147.174 E37.07918
M204 S1500
M205 X30 Y30
G0 F2475 X156.881 Y147.174
M204 S500
M205 X10 Y10
G1 F1050 X147.175 Y156.88 E37.34814
M204 S1500
M205 X30 Y30
G0 F2475 X147.175 Y157.587
M204 S500
M205 X10 Y10
G1 F1050 X157.588 Y147.174 E37.63669
M204 S1500
M205 X30 Y30
G0 F2475 X158.295 Y147.174
M204 S500
M205 X10 Y10
G1 F1050 X147.175 Y158.295 E37.94485
M204 S1500
M205 X30 Y30
G0 F2475 X147.175 Y159.002
M204 S500
M205 X10 Y10
G1 F1050 X159.002 Y147.174 E38.27259
